;This Gcode has been generated specifically for the LulzBot Mini
;Basic settings: Layer height: 0.3 Walls: 0.6 Fill: 24
;Filament Diameter: 2.9
;Nozzle Size: 0.6
G21                          ; metric values
G90                          ; absolute positioning
M82                          ; set extruder to absolute mode
M107                         ; start with the fan off
G92 E0                       ; set extruder position to 0
M140 S40; get bed heating up
G28                          ; home all
M907 X500                    ; reduce extruder torque for safety
M109 S160                    ; set to cleaning temp and wait
G1 Z150 E-30 F55             ; suck up XXmm of filament
M109 S170                    ; heat up rest of way
G1 X45 Y174 F11520           ; move behind scraper
G1 Z0  F1200                 ; CRITICAL: set Z to height of top of scraper
G1 X45 Y174 Z-.5 F4000       ; wiping ; plunge into wipe pad
G1 X55 Y172 Z-.5 F4000       ; wiping
G1 X45 Y174 Z0 F4000         ; wiping
G1 X55 Y172 F4000            ; wiping
G1 X45 Y174 F4000            ; wiping
G1 X55 Y172 F4000            ; wiping
G1 X45 Y174 F4000            ; wiping
G1 X55 Y172 F4000            ; wiping
G1 X60 Y174 F4000            ; wiping
G1 X80 Y172 F4000            ; wiping
G1 X60 Y174 F4000            ; wiping
G1 X80 Y172 F4000            ; wiping
G1 X60 Y174 F4000            ; wiping
G1 X90 Y172 F4000            ; wiping
G1 X80 Y174 F4000            ; wiping
G1 X100 Y172 F4000           ; wiping
G1 X80 Y174 F4000            ; wiping
G1 X100 Y172 F4000           ; wiping
G1 X80 Y174 F4000            ; wiping
G1 X100 Y172 F4000           ; wiping
G1 X110 Y174 F4000           ; wiping
G1 X100 Y172 F4000           ; wiping
G1 X110 Y174 F4000           ; wiping
G1 X100 Y172 F4000           ; wiping
G1 X110 Y174 F4000           ; wiping
G1 X115 Y172 Z-0.5 F1000     ; wipe slower and bury noz in cleanish area
G1 Z10                       ; raise z
G28 X0 Y0                    ; home x and y
M109 S180                    ; set to probing temp
M204 S300                    ; Set probing acceleration
G29                          ; Probe
M204 S2000                   ; Restore standard acceleration
G1 X5 Y15 Z10 F5000          ; get out the way
G4 S1                        ; pause
M400                         ; clear buffer
M109 S230    ; set extruder temp and wait
G1 Z2 E0 F45                 ; extrude filament back into nozzle
M140 S40; get bed temping up during first layer

;Layer count: 6
;LAYER:0
M107
G0 F10500 X88.320 Y53.502 Z0.400
;TYPE:SKIRT
G1 F480 X88.584 Y53.592 E0.01267
G1 X89.244 Y53.833 E0.04458
G1 X89.980 Y54.127 E0.08058
G1 X90.557 Y54.378 E0.10916
G1 X91.265 Y54.707 E0.14461
G1 X91.826 Y54.987 E0.17309
G1 X92.451 Y55.318 E0.20521
G1 X93.138 Y55.709 E0.24112
G1 X93.674 Y56.035 E0.26961
G1 X94.334 Y56.458 E0.30521
G1 X94.853 Y56.814 E0.33380
G1 X95.422 Y57.225 E0.36568
G1 X96.050 Y57.705 E0.40158
G1 X96.536 Y58.101 E0.43005
G1 X97.134 Y58.611 E0.46575
G1 X97.601 Y59.035 E0.49440
G1 X98.166 Y59.575 E0.52990
G1 X98.608 Y60.022 E0.55845
G1 X99.090 Y60.534 E0.59038
G1 X99.617 Y61.127 E0.62642
G1 X100.019 Y61.609 E0.65492
G1 X100.505 Y62.220 E0.69038
G1 X100.883 Y62.724 E0.71900
G1 X101.290 Y63.297 E0.75092
G1 X101.728 Y63.952 E0.78671
G1 X102.063 Y64.485 E0.81530
G1 X102.465 Y65.161 E0.85102
G1 X102.770 Y65.712 E0.87962
G1 X103.093 Y66.333 E0.91142
G1 X103.439 Y67.041 E0.94721
G1 X103.699 Y67.616 E0.97587
G1 X104.004 Y68.341 E1.01159
G1 X104.230 Y68.927 E1.04012
G1 X104.467 Y69.585 E1.07188
G1 X104.500 Y69.684 E1.07662
G1 X104.709 Y69.088 E1.10531
G1 X104.961 Y68.429 E1.13735
G1 X105.264 Y67.696 E1.17338
G1 X105.524 Y67.121 E1.20204
G1 X105.826 Y66.492 E1.23373
G1 X106.147 Y65.864 E1.26576
G1 X106.490 Y65.240 E1.29810
G1 X106.847 Y64.631 E1.33017
G1 X107.262 Y63.964 E1.36585
G1 X107.611 Y63.439 E1.39448
G1 X108.017 Y62.861 E1.42656
G1 X108.437 Y62.295 E1.45857
G1 X108.872 Y61.741 E1.49056
G1 X109.377 Y61.134 E1.52643
G1 X109.795 Y60.661 E1.55510
G1 X110.272 Y60.147 E1.58695
G1 X110.767 Y59.642 E1.61906
G1 X111.273 Y59.153 E1.65102
G1 X111.795 Y58.675 E1.68317
G1 X112.331 Y58.210 E1.71540
G1 X112.878 Y57.763 E1.74748
G1 X113.501 Y57.280 E1.78329
G1 X114.010 Y56.911 E1.81184
G1 X114.586 Y56.512 E1.84367
G1 X115.179 Y56.126 E1.87580
G1 X115.782 Y55.757 E1.90791
G1 X116.469 Y55.361 E1.94393
G1 X117.025 Y55.064 E1.97256
G1 X117.648 Y54.750 E2.00424
G1 X118.285 Y54.449 E2.03624
G1 X118.932 Y54.166 E2.06832
G1 X119.589 Y53.898 E2.10054
G1 X120.332 Y53.620 E2.13657
G1 X120.679 Y53.502 E2.15322
G1 X120.341 Y53.389 E2.16941
G1 X119.748 Y53.169 E2.19813
G1 X119.100 Y52.910 E2.22983
G1 X118.449 Y52.631 E2.26200
G1 X117.805 Y52.332 E2.29425
G1 X117.102 Y51.983 E2.32989
G1 X116.546 Y51.686 E2.35852
G1 X115.935 Y51.339 E2.39044
G1 X115.257 Y50.930 E2.42640
G1 X114.731 Y50.589 E2.45487
G1 X114.150 Y50.195 E2.48676
G1 X113.510 Y49.731 E2.52266
G1 X113.012 Y49.349 E2.55117
G1 X112.401 Y48.855 E2.58685
G1 X111.925 Y48.446 E2.61536
G1 X111.402 Y47.975 E2.64732
G1 X110.831 Y47.429 E2.68321
G1 X110.391 Y46.983 E2.71166
G1 X109.910 Y46.472 E2.74354
G1 X109.382 Y45.878 E2.77963
G1 X108.980 Y45.396 E2.80814
G1 X108.557 Y44.866 E2.83894
G1 X108.430 Y44.701 E2.84839
G1 X108.066 Y44.214 E2.87601
G1 X107.706 Y43.703 E2.90440
G1 X107.317 Y43.122 E2.93616
G1 X106.940 Y42.527 E2.96815
G1 X106.577 Y41.917 E3.00039
G1 X106.232 Y41.297 E3.03261
G1 X105.867 Y40.598 E3.06843
G1 X105.594 Y40.034 E3.09689
G1 X105.303 Y39.395 E3.12878
G1 X105.027 Y38.742 E3.16098
G1 X104.771 Y38.083 E3.19309
G1 X104.504 Y37.341 E3.22890
G1 X104.500 Y37.327 E3.22956
G1 X104.498 Y37.332 E3.22981
G1 X104.260 Y38.000 E3.26202
G1 X104.007 Y38.659 E3.29408
G1 X103.765 Y39.239 E3.32262
G1 X103.443 Y39.956 E3.35832
G1 X103.134 Y40.593 E3.39048
G1 X102.810 Y41.220 E3.42253
G1 X102.466 Y41.841 E3.45477
G1 X102.107 Y42.451 E3.48692
G1 X101.777 Y42.975 E3.51505
G1 X101.391 Y43.562 E3.54696
G1 X100.934 Y44.213 E3.58308
G1 X100.559 Y44.713 E3.61147
G1 X100.129 Y45.261 E3.64311
G1 X99.677 Y45.808 E3.67533
G1 X99.151 Y46.405 E3.71147
G1 X98.723 Y46.862 E3.73991
G1 X98.233 Y47.362 E3.77171
G1 X97.665 Y47.912 E3.80762
G1 X97.198 Y48.336 E3.83627
G1 X96.670 Y48.793 E3.86798
G1 X96.121 Y49.243 E3.90022
G1 X95.498 Y49.725 E3.93600
G1 X94.989 Y50.095 E3.96458
G1 X94.343 Y50.540 E4.00021
G1 X93.815 Y50.883 E4.02881
G1 X93.214 Y51.250 E4.06079
G1 X92.603 Y51.601 E4.09279
G1 X91.981 Y51.937 E4.12490
G1 X91.353 Y52.254 E4.15685
G1 X90.637 Y52.593 E4.19283
G1 X90.059 Y52.843 E4.22144
G1 X89.413 Y53.106 E4.25311
G1 X88.746 Y53.356 E4.28547
G1 X88.320 Y53.502 E4.30592
G0 F10500 X71.680 Y53.502
G1 F480 X71.342 Y53.389 E4.32211
G1 X70.749 Y53.169 E4.35083
G1 X70.101 Y52.910 E4.38253
G1 X69.450 Y52.631 E4.41470
G1 X68.806 Y52.332 E4.44695
G1 X68.103 Y51.983 E4.48259
G1 X67.547 Y51.686 E4.51122
G1 X66.936 Y51.339 E4.54314
G1 X66.258 Y50.930 E4.57910
G1 X65.732 Y50.589 E4.60757
G1 X65.151 Y50.195 E4.63946
G1 X64.511 Y49.731 E4.67536
G1 X64.013 Y49.349 E4.70387
G1 X63.402 Y48.855 E4.73955
G1 X62.926 Y48.446 E4.76806
G1 X62.403 Y47.975 E4.80002
G1 X61.832 Y47.429 E4.83591
G1 X61.392 Y46.983 E4.86436
G1 X60.911 Y46.472 E4.89623
G1 X60.383 Y45.878 E4.93233
G1 X59.981 Y45.396 E4.96084
G1 X59.558 Y44.866 E4.99164
G1 X59.431 Y44.701 E5.00109
G1 X59.067 Y44.214 E5.02871
G1 X58.707 Y43.703 E5.05710
G1 X58.318 Y43.122 E5.08885
G1 X57.941 Y42.527 E5.12085
G1 X57.578 Y41.917 E5.15309
G1 X57.233 Y41.297 E5.18531
G1 X56.868 Y40.598 E5.22113
G1 X56.595 Y40.034 E5.24959
G1 X56.304 Y39.395 E5.28148
G1 X56.028 Y38.742 E5.31368
G1 X55.772 Y38.083 E5.34579
G1 X55.505 Y37.341 E5.38160
G1 X55.501 Y37.327 E5.38226
G1 X55.499 Y37.332 E5.38251
G1 X55.261 Y38.000 E5.41472
G1 X55.008 Y38.659 E5.44678
G1 X54.766 Y39.239 E5.47532
G1 X54.444 Y39.956 E5.51102
G1 X54.135 Y40.593 E5.54318
G1 X53.811 Y41.220 E5.57523
G1 X53.467 Y41.841 E5.60747
G1 X53.108 Y42.451 E5.63962
G1 X52.778 Y42.975 E5.66775
G1 X52.392 Y43.562 E5.69966
G1 X51.935 Y44.213 E5.73578
G1 X51.560 Y44.713 E5.76417
G1 X51.130 Y45.261 E5.79581
G1 X50.678 Y45.808 E5.82803
G1 X50.152 Y46.405 E5.86417
G1 X49.724 Y46.862 E5.89261
G1 X49.234 Y47.362 E5.92441
G1 X48.666 Y47.912 E5.96032
G1 X48.199 Y48.336 E5.98897
G1 X47.671 Y48.793 E6.02068
G1 X47.122 Y49.243 E6.05292
G1 X46.499 Y49.725 E6.08870
G1 X45.990 Y50.095 E6.11728
G1 X45.344 Y50.540 E6.15291
G1 X44.816 Y50.883 E6.18150
G1 X44.215 Y51.250 E6.21349
G1 X43.604 Y51.601 E6.24549
G1 X42.982 Y51.937 E6.27760
G1 X42.354 Y52.254 E6.30955
G1 X41.638 Y52.593 E6.34553
G1 X41.060 Y52.843 E6.37413
G1 X40.414 Y53.106 E6.40581
G1 X39.747 Y53.356 E6.43817
G1 X39.321 Y53.502 E6.45862
G1 X39.585 Y53.592 E6.47129
G1 X40.245 Y53.833 E6.50320
G1 X40.981 Y54.127 E6.53920
G1 X41.558 Y54.378 E6.56778
G1 X42.266 Y54.707 E6.60323
G1 X42.827 Y54.987 E6.63171
G1 X43.452 Y55.318 E6.66383
G1 X44.139 Y55.709 E6.69974
G1 X44.675 Y56.035 E6.72823
G1 X45.335 Y56.458 E6.76383
G1 X45.854 Y56.814 E6.79242
G1 X46.423 Y57.225 E6.82430
G1 X47.051 Y57.705 E6.86020
G1 X47.537 Y58.101 E6.88867
G1 X48.135 Y58.611 E6.92437
G1 X48.602 Y59.035 E6.95302
G1 X49.167 Y59.575 E6.98851
G1 X49.609 Y60.022 E7.01707
G1 X50.091 Y60.534 E7.04900
G1 X50.618 Y61.127 E7.08504
G1 X51.020 Y61.609 E7.11354
G1 X51.506 Y62.220 E7.14900
G1 X51.884 Y62.724 E7.17762
G1 X52.291 Y63.297 E7.20954
G1 X52.729 Y63.952 E7.24533
G1 X53.064 Y64.485 E7.27392
G1 X53.466 Y65.161 E7.30964
G1 X53.771 Y65.712 E7.33824
G1 X54.094 Y66.333 E7.37004
G1 X54.440 Y67.041 E7.40583
G1 X54.700 Y67.616 E7.43449
G1 X55.005 Y68.341 E7.47021
G1 X55.231 Y68.927 E7.49874
G1 X55.468 Y69.585 E7.53050
G1 X55.501 Y69.684 E7.53524
G1 X55.710 Y69.088 E7.56393
G1 X55.962 Y68.429 E7.59597
G1 X56.265 Y67.696 E7.63200
G1 X56.525 Y67.121 E7.66066
G1 X56.827 Y66.492 E7.69235
G1 X57.148 Y65.864 E7.72438
G1 X57.491 Y65.240 E7.75672
G1 X57.848 Y64.631 E7.78879
G1 X58.263 Y63.964 E7.82447
G1 X58.612 Y63.439 E7.85310
G1 X59.018 Y62.861 E7.88518
G1 X59.438 Y62.295 E7.91719
G1 X59.873 Y61.741 E7.94918
G1 X60.378 Y61.134 E7.98505
G1 X60.796 Y60.661 E8.01372
G1 X61.273 Y60.147 E8.04556
G1 X61.768 Y59.642 E8.07768
G1 X62.274 Y59.153 E8.10964
G1 X62.796 Y58.675 E8.14179
G1 X63.332 Y58.210 E8.17402
G1 X63.879 Y57.763 E8.20610
G1 X64.502 Y57.280 E8.24191
G1 X65.011 Y56.911 E8.27046
G1 X65.587 Y56.512 E8.30228
G1 X66.180 Y56.126 E8.33442
G1 X66.783 Y55.757 E8.36653
G1 X67.470 Y55.361 E8.40255
G1 X68.026 Y55.064 E8.43118
G1 X68.649 Y54.750 E8.46286
G1 X69.286 Y54.449 E8.49486
G1 X69.933 Y54.166 E8.52694
G1 X70.590 Y53.898 E8.55916
G1 X71.333 Y53.620 E8.59519
G1 X71.680 Y53.502 E8.61184
G0 F10500 X55.501 Y86.322
G1 F480 X55.499 Y86.327 E8.61208
G1 X55.261 Y86.996 E8.64434
G1 X55.008 Y87.652 E8.67627
G1 X54.766 Y88.233 E8.70485
G1 X54.444 Y88.951 E8.74059
G1 X54.135 Y89.588 E8.77275
G1 X53.811 Y90.215 E8.80481
G1 X53.467 Y90.836 E8.83705
G1 X53.108 Y91.446 E8.86920
G1 X52.778 Y91.970 E8.89732
G1 X52.392 Y92.557 E8.92923
G1 X51.935 Y93.208 E8.96536
G1 X51.560 Y93.708 E8.99374
G1 X51.129 Y94.257 E9.02544
G1 X50.677 Y94.802 E9.05760
G1 X50.153 Y95.399 E9.09368
G1 X49.724 Y95.857 E9.12218
G1 X49.233 Y96.358 E9.15404
G1 X48.666 Y96.906 E9.18986
G1 X48.201 Y97.329 E9.21841
G1 X47.669 Y97.790 E9.25038
G1 X47.122 Y98.237 E9.28247
G1 X46.499 Y98.720 E9.31827
G1 X45.990 Y99.089 E9.34682
G1 X45.344 Y99.536 E9.38250
G1 X44.815 Y99.877 E9.41109
G1 X44.217 Y100.244 E9.44296
G1 X43.604 Y100.596 E9.47506
G1 X42.982 Y100.932 E9.50717
G1 X42.352 Y101.250 E9.53922
G1 X41.639 Y101.587 E9.57504
G1 X41.062 Y101.837 E9.60360
G1 X40.412 Y102.102 E9.63548
G1 X39.747 Y102.350 E9.66772
G1 X39.320 Y102.497 E9.68823
G1 X39.584 Y102.586 E9.70088
G1 X40.248 Y102.829 E9.73300
G1 X40.978 Y103.121 E9.76871
G1 X41.557 Y103.372 E9.79737
G1 X42.268 Y103.703 E9.83299
G1 X42.827 Y103.982 E9.86137
G1 X43.452 Y104.313 E9.89349
G1 X44.137 Y104.703 E9.92929
G1 X44.675 Y105.029 E9.95786
G1 X45.334 Y105.453 E9.99345
G1 X45.854 Y105.808 E10.02205
G1 X46.423 Y106.220 E10.05395
G1 X47.049 Y106.698 E10.08973
G1 X47.539 Y107.096 E10.11840
G1 X48.134 Y107.605 E10.15396
G1 X48.601 Y108.029 E10.18261
G1 X49.169 Y108.571 E10.21827
G1 X49.609 Y109.017 E10.24673
G1 X50.090 Y109.528 E10.27860
G1 X50.618 Y110.122 E10.31470
G1 X51.021 Y110.605 E10.34327
G1 X51.506 Y111.215 E10.37866
G1 X51.884 Y111.719 E10.40727
G1 X52.291 Y112.292 E10.43920
G1 X52.729 Y112.947 E10.47498
G1 X53.064 Y113.480 E10.50358
G1 X53.466 Y114.156 E10.53930
G1 X53.771 Y114.707 E10.56790
G1 X54.094 Y115.328 E10.59970
G1 X54.440 Y116.036 E10.63549
G1 X54.699 Y116.611 E10.66413
G1 X55.005 Y117.336 E10.69987
G1 X55.231 Y117.923 E10.72844
G1 X55.468 Y118.579 E10.76012
G1 X55.500 Y118.678 E10.76484
G1 X55.710 Y118.083 E10.79350
G1 X55.962 Y117.423 E10.82559
G1 X56.265 Y116.690 E10.86161
G1 X56.525 Y116.116 E10.89023
G1 X56.827 Y115.487 E10.92192
G1 X57.148 Y114.859 E10.95396
G1 X57.491 Y114.235 E10.98630
G1 X57.848 Y113.626 E11.01836
G1 X58.263 Y112.959 E11.05404
G1 X58.612 Y112.434 E11.08267
G1 X59.018 Y111.856 E11.11475
G1 X59.438 Y111.290 E11.14677
G1 X59.872 Y110.738 E11.17866
G1 X60.378 Y110.127 E11.21469
G1 X60.797 Y109.654 E11.24339
G1 X61.273 Y109.142 E11.27514
G1 X61.766 Y108.638 E11.30716
G1 X62.274 Y108.147 E11.33925
G1 X62.797 Y107.669 E11.37143
G1 X63.330 Y107.207 E11.40347
G1 X63.879 Y106.757 E11.43571
G1 X64.502 Y106.275 E11.47148
G1 X65.010 Y105.905 E11.50003
G1 X65.587 Y105.507 E11.53187
G1 X66.180 Y105.120 E11.56403
G1 X66.785 Y104.750 E11.59624
G1 X67.470 Y104.356 E11.63213
G1 X68.026 Y104.059 E11.66076
G1 X68.647 Y103.746 E11.69234
G1 X69.286 Y103.443 E11.72446
G1 X69.935 Y103.160 E11.75662
G1 X70.588 Y102.893 E11.78866
G1 X71.334 Y102.614 E11.82484
G1 X71.681 Y102.497 E11.84147
G1 X71.343 Y102.383 E11.85767
G1 X70.752 Y102.165 E11.88628
G1 X70.098 Y101.904 E11.91826
G1 X69.450 Y101.625 E11.95031
G1 X68.809 Y101.328 E11.98239
G1 X68.103 Y100.978 E12.01818
G1 X67.547 Y100.681 E12.04681
G1 X66.934 Y100.333 E12.07883
G1 X66.259 Y99.924 E12.11467
G1 X65.732 Y99.584 E12.14316
G1 X65.151 Y99.188 E12.17509
G1 X64.510 Y98.726 E12.21098
G1 X64.011 Y98.342 E12.23958
G1 X63.402 Y97.849 E12.27517
G1 X62.926 Y97.440 E12.30367
G1 X62.405 Y96.970 E12.33554
G1 X61.834 Y96.425 E12.37139
G1 X61.392 Y95.978 E12.39994
G1 X60.910 Y95.466 E12.43188
G1 X60.383 Y94.873 E12.46791
G1 X59.982 Y94.392 E12.49635
G1 X59.558 Y93.861 E12.52722
G1 X59.431 Y93.696 E12.53667
G1 X59.067 Y93.209 E12.56429
G1 X58.707 Y92.698 E12.59268
G1 X58.318 Y92.117 E12.62443
G1 X57.941 Y91.522 E12.65643
G1 X57.578 Y90.912 E12.68867
G1 X57.233 Y90.292 E12.72089
G1 X56.868 Y89.593 E12.75671
G1 X56.595 Y89.029 E12.78517
G1 X56.304 Y88.389 E12.81710
G1 X56.028 Y87.736 E12.84930
G1 X55.772 Y87.079 E12.88132
G1 X55.505 Y86.336 E12.91718
G1 X55.501 Y86.322 E12.91784
G0 F10500 X88.319 Y102.497
G1 F480 X88.583 Y102.586 E12.93050
G1 X89.247 Y102.829 E12.96261
G1 X89.977 Y103.121 E12.99832
G1 X90.556 Y103.372 E13.02698
G1 X91.267 Y103.703 E13.06260
G1 X91.826 Y103.982 E13.09098
G1 X92.451 Y104.313 E13.12310
G1 X93.136 Y104.703 E13.15890
G1 X93.674 Y105.029 E13.18747
G1 X94.333 Y105.453 E13.22306
G1 X94.853 Y105.808 E13.25166
G1 X95.422 Y106.220 E13.28357
G1 X96.048 Y106.698 E13.31934
G1 X96.538 Y107.096 E13.34801
G1 X97.133 Y107.605 E13.38358
G1 X97.600 Y108.029 E13.41222
G1 X98.168 Y108.571 E13.44788
G1 X98.608 Y109.017 E13.47634
G1 X99.089 Y109.528 E13.50821
G1 X99.617 Y110.122 E13.54431
G1 X100.020 Y110.605 E13.57288
G1 X100.505 Y111.215 E13.60827
G1 X100.883 Y111.719 E13.63689
G1 X101.290 Y112.292 E13.66881
G1 X101.728 Y112.947 E13.70460
G1 X102.063 Y113.480 E13.73319
G1 X102.465 Y114.156 E13.76891
G1 X102.770 Y114.707 E13.79752
G1 X103.093 Y115.328 E13.82931
G1 X103.439 Y116.036 E13.86510
G1 X103.698 Y116.611 E13.89374
G1 X104.004 Y117.336 E13.92948
G1 X104.230 Y117.923 E13.95805
G1 X104.467 Y118.579 E13.98973
G1 X104.499 Y118.678 E13.99446
G1 X104.709 Y118.083 E14.02312
G1 X104.961 Y117.423 E14.05520
G1 X105.264 Y116.690 E14.09123
G1 X105.524 Y116.116 E14.11985
G1 X105.826 Y115.487 E14.15154
G1 X106.147 Y114.859 E14.18357
G1 X106.490 Y114.235 E14.21591
G1 X106.847 Y113.626 E14.24797
G1 X107.262 Y112.959 E14.28365
G1 X107.611 Y112.434 E14.31229
G1 X108.017 Y111.856 E14.34437
G1 X108.437 Y111.290 E14.37638
G1 X108.871 Y110.738 E14.40827
G1 X109.377 Y110.127 E14.44430
G1 X109.796 Y109.654 E14.47300
G1 X110.272 Y109.142 E14.50475
G1 X110.765 Y108.638 E14.53678
G1 X111.273 Y108.147 E14.56886
G1 X111.796 Y107.669 E14.60104
G1 X112.329 Y107.207 E14.63308
G1 X112.878 Y106.757 E14.66532
G1 X113.501 Y106.275 E14.70110
G1 X114.009 Y105.905 E14.72964
G1 X114.586 Y105.507 E14.76148
G1 X115.179 Y105.120 E14.79364
G1 X115.784 Y104.750 E14.82585
G1 X116.469 Y104.356 E14.86174
G1 X117.025 Y104.059 E14.89037
G1 X117.646 Y103.746 E14.92196
G1 X118.285 Y103.443 E14.95408
G1 X118.934 Y103.160 E14.98623
G1 X119.587 Y102.893 E15.01827
G1 X120.333 Y102.614 E15.05445
G1 X120.680 Y102.497 E15.07108
G1 X120.342 Y102.383 E15.08728
G1 X119.751 Y102.165 E15.11589
G1 X119.097 Y101.904 E15.14787
G1 X118.449 Y101.625 E15.17992
G1 X117.808 Y101.328 E15.21200
G1 X117.102 Y100.978 E15.24779
G1 X116.546 Y100.681 E15.27642
G1 X115.933 Y100.333 E15.30844
G1 X115.258 Y99.924 E15.34429
G1 X114.731 Y99.584 E15.37277
G1 X114.150 Y99.188 E15.40471
G1 X113.509 Y98.726 E15.44059
G1 X113.010 Y98.342 E15.46919
G1 X112.401 Y97.849 E15.50478
G1 X111.925 Y97.440 E15.53328
G1 X111.404 Y96.970 E15.56515
G1 X110.833 Y96.425 E15.60100
G1 X110.391 Y95.978 E15.62955
G1 X109.909 Y95.466 E15.66149
G1 X109.382 Y94.873 E15.69752
G1 X108.981 Y94.392 E15.72597
G1 X108.557 Y93.861 E15.75683
G1 X108.430 Y93.696 E15.76629
G1 X108.066 Y93.209 E15.79390
G1 X107.706 Y92.698 E15.82229
G1 X107.317 Y92.117 E15.85405
G1 X106.940 Y91.522 E15.88604
G1 X106.577 Y90.912 E15.91828
G1 X106.232 Y90.292 E15.95051
G1 X105.867 Y89.593 E15.98632
G1 X105.594 Y89.029 E16.01478
G1 X105.303 Y88.389 E16.04671
G1 X105.027 Y87.736 E16.07891
G1 X104.771 Y87.079 E16.11094
G1 X104.504 Y86.336 E16.14680
G1 X104.500 Y86.322 E16.14746
G1 X104.498 Y86.327 E16.14770
G1 X104.260 Y86.996 E16.17995
G1 X104.007 Y87.652 E16.21189
G1 X103.765 Y88.233 E16.24047
G1 X103.443 Y88.951 E16.27621
G1 X103.134 Y89.588 E16.30837
G1 X102.810 Y90.215 E16.34042
G1 X102.466 Y90.836 E16.37267
G1 X102.107 Y91.446 E16.40481
G1 X101.777 Y91.970 E16.43294
G1 X101.391 Y92.557 E16.46485
G1 X100.934 Y93.208 E16.50097
G1 X100.559 Y93.708 E16.52936
G1 X100.128 Y94.257 E16.56106
G1 X99.676 Y94.802 E16.59322
G1 X99.152 Y95.399 E16.62930
G1 X98.723 Y95.857 E16.65780
G1 X98.232 Y96.358 E16.68966
G1 X97.665 Y96.906 E16.72547
G1 X97.200 Y97.329 E16.75403
G1 X96.668 Y97.790 E16.78600
G1 X96.121 Y98.237 E16.81808
G1 X95.498 Y98.720 E16.85389
G1 X94.989 Y99.089 E16.88244
G1 X94.343 Y99.536 E16.91812
G1 X93.814 Y99.877 E16.94671
G1 X93.216 Y100.244 E16.97857
G1 X92.603 Y100.596 E17.01068
G1 X91.981 Y100.932 E17.04279
G1 X91.351 Y101.250 E17.07484
G1 X90.638 Y101.587 E17.11066
G1 X90.061 Y101.837 E17.13922
G1 X89.411 Y102.102 E17.17110
G1 X88.746 Y102.350 E17.20334
G1 X88.319 Y102.497 E17.22385
G0 F10500 X104.498 Y135.323
G1 F480 X104.260 Y135.992 E17.25610
G1 X104.006 Y136.649 E17.28809
G1 X103.765 Y137.228 E17.31657
G1 X103.443 Y137.946 E17.35231
G1 X103.134 Y138.584 E17.38451
G1 X102.810 Y139.213 E17.41665
G1 X102.466 Y139.831 E17.44877
G1 X102.108 Y140.440 E17.48086
G1 X101.776 Y140.968 E17.50918
G1 X101.390 Y141.554 E17.54106
G1 X100.935 Y142.201 E17.57698
G1 X100.560 Y142.703 E17.60544
G1 X100.128 Y143.253 E17.63720
G1 X99.676 Y143.798 E17.66936
G1 X99.152 Y144.395 E17.70544
G1 X98.721 Y144.855 E17.73407
G1 X98.232 Y145.353 E17.76577
G1 X97.665 Y145.902 E17.80162
G1 X97.198 Y146.326 E17.83027
G1 X96.670 Y146.783 E17.86198
G1 X96.123 Y147.232 E17.89412
G1 X95.498 Y147.716 E17.93003
G1 X94.989 Y148.085 E17.95858
G1 X94.343 Y148.532 E17.99426
G1 X93.814 Y148.873 E18.02285
G1 X93.216 Y149.240 E18.05471
G1 X92.603 Y149.592 E18.08682
G1 X91.981 Y149.928 E18.11893
G1 X91.351 Y150.246 E18.15098
G1 X90.638 Y150.583 E18.18680
G1 X90.059 Y150.834 E18.21546
G1 X89.411 Y151.097 E18.24722
G1 X88.748 Y151.346 E18.27939
G1 X88.000 Y151.603 E18.31531
G1 X87.399 Y151.789 E18.34389
G1 X86.723 Y151.981 E18.37581
G1 X86.040 Y152.154 E18.40781
G1 X85.352 Y152.310 E18.43985
G1 X84.574 Y152.464 E18.47587
G1 X83.952 Y152.566 E18.50450
G1 X83.261 Y152.663 E18.53619
G1 X82.557 Y152.743 E18.56837
G1 X81.851 Y152.803 E18.60055
G1 X81.146 Y152.843 E18.63262
G1 X80.444 Y152.865 E18.66452
G1 X79.656 Y152.868 E18.70031
G1 X79.027 Y152.852 E18.72889
G1 X78.325 Y152.816 E18.76082
G1 X77.619 Y152.761 E18.79298
G1 X76.912 Y152.686 E18.82527
G1 X76.133 Y152.580 E18.86098
G1 X75.513 Y152.478 E18.88952
G1 X74.821 Y152.346 E18.92151
G1 X74.132 Y152.195 E18.95355
G1 X73.448 Y152.026 E18.98555
G1 X72.764 Y151.837 E19.01778
G1 X72.088 Y151.630 E19.04989
G1 X71.340 Y151.378 E19.08574
G1 X70.751 Y151.160 E19.11426
G1 X70.101 Y150.901 E19.14604
G1 X69.450 Y150.621 E19.17823
G1 X68.809 Y150.324 E19.21032
G1 X68.103 Y149.974 E19.24611
G1 X67.547 Y149.677 E19.27474
G1 X66.934 Y149.329 E19.30675
G1 X66.259 Y148.920 E19.34260
G1 X65.732 Y148.580 E19.37108
G1 X65.151 Y148.184 E19.40302
G1 X64.510 Y147.722 E19.43891
G1 X64.011 Y147.338 E19.46750
G1 X63.402 Y146.845 E19.50309
G1 X62.926 Y146.436 E19.53159
G1 X62.403 Y145.965 E19.56356
G1 X61.834 Y145.420 E19.59935
G1 X61.394 Y144.975 E19.62777
G1 X60.910 Y144.462 E19.65980
G1 X60.383 Y143.869 E19.69583
G1 X59.982 Y143.388 E19.72428
G1 X59.545 Y142.840 E19.75611
G1 X59.070 Y142.207 E19.79206
G1 X58.708 Y141.695 E19.82054
G1 X58.319 Y141.115 E19.85226
G1 X57.940 Y140.517 E19.88441
G1 X57.578 Y139.907 E19.91663
G1 X57.233 Y139.289 E19.94877
G1 X56.868 Y138.589 E19.98463
G1 X56.595 Y138.025 E20.01309
G1 X56.304 Y137.385 E20.04502
G1 X56.028 Y136.732 E20.07722
G1 X55.772 Y136.075 E20.10924
G1 X55.505 Y135.332 E20.14510
G1 X55.501 Y135.318 E20.14577
G1 X55.499 Y135.323 E20.14601
G1 X55.261 Y135.992 E20.17826
G1 X55.007 Y136.649 E20.21025
G1 X54.766 Y137.228 E20.23874
G1 X54.444 Y137.946 E20.27448
G1 X54.135 Y138.584 E20.30667
G1 X53.811 Y139.213 E20.33881
G1 X53.467 Y139.831 E20.37093
G1 X53.109 Y140.440 E20.40302
G1 X52.777 Y140.968 E20.43135
G1 X52.391 Y141.554 E20.46322
G1 X51.936 Y142.201 E20.49914
G1 X51.561 Y142.703 E20.52760
G1 X51.129 Y143.253 E20.55937
G1 X50.677 Y143.798 E20.59153
G1 X50.153 Y144.395 E20.62760
G1 X49.722 Y144.855 E20.65623
G1 X49.233 Y145.353 E20.68793
G1 X48.666 Y145.902 E20.72378
G1 X48.199 Y146.326 E20.75243
G1 X47.671 Y146.783 E20.78415
G1 X47.124 Y147.232 E20.81629
G1 X46.499 Y147.716 E20.85219
G1 X45.990 Y148.085 E20.88074
G1 X45.344 Y148.532 E20.91642
G1 X44.815 Y148.873 E20.94501
G1 X44.217 Y149.240 E20.97688
G1 X43.604 Y149.592 E21.00898
G1 X42.982 Y149.928 E21.04109
G1 X42.352 Y150.246 E21.07314
G1 X41.639 Y150.583 E21.10896
G1 X41.060 Y150.834 E21.13762
G1 X40.412 Y151.097 E21.16939
G1 X39.749 Y151.346 E21.20155
G1 X39.001 Y151.603 E21.23748
G1 X38.400 Y151.789 E21.26605
G1 X37.724 Y151.981 E21.29797
G1 X37.041 Y152.154 E21.32997
G1 X36.353 Y152.310 E21.36201
G1 X35.575 Y152.464 E21.39803
G1 X34.953 Y152.566 E21.42666
G1 X34.262 Y152.663 E21.45835
G1 X33.558 Y152.743 E21.49053
G1 X32.852 Y152.803 E21.52271
G1 X32.147 Y152.843 E21.55479
G1 X31.445 Y152.865 E21.58668
G1 X30.656 Y152.868 E21.62252
G1 X30.027 Y152.852 E21.65110
G1 X29.325 Y152.816 E21.68302
G1 X28.619 Y152.761 E21.71519
G1 X27.912 Y152.686 E21.74748
G1 X27.133 Y152.580 E21.78319
G1 X26.513 Y152.478 E21.81172
G1 X25.821 Y152.346 E21.84372
G1 X25.132 Y152.195 E21.87576
G1 X24.448 Y152.026 E21.90776
G1 X23.764 Y151.837 E21.93999
G1 X23.088 Y151.630 E21.97210
G1 X22.340 Y151.378 E22.00795
G1 X21.751 Y151.160 E22.03647
G1 X21.101 Y150.901 E22.06825
G1 X20.450 Y150.621 E22.10044
G1 X19.809 Y150.324 E22.13252
G1 X19.103 Y149.974 E22.16831
G1 X18.547 Y149.677 E22.19694
G1 X17.934 Y149.329 E22.22896
G1 X17.259 Y148.920 E22.26481
G1 X16.732 Y148.580 E22.29329
G1 X16.151 Y148.184 E22.32523
G1 X15.510 Y147.722 E22.36111
G1 X15.011 Y147.338 E22.38971
G1 X14.402 Y146.845 E22.42530
G1 X13.926 Y146.436 E22.45380
G1 X13.403 Y145.965 E22.48577
G1 X12.834 Y145.420 E22.52155
G1 X12.394 Y144.975 E22.54998
G1 X11.910 Y144.462 E22.58201
G1 X11.383 Y143.869 E22.61804
G1 X10.982 Y143.388 E22.64649
G1 X10.545 Y142.840 E22.67832
G1 X10.070 Y142.207 E22.71426
G1 X9.708 Y141.695 E22.74274
G1 X9.319 Y141.115 E22.77446
G1 X8.940 Y140.517 E22.80662
G1 X8.578 Y139.907 E22.83884
G1 X8.233 Y139.289 E22.87098
G1 X7.868 Y138.589 E22.90684
G1 X7.595 Y138.025 E22.93530
G1 X7.304 Y137.385 E22.96723
G1 X7.028 Y136.732 E22.99943
G1 X6.772 Y136.075 E23.03145
G1 X6.505 Y135.332 E23.06731
G1 X6.311 Y134.734 E23.09587
G1 X6.110 Y134.063 E23.12768
G1 X5.926 Y133.379 E23.15985
G1 X5.761 Y132.690 E23.19203
G1 X5.598 Y131.919 E23.22782
G1 X5.487 Y131.299 E23.25643
G1 X5.380 Y130.605 E23.28832
G1 X5.291 Y129.905 E23.32037
G1 X5.221 Y129.202 E23.35246
G1 X5.170 Y128.497 E23.38456
G1 X5.135 Y127.708 E23.42043
G1 X5.127 Y127.116 E23.44732
G1 X5.124 Y127.017 E23.45182
G1 X5.133 Y126.373 E23.48107
G1 X5.159 Y125.671 E23.51298
G1 X5.205 Y124.962 E23.54525
G1 X5.279 Y124.179 E23.58097
G1 X5.355 Y123.558 E23.60939
G1 X5.458 Y122.859 E23.64148
G1 X5.581 Y122.163 E23.67358
G1 X5.722 Y121.474 E23.70552
G1 X5.883 Y120.783 E23.73775
G1 X6.084 Y120.019 E23.77363
G1 X6.261 Y119.416 E23.80217
G1 X6.476 Y118.747 E23.83408
G1 X6.710 Y118.083 E23.86606
G1 X6.962 Y117.423 E23.89815
G1 X7.265 Y116.690 E23.93417
G1 X7.525 Y116.116 E23.96279
G1 X7.827 Y115.487 E23.99448
G1 X8.148 Y114.859 E24.02652
G1 X8.491 Y114.235 E24.05886
G1 X8.848 Y113.626 E24.09092
G1 X9.263 Y112.959 E24.12660
G1 X9.612 Y112.434 E24.15523
G1 X10.018 Y111.856 E24.18731
G1 X10.438 Y111.290 E24.21932
G1 X10.872 Y110.738 E24.25122
G1 X11.378 Y110.127 E24.28725
G1 X11.797 Y109.654 E24.31595
G1 X12.273 Y109.142 E24.34770
G1 X12.766 Y108.638 E24.37972
G1 X13.274 Y108.147 E24.41181
G1 X13.797 Y107.669 E24.44399
G1 X14.330 Y107.207 E24.47603
G1 X14.879 Y106.757 E24.50827
G1 X15.502 Y106.275 E24.54404
G1 X16.010 Y105.905 E24.57259
G1 X16.587 Y105.507 E24.60442
G1 X17.180 Y105.120 E24.63658
G1 X17.785 Y104.750 E24.66879
G1 X18.470 Y104.356 E24.70469
G1 X19.026 Y104.059 E24.73332
G1 X19.647 Y103.746 E24.76490
G1 X20.286 Y103.443 E24.79702
G1 X20.935 Y103.160 E24.82918
G1 X21.588 Y102.893 E24.86122
G1 X22.334 Y102.614 E24.89739
G1 X22.681 Y102.497 E24.91403
G1 X22.343 Y102.383 E24.93023
G1 X21.752 Y102.165 E24.95884
G1 X21.098 Y101.904 E24.99082
G1 X20.450 Y101.625 E25.02286
G1 X19.809 Y101.328 E25.05495
G1 X19.103 Y100.978 E25.09074
G1 X18.547 Y100.681 E25.11937
G1 X17.934 Y100.333 E25.15139
G1 X17.259 Y99.924 E25.18723
G1 X16.732 Y99.584 E25.21572
G1 X16.151 Y99.188 E25.24765
G1 X15.510 Y98.726 E25.28354
G1 X15.011 Y98.342 E25.31214
G1 X14.402 Y97.849 E25.34772
G1 X13.926 Y97.440 E25.37623
G1 X13.405 Y96.970 E25.40810
G1 X12.834 Y96.425 E25.44395
G1 X12.392 Y95.978 E25.47250
G1 X11.910 Y95.466 E25.50444
G1 X11.383 Y94.873 E25.54047
G1 X10.982 Y94.392 E25.56891
G1 X10.558 Y93.861 E25.59977
G1 X10.431 Y93.696 E25.60923
G1 X10.067 Y93.209 E25.63685
G1 X9.707 Y92.698 E25.66524
G1 X9.318 Y92.117 E25.69699
G1 X8.941 Y91.522 E25.72899
G1 X8.578 Y90.912 E25.76123
G1 X8.233 Y90.292 E25.79345
G1 X7.868 Y89.593 E25.82927
G1 X7.595 Y89.029 E25.85773
G1 X7.304 Y88.389 E25.88966
G1 X7.028 Y87.736 E25.92186
G1 X6.772 Y87.079 E25.95388
G1 X6.505 Y86.336 E25.98974
G1 X6.311 Y85.738 E26.01829
G1 X6.110 Y85.067 E26.05011
G1 X5.926 Y84.383 E26.08228
G1 X5.761 Y83.694 E26.11446
G1 X5.598 Y82.923 E26.15025
G1 X5.487 Y82.303 E26.17886
G1 X5.380 Y81.609 E26.21075
G1 X5.291 Y80.909 E26.24280
G1 X5.221 Y80.206 E26.27489
G1 X5.170 Y79.501 E26.30699
G1 X5.135 Y78.712 E26.34286
G1 X5.127 Y78.121 E26.36971
G1 X5.124 Y78.022 E26.37420
G1 X5.133 Y77.378 E26.40346
G1 X5.159 Y76.676 E26.43536
G1 X5.205 Y75.968 E26.46759
G1 X5.279 Y75.184 E26.50335
G1 X5.355 Y74.563 E26.53177
G1 X5.458 Y73.864 E26.56386
G1 X5.581 Y73.168 E26.59596
G1 X5.722 Y72.479 E26.62790
G1 X5.883 Y71.788 E26.66013
G1 X6.084 Y71.023 E26.69605
G1 X6.261 Y70.421 E26.72455
G1 X6.476 Y69.754 E26.75638
G1 X6.710 Y69.088 E26.78844
G1 X6.962 Y68.429 E26.82049
G1 X7.265 Y67.696 E26.85651
G1 X7.525 Y67.121 E26.88517
G1 X7.827 Y66.492 E26.91686
G1 X8.148 Y65.864 E26.94890
G1 X8.491 Y65.240 E26.98124
G1 X8.848 Y64.631 E27.01330
G1 X9.263 Y63.964 E27.04898
G1 X9.612 Y63.439 E27.07761
G1 X10.018 Y62.861 E27.10969
G1 X10.438 Y62.295 E27.14171
G1 X10.873 Y61.741 E27.17370
G1 X11.378 Y61.134 E27.20956
G1 X11.796 Y60.661 E27.23823
G1 X12.273 Y60.147 E27.27008
G1 X12.768 Y59.642 E27.30220
G1 X13.274 Y59.153 E27.33416
G1 X13.796 Y58.675 E27.36630
G1 X14.332 Y58.210 E27.39853
G1 X14.879 Y57.763 E27.43062
G1 X15.502 Y57.280 E27.46642
G1 X16.011 Y56.911 E27.49497
G1 X16.587 Y56.512 E27.52680
G1 X17.180 Y56.126 E27.55894
G1 X17.783 Y55.757 E27.59104
G1 X18.470 Y55.361 E27.62706
G1 X19.026 Y55.064 E27.65569
G1 X19.649 Y54.750 E27.68738
G1 X20.286 Y54.449 E27.71937
G1 X20.933 Y54.166 E27.75145
G1 X21.590 Y53.898 E27.78368
G1 X22.333 Y53.620 E27.81971
G1 X22.680 Y53.502 E27.83635
G1 X22.342 Y53.389 E27.85254
G1 X21.749 Y53.169 E27.88127
G1 X21.101 Y52.910 E27.91296
G1 X20.450 Y52.631 E27.94513
G1 X19.806 Y52.332 E27.97738
G1 X19.103 Y51.983 E28.01303
G1 X18.547 Y51.686 E28.04166
G1 X17.936 Y51.339 E28.07357
G1 X17.258 Y50.930 E28.10953
G1 X16.732 Y50.589 E28.13801
G1 X16.151 Y50.195 E28.16989
G1 X15.511 Y49.731 E28.20579
G1 X15.013 Y49.349 E28.23430
G1 X14.402 Y48.855 E28.26999
G1 X13.926 Y48.446 E28.29849
G1 X13.403 Y47.975 E28.33046
G1 X12.832 Y47.429 E28.36634
G1 X12.392 Y46.983 E28.39479
G1 X11.911 Y46.472 E28.42667
G1 X11.383 Y45.878 E28.46276
G1 X10.981 Y45.396 E28.49127
G1 X10.558 Y44.866 E28.52207
G1 X10.431 Y44.701 E28.53153
G1 X10.067 Y44.214 E28.55914
G1 X9.707 Y43.703 E28.58753
G1 X9.318 Y43.122 E28.61929
G1 X8.941 Y42.527 E28.65128
G1 X8.578 Y41.917 E28.68352
G1 X8.233 Y41.297 E28.71575
G1 X7.868 Y40.598 E28.75156
G1 X7.595 Y40.034 E28.78002
G1 X7.304 Y39.395 E28.81191
G1 X7.028 Y38.742 E28.84411
G1 X6.772 Y38.083 E28.87622
G1 X6.505 Y37.341 E28.91204
G1 X6.311 Y36.743 E28.94059
G1 X6.110 Y36.072 E28.97240
G1 X5.926 Y35.388 E29.00458
G1 X5.761 Y34.699 E29.03675
G1 X5.598 Y33.928 E29.07255
G1 X5.487 Y33.308 E29.10115
G1 X5.380 Y32.614 E29.13305
G1 X5.291 Y31.914 E29.16510
G1 X5.221 Y31.212 E29.19714
G1 X5.170 Y30.506 E29.22929
G1 X5.135 Y29.717 E29.26516
G1 X5.127 Y29.126 E29.29200
G1 X5.124 Y29.027 E29.29650
G1 X5.133 Y28.382 E29.32580
G1 X5.159 Y27.680 E29.35770
G1 X5.205 Y26.972 E29.38993
G1 X5.279 Y26.188 E29.42570
G1 X5.355 Y25.567 E29.45411
G1 X5.458 Y24.868 E29.48620
G1 X5.581 Y24.172 E29.51830
G1 X5.722 Y23.483 E29.55024
G1 X5.883 Y22.792 E29.58247
G1 X6.084 Y22.027 E29.61839
G1 X6.261 Y21.425 E29.64689
G1 X6.476 Y20.758 E29.67872
G1 X6.710 Y20.092 E29.71078
G1 X6.962 Y19.432 E29.74287
G1 X7.265 Y18.700 E29.77885
G1 X7.524 Y18.127 E29.80741
G1 X7.826 Y17.497 E29.83915
G1 X8.149 Y16.867 E29.87130
G1 X8.491 Y16.245 E29.90354
G1 X8.848 Y15.636 E29.93560
G1 X9.264 Y14.967 E29.97138
G1 X9.613 Y14.442 E30.00002
G1 X10.017 Y13.867 E30.03193
G1 X10.437 Y13.301 E30.06394
G1 X10.873 Y12.745 E30.09604
G1 X11.378 Y12.138 E30.13190
G1 X11.796 Y11.665 E30.16057
G1 X12.274 Y11.150 E30.19248
G1 X12.768 Y10.647 E30.22450
G1 X13.274 Y10.157 E30.25649
G1 X13.797 Y9.679 E30.28867
G1 X14.330 Y9.217 E30.32071
G1 X14.877 Y8.768 E30.35285
G1 X15.502 Y8.284 E30.38876
G1 X16.011 Y7.915 E30.41731
G1 X16.587 Y7.516 E30.44914
G1 X17.180 Y7.130 E30.48127
G1 X17.783 Y6.761 E30.51338
G1 X18.470 Y6.365 E30.54940
G1 X19.026 Y6.068 E30.57803
G1 X19.649 Y5.754 E30.60971
G1 X20.286 Y5.453 E30.64171
G1 X20.935 Y5.169 E30.67389
G1 X21.590 Y4.902 E30.70601
G1 X22.331 Y4.625 E30.74194
G1 X22.926 Y4.423 E30.77048
G1 X23.595 Y4.213 E30.80233
G1 X24.277 Y4.019 E30.83453
G1 X24.960 Y3.846 E30.86653
G1 X25.729 Y3.672 E30.90234
G1 X26.350 Y3.552 E30.93107
G1 X27.041 Y3.435 E30.96290
G1 X27.739 Y3.337 E30.99492
G1 X28.441 Y3.257 E31.02701
G1 X29.233 Y3.189 E31.06311
G1 X29.862 Y3.157 E31.09172
G1 X30.556 Y3.135 E31.12325
G1 X31.261 Y3.132 E31.15527
G1 X31.969 Y3.148 E31.18744
G1 X32.678 Y3.184 E31.21968
G1 X33.465 Y3.247 E31.25554
G1 X34.090 Y3.314 E31.28409
G1 X34.786 Y3.408 E31.31599
G1 X35.485 Y3.521 E31.34815
G1 X36.263 Y3.670 E31.38412
G1 X36.875 Y3.806 E31.41260
G1 X37.634 Y3.994 E31.44811
G1 X38.242 Y4.164 E31.47679
G1 X38.992 Y4.394 E31.51242
G1 X39.587 Y4.597 E31.54097
G1 X40.245 Y4.839 E31.57281
G1 X40.978 Y5.131 E31.60865
G1 X41.558 Y5.382 E31.63735
G1 X42.266 Y5.711 E31.67281
G1 X42.827 Y5.991 E31.70129
G1 X43.452 Y6.322 E31.73341
G1 X44.139 Y6.713 E31.76931
G1 X44.675 Y7.039 E31.79781
G1 X45.335 Y7.462 E31.83341
G1 X45.854 Y7.818 E31.86200
G1 X46.423 Y8.229 E31.89388
G1 X47.051 Y8.709 E31.92978
G1 X47.539 Y9.106 E31.95835
G1 X48.134 Y9.615 E31.99391
G1 X48.601 Y10.039 E32.02256
G1 X49.167 Y10.580 E32.05812
G1 X49.607 Y11.025 E32.08655
G1 X50.091 Y11.538 E32.11858
G1 X50.618 Y12.131 E32.15461
G1 X51.020 Y12.613 E32.18312
G1 X51.507 Y13.225 E32.21864
G1 X51.885 Y13.730 E32.24729
G1 X52.291 Y14.301 E32.27911
G1 X52.729 Y14.955 E32.31486
G1 X53.065 Y15.490 E32.34356
G1 X53.465 Y16.166 E32.37923
G1 X53.770 Y16.715 E32.40776
G1 X54.094 Y17.337 E32.43961
G1 X54.440 Y18.045 E32.47540
G1 X54.700 Y18.620 E32.50406
G1 X55.005 Y19.345 E32.53979
G1 X55.231 Y19.931 E32.56831
G1 X55.468 Y20.589 E32.60008
G1 X55.501 Y20.688 E32.60482
G1 X55.710 Y20.092 E32.63350
G1 X55.962 Y19.432 E32.66559
G1 X56.265 Y18.700 E32.70157
G1 X56.524 Y18.127 E32.73013
G1 X56.826 Y17.497 E32.76186
G1 X57.149 Y16.867 E32.79402
G1 X57.491 Y16.245 E32.82626
G1 X57.848 Y15.636 E32.85832
G1 X58.264 Y14.967 E32.89410
G1 X58.613 Y14.442 E32.92273
G1 X59.017 Y13.867 E32.95465
G1 X59.437 Y13.301 E32.98666
G1 X59.873 Y12.745 E33.01876
G1 X60.378 Y12.138 E33.05462
G1 X60.796 Y11.665 E33.08329
G1 X61.274 Y11.150 E33.11520
G1 X61.768 Y10.647 E33.14722
G1 X62.274 Y10.157 E33.17921
G1 X62.797 Y9.679 E33.21139
G1 X63.330 Y9.217 E33.24343
G1 X63.877 Y8.768 E33.27557
G1 X64.502 Y8.284 E33.31148
G1 X65.011 Y7.915 E33.34003
G1 X65.587 Y7.516 E33.37185
G1 X66.180 Y7.130 E33.40399
G1 X66.783 Y6.761 E33.43610
G1 X67.470 Y6.365 E33.47211
G1 X68.026 Y6.068 E33.50074
G1 X68.649 Y5.754 E33.53243
G1 X69.286 Y5.453 E33.56443
G1 X69.935 Y5.169 E33.59661
G1 X70.590 Y4.902 E33.62873
G1 X71.331 Y4.625 E33.66466
G1 X71.926 Y4.423 E33.69320
G1 X72.595 Y4.213 E33.72505
G1 X73.277 Y4.019 E33.75725
G1 X73.960 Y3.846 E33.78925
G1 X74.729 Y3.672 E33.82506
G1 X75.350 Y3.552 E33.85379
G1 X76.041 Y3.435 E33.88562
G1 X76.739 Y3.337 E33.91763
G1 X77.441 Y3.257 E33.94972
G1 X78.233 Y3.189 E33.98583
G1 X78.862 Y3.157 E34.01443
G1 X79.556 Y3.135 E34.04597
G1 X80.260 Y3.132 E34.07795
G1 X80.968 Y3.148 E34.11011
G1 X81.677 Y3.184 E34.14235
G1 X82.464 Y3.247 E34.17821
G1 X83.089 Y3.314 E34.20676
G1 X83.785 Y3.408 E34.23866
G1 X84.484 Y3.521 E34.27082
G1 X85.262 Y3.670 E34.30680
G1 X85.874 Y3.806 E34.33527
G1 X86.633 Y3.994 E34.37079
G1 X87.241 Y4.164 E34.39946
G1 X87.991 Y4.394 E34.43509
G1 X88.586 Y4.597 E34.46364
G1 X89.244 Y4.839 E34.49549
G1 X89.977 Y5.131 E34.53132
G1 X90.557 Y5.382 E34.56003
G1 X91.265 Y5.711 E34.59549
G1 X91.826 Y5.991 E34.62396
G1 X92.451 Y6.322 E34.65609
G1 X93.138 Y6.713 E34.69199
G1 X93.674 Y7.039 E34.72048
G1 X94.334 Y7.462 E34.75609
G1 X94.853 Y7.818 E34.78467
G1 X95.422 Y8.229 E34.81655
G1 X96.050 Y8.709 E34.85245
G1 X96.538 Y9.106 E34.88102
G1 X97.133 Y9.615 E34.91659
G1 X97.600 Y10.039 E34.94524
G1 X98.166 Y10.580 E34.98080
G1 X98.606 Y11.025 E35.00922
G1 X99.090 Y11.538 E35.04125
G1 X99.617 Y12.131 E35.07729
G1 X100.019 Y12.613 E35.10579
G1 X100.506 Y13.225 E35.14132
G1 X100.884 Y13.730 E35.16997
G1 X101.290 Y14.301 E35.20179
G1 X101.728 Y14.955 E35.23754
G1 X102.064 Y15.490 E35.26623
G1 X102.464 Y16.166 E35.30191
G1 X102.769 Y16.715 E35.33043
G1 X103.093 Y17.337 E35.36228
G1 X103.439 Y18.045 E35.39808
G1 X103.699 Y18.620 E35.42674
G1 X104.004 Y19.345 E35.46246
G1 X104.230 Y19.931 E35.49099
G1 X104.467 Y20.589 E35.52275
G1 X104.500 Y20.688 E35.52749
G1 X104.709 Y20.092 E35.55618
G1 X104.961 Y19.432 E35.58826
G1 X105.264 Y18.700 E35.62425
G1 X105.523 Y18.127 E35.65281
G1 X105.825 Y17.497 E35.68454
G1 X106.148 Y16.867 E35.71669
G1 X106.490 Y16.245 E35.74893
G1 X106.847 Y15.636 E35.78100
G1 X107.263 Y14.967 E35.81678
G1 X107.612 Y14.442 E35.84541
G1 X108.016 Y13.867 E35.87733
G1 X108.436 Y13.301 E35.90934
G1 X108.872 Y12.745 E35.94143
G1 X109.377 Y12.138 E35.97729
G1 X109.795 Y11.665 E36.00596
G1 X110.273 Y11.150 E36.03787
G1 X110.767 Y10.647 E36.06990
G1 X111.273 Y10.157 E36.10189
G1 X111.796 Y9.679 E36.13407
G1 X112.329 Y9.217 E36.16610
G1 X112.876 Y8.768 E36.19825
G1 X113.501 Y8.284 E36.23415
G1 X114.010 Y7.915 E36.26270
G1 X114.586 Y7.516 E36.29453
G1 X115.179 Y7.130 E36.32666
G1 X115.782 Y6.761 E36.35877
G1 X116.469 Y6.365 E36.39479
G1 X117.025 Y6.068 E36.42342
G1 X117.648 Y5.754 E36.45511
G1 X118.285 Y5.453 E36.48710
G1 X118.934 Y5.169 E36.51928
G1 X119.589 Y4.902 E36.55141
G1 X120.330 Y4.625 E36.58734
G1 X120.925 Y4.423 E36.61587
G1 X121.594 Y4.213 E36.64772
G1 X122.276 Y4.019 E36.67993
G1 X122.959 Y3.846 E36.71193
G1 X123.728 Y3.672 E36.74774
G1 X124.349 Y3.552 E36.77646
G1 X125.040 Y3.435 E36.80829
G1 X125.738 Y3.337 E36.84031
G1 X126.440 Y3.257 E36.87240
G1 X127.232 Y3.189 E36.90850
G1 X127.861 Y3.157 E36.93711
G1 X128.555 Y3.135 E36.96864
G1 X129.260 Y3.132 E37.00066
G1 X129.968 Y3.148 E37.03283
G1 X130.677 Y3.184 E37.06507
G1 X131.464 Y3.247 E37.10093
G1 X132.089 Y3.314 E37.12948
G1 X132.785 Y3.408 E37.16138
G1 X133.484 Y3.521 E37.19354
G1 X134.262 Y3.670 E37.22952
G1 X134.874 Y3.806 E37.25799
G1 X135.633 Y3.994 E37.29351
G1 X136.241 Y4.164 E37.32218
G1 X136.991 Y4.394 E37.35781
G1 X137.586 Y4.597 E37.38636
G1 X138.244 Y4.839 E37.41821
G1 X138.977 Y5.131 E37.45404
G1 X139.557 Y5.382 E37.48275
G1 X140.265 Y5.711 E37.51821
G1 X140.826 Y5.991 E37.54668
G1 X141.451 Y6.322 E37.57880
G1 X142.138 Y6.713 E37.61471
G1 X142.674 Y7.039 E37.64320
G1 X143.334 Y7.462 E37.67881
G1 X143.853 Y7.818 E37.70739
G1 X144.422 Y8.229 E37.73927
G1 X145.050 Y8.709 E37.77517
G1 X145.538 Y9.106 E37.80374
G1 X146.133 Y9.615 E37.83931
G1 X146.600 Y10.039 E37.86795
G1 X147.166 Y10.580 E37.90352
G1 X147.606 Y11.025 E37.93194
G1 X148.090 Y11.538 E37.96397
G1 X148.617 Y12.131 E38.00000
G1 X149.019 Y12.613 E38.02851
G1 X149.506 Y13.225 E38.06403
G1 X149.884 Y13.730 E38.09268
G1 X150.290 Y14.301 E38.12451
G1 X150.728 Y14.955 E38.16026
G1 X151.064 Y15.490 E38.18895
G1 X151.464 Y16.166 E38.22463
G1 X151.769 Y16.715 E38.25315
G1 X152.093 Y17.337 E38.28500
G1 X152.439 Y18.045 E38.32079
G1 X152.699 Y18.620 E38.34946
G1 X153.004 Y19.345 E38.38518
G1 X153.230 Y19.931 E38.41371
G1 X153.467 Y20.589 E38.44547
G1 X153.714 Y21.341 E38.48142
G1 X153.891 Y21.943 E38.50992
G1 X154.096 Y22.702 E38.54563
G1 X154.240 Y23.316 E38.57427
G1 X154.402 Y24.081 E38.60979
G1 X154.513 Y24.701 E38.63840
G1 X154.620 Y25.395 E38.67029
G1 X154.720 Y26.178 E38.70614
G1 X154.779 Y26.804 E38.73470
G1 X154.836 Y27.588 E38.77040
G1 X154.861 Y28.217 E38.79899
G1 X154.872 Y28.840 E38.82729
G1 X154.876 Y28.986 E38.83393
G1 X154.865 Y29.710 E38.86681
G1 X154.841 Y30.334 E38.89517
G1 X154.788 Y31.120 E38.93096
G1 X154.729 Y31.744 E38.95942
G1 X154.635 Y32.523 E38.99506
G1 X154.528 Y33.228 E39.02745
G1 X154.403 Y33.923 E39.05952
G1 X154.276 Y34.532 E39.08778
G1 X154.098 Y35.298 E39.12349
G1 X153.915 Y35.986 E39.15583
G1 X153.738 Y36.585 E39.18420
G1 X153.498 Y37.332 E39.21983
G1 X153.260 Y38.000 E39.25204
G1 X153.007 Y38.659 E39.28410
G1 X152.765 Y39.239 E39.31265
G1 X152.443 Y39.956 E39.34834
G1 X152.134 Y40.593 E39.38050
G1 X151.810 Y41.220 E39.41255
G1 X151.466 Y41.841 E39.44480
G1 X151.107 Y42.451 E39.47695
G1 X150.777 Y42.975 E39.50507
G1 X150.391 Y43.562 E39.53698
G1 X149.934 Y44.213 E39.57311
G1 X149.559 Y44.713 E39.60149
G1 X149.129 Y45.261 E39.63313
G1 X148.677 Y45.808 E39.66536
G1 X148.151 Y46.405 E39.70150
G1 X147.723 Y46.862 E39.72993
G1 X147.233 Y47.362 E39.76173
G1 X146.665 Y47.912 E39.79764
G1 X146.198 Y48.336 E39.82629
G1 X145.670 Y48.793 E39.85801
G1 X145.121 Y49.243 E39.89025
G1 X144.498 Y49.725 E39.92602
G1 X143.989 Y50.095 E39.95460
G1 X143.343 Y50.540 E39.99023
G1 X142.815 Y50.883 E40.01883
G1 X142.214 Y51.250 E40.05081
G1 X141.603 Y51.601 E40.08282
G1 X140.981 Y51.937 E40.11492
G1 X140.353 Y52.254 E40.14688
G1 X139.637 Y52.593 E40.18286
G1 X139.059 Y52.843 E40.21146
G1 X138.413 Y53.106 E40.24314
G1 X137.746 Y53.356 E40.27549
G1 X137.320 Y53.502 E40.29594
G1 X137.584 Y53.592 E40.30861
G1 X138.244 Y53.833 E40.34052
G1 X138.980 Y54.127 E40.37652
G1 X139.557 Y54.378 E40.40510
G1 X140.265 Y54.707 E40.44056
G1 X140.826 Y54.987 E40.46903
G1 X141.451 Y55.318 E40.50116
G1 X142.138 Y55.709 E40.53706
G1 X142.674 Y56.035 E40.56555
G1 X143.334 Y56.458 E40.60116
G1 X143.853 Y56.814 E40.62974
G1 X144.422 Y57.225 E40.66162
G1 X145.050 Y57.705 E40.69752
G1 X145.536 Y58.101 E40.72600
G1 X146.134 Y58.611 E40.76169
G1 X146.601 Y59.035 E40.79034
G1 X147.166 Y59.575 E40.82584
G1 X147.608 Y60.022 E40.85439
G1 X148.090 Y60.534 E40.88633
G1 X148.617 Y61.127 E40.92236
G1 X149.019 Y61.609 E40.95087
G1 X149.505 Y62.220 E40.98633
G1 X149.883 Y62.724 E41.01494
G1 X150.290 Y63.297 E41.04686
G1 X150.728 Y63.952 E41.08265
G1 X151.063 Y64.485 E41.11124
G1 X151.465 Y65.161 E41.14696
G1 X151.770 Y65.712 E41.17557
G1 X152.093 Y66.333 E41.20736
G1 X152.439 Y67.041 E41.24315
G1 X152.699 Y67.616 E41.27181
G1 X153.004 Y68.341 E41.30754
G1 X153.230 Y68.927 E41.33606
G1 X153.467 Y69.585 E41.36783
G1 X153.714 Y70.337 E41.40378
G1 X153.891 Y70.939 E41.43228
G1 X154.096 Y71.698 E41.46799
G1 X154.240 Y72.312 E41.49663
G1 X154.402 Y73.077 E41.53214
G1 X154.513 Y73.697 E41.56075
G1 X154.620 Y74.391 E41.59265
G1 X154.720 Y75.174 E41.62850
G1 X154.779 Y75.800 E41.65706
G1 X154.836 Y76.584 E41.69276
G1 X154.861 Y77.213 E41.72135
G1 X154.872 Y77.835 E41.74960
G1 X154.876 Y77.981 E41.75624
G1 X154.865 Y78.705 E41.78912
G1 X154.841 Y79.329 E41.81749
G1 X154.788 Y80.113 E41.85318
G1 X154.729 Y80.739 E41.88173
G1 X154.635 Y81.518 E41.91737
G1 X154.528 Y82.223 E41.94976
G1 X154.403 Y82.918 E41.98183
G1 X154.276 Y83.527 E42.01009
G1 X154.098 Y84.293 E42.04580
G1 X153.915 Y84.982 E42.07818
G1 X153.738 Y85.580 E42.10651
G1 X153.498 Y86.327 E42.14214
G1 X153.260 Y86.996 E42.17439
G1 X153.007 Y87.652 E42.20633
G1 X152.765 Y88.233 E42.23491
G1 X152.443 Y88.951 E42.27065
G1 X152.134 Y89.588 E42.30281
G1 X151.810 Y90.215 E42.33486
G1 X151.466 Y90.836 E42.36711
G1 X151.107 Y91.446 E42.39926
G1 X150.777 Y91.970 E42.42738
G1 X150.391 Y92.557 E42.45929
G1 X149.934 Y93.208 E42.49542
G1 X149.559 Y93.708 E42.52380
G1 X149.128 Y94.257 E42.55550
G1 X148.676 Y94.802 E42.58766
G1 X148.152 Y95.399 E42.62374
G1 X147.723 Y95.857 E42.65224
G1 X147.232 Y96.358 E42.68410
G1 X146.665 Y96.906 E42.71992
G1 X146.200 Y97.329 E42.74847
G1 X145.668 Y97.790 E42.78044
G1 X145.121 Y98.237 E42.81253
G1 X144.498 Y98.720 E42.84833
G1 X143.989 Y99.089 E42.87688
G1 X143.343 Y99.536 E42.91256
G1 X142.814 Y99.877 E42.94115
G1 X142.216 Y100.244 E42.97302
G1 X141.603 Y100.596 E43.00512
G1 X140.981 Y100.932 E43.03723
G1 X140.351 Y101.250 E43.06928
G1 X139.638 Y101.587 E43.10510
G1 X139.061 Y101.837 E43.13366
G1 X138.411 Y102.102 E43.16554
G1 X137.746 Y102.350 E43.19778
G1 X137.319 Y102.497 E43.21829
G1 X137.583 Y102.586 E43.23094
G1 X138.247 Y102.829 E43.26306
G1 X138.977 Y103.121 E43.29877
G1 X139.556 Y103.372 E43.32743
G1 X140.267 Y103.703 E43.36305
G1 X140.826 Y103.982 E43.39143
G1 X141.451 Y104.313 E43.42355
G1 X142.136 Y104.703 E43.45935
G1 X142.674 Y105.029 E43.48792
G1 X143.333 Y105.453 E43.52351
G1 X143.853 Y105.808 E43.55211
G1 X144.422 Y106.220 E43.58401
G1 X145.048 Y106.698 E43.61979
G1 X145.538 Y107.096 E43.64846
G1 X146.133 Y107.605 E43.68402
G1 X146.600 Y108.029 E43.71267
G1 X147.168 Y108.571 E43.74833
G1 X147.608 Y109.017 E43.77678
G1 X148.089 Y109.528 E43.80866
G1 X148.617 Y110.122 E43.84475
G1 X149.020 Y110.605 E43.87332
G1 X149.505 Y111.215 E43.90872
G1 X149.883 Y111.719 E43.93733
G1 X150.290 Y112.292 E43.96926
G1 X150.728 Y112.947 E44.00504
G1 X151.063 Y113.480 E44.03364
G1 X151.465 Y114.156 E44.06936
G1 X151.770 Y114.707 E44.09796
G1 X152.093 Y115.328 E44.12975
G1 X152.439 Y116.036 E44.16555
G1 X152.698 Y116.611 E44.19419
G1 X153.004 Y117.336 E44.22993
G1 X153.230 Y117.923 E44.25850
G1 X153.467 Y118.579 E44.29018
G1 X153.714 Y119.331 E44.32613
G1 X153.892 Y119.935 E44.35473
G1 X154.096 Y120.693 E44.39038
G1 X154.240 Y121.307 E44.41902
G1 X154.402 Y122.072 E44.45454
G1 X154.513 Y122.692 E44.48315
G1 X154.620 Y123.386 E44.51504
G1 X154.720 Y124.169 E44.55089
G1 X154.779 Y124.794 E44.57940
G1 X154.836 Y125.579 E44.61515
G1 X154.861 Y126.208 E44.64374
G1 X154.872 Y126.830 E44.67200
G1 X154.876 Y126.976 E44.67863
G1 X154.865 Y127.701 E44.71156
G1 X154.841 Y128.325 E44.73993
G1 X154.788 Y129.109 E44.77562
G1 X154.729 Y129.735 E44.80417
G1 X154.635 Y130.514 E44.83981
G1 X154.528 Y131.219 E44.87220
G1 X154.403 Y131.914 E44.90427
G1 X154.276 Y132.523 E44.93253
G1 X154.098 Y133.289 E44.96824
G1 X153.915 Y133.978 E45.00062
G1 X153.738 Y134.576 E45.02895
G1 X153.498 Y135.323 E45.06458
G1 X153.260 Y135.992 E45.09683
G1 X153.006 Y136.649 E45.12883
G1 X152.765 Y137.228 E45.15731
G1 X152.443 Y137.946 E45.19305
G1 X152.134 Y138.584 E45.22525
G1 X151.810 Y139.213 E45.25738
G1 X151.466 Y139.831 E45.28951
G1 X151.108 Y140.440 E45.32159
G1 X150.776 Y140.968 E45.34992
G1 X150.390 Y141.554 E45.38179
G1 X149.935 Y142.201 E45.41772
G1 X149.560 Y142.703 E45.44618
G1 X149.128 Y143.253 E45.47794
G1 X148.676 Y143.798 E45.51010
G1 X148.152 Y144.395 E45.54618
G1 X147.721 Y144.855 E45.57481
G1 X147.232 Y145.353 E45.60651
G1 X146.665 Y145.902 E45.64235
G1 X146.198 Y146.326 E45.67100
G1 X145.670 Y146.783 E45.70272
G1 X145.123 Y147.232 E45.73486
G1 X144.498 Y147.716 E45.77076
G1 X143.989 Y148.085 E45.79932
G1 X143.343 Y148.532 E45.83500
G1 X142.814 Y148.873 E45.86358
G1 X142.216 Y149.240 E45.89545
G1 X141.603 Y149.592 E45.92756
G1 X140.981 Y149.928 E45.95967
G1 X140.351 Y150.246 E45.99172
G1 X139.638 Y150.583 E46.02754
G1 X139.059 Y150.834 E46.05620
G1 X138.411 Y151.097 E46.08796
G1 X137.748 Y151.346 E46.12013
G1 X137.000 Y151.603 E46.15605
G1 X136.399 Y151.789 E46.18462
G1 X135.723 Y151.981 E46.21654
G1 X135.040 Y152.154 E46.24854
G1 X134.352 Y152.310 E46.28058
G1 X133.574 Y152.464 E46.31661
G1 X132.952 Y152.566 E46.34523
G1 X132.261 Y152.663 E46.37693
G1 X131.557 Y152.743 E46.40911
G1 X130.851 Y152.803 E46.44129
G1 X130.146 Y152.843 E46.47336
G1 X129.444 Y152.865 E46.50526
G1 X128.655 Y152.868 E46.54109
G1 X128.026 Y152.852 E46.56967
G1 X127.324 Y152.816 E46.60160
G1 X126.618 Y152.761 E46.63376
G1 X125.911 Y152.686 E46.66605
G1 X125.132 Y152.580 E46.70176
G1 X124.512 Y152.478 E46.73030
G1 X123.820 Y152.346 E46.76229
G1 X123.131 Y152.195 E46.79433
G1 X122.447 Y152.026 E46.82633
G1 X121.763 Y151.837 E46.85856
G1 X121.087 Y151.630 E46.89067
G1 X120.339 Y151.378 E46.92652
G1 X119.750 Y151.160 E46.95505
G1 X119.100 Y150.901 E46.98683
G1 X118.449 Y150.621 E47.01901
G1 X117.808 Y150.324 E47.05110
G1 X117.102 Y149.974 E47.08689
G1 X116.546 Y149.677 E47.11552
G1 X115.933 Y149.329 E47.14753
G1 X115.258 Y148.920 E47.18338
G1 X114.731 Y148.580 E47.21187
G1 X114.150 Y148.184 E47.24380
G1 X113.509 Y147.722 E47.27969
G1 X113.010 Y147.338 E47.30829
G1 X112.401 Y146.845 E47.34387
G1 X111.925 Y146.436 E47.37238
G1 X111.402 Y145.965 E47.40434
G1 X110.833 Y145.420 E47.44013
G1 X110.393 Y144.975 E47.46855
G1 X109.909 Y144.462 E47.50059
G1 X109.382 Y143.869 E47.53662
G1 X108.981 Y143.388 E47.56506
G1 X108.544 Y142.840 E47.59689
G1 X108.069 Y142.207 E47.63284
G1 X107.707 Y141.695 E47.66132
G1 X107.318 Y141.115 E47.69304
G1 X106.939 Y140.517 E47.72519
G1 X106.577 Y139.907 E47.75741
G1 X106.232 Y139.289 E47.78956
G1 X105.867 Y138.589 E47.82541
G1 X105.594 Y138.025 E47.85387
G1 X105.303 Y137.385 E47.88580
G1 X105.027 Y136.732 E47.91800
G1 X104.771 Y136.075 E47.95003
G1 X104.504 Y135.332 E47.98589
G1 X104.500 Y135.318 E47.98655
G1 X104.498 Y135.323 E47.98679
G1 F240 E45.98679
G1 Z0.500
G0 F10500 X43.826 Y47.032
;TYPE:WALL-OUTER
G1 Z0.400
G1 F240 E47.98679
G1 F480 X43.265 Y47.419 E48.01775
G1 X42.822 Y47.706 E48.04172
G1 X42.299 Y48.026 E48.06957
G1 X41.783 Y48.323 E48.09661
G1 X41.251 Y48.610 E48.12406
G1 X40.710 Y48.883 E48.15159
G1 X40.085 Y49.179 E48.18300
G1 X39.611 Y49.384 E48.20645
G1 X39.052 Y49.612 E48.23387
G1 X38.487 Y49.824 E48.26128
G1 X37.832 Y50.048 E48.29272
G1 X37.338 Y50.201 E48.31621
G1 X36.746 Y50.369 E48.34416
G1 X36.171 Y50.516 E48.37111
G1 X35.580 Y50.649 E48.39863
G1 X34.903 Y50.783 E48.42997
G1 X34.383 Y50.868 E48.45390
G1 X33.794 Y50.951 E48.48092
G1 X33.189 Y51.019 E48.50857
G1 X32.581 Y51.071 E48.53629
G1 X31.987 Y51.106 E48.56331
G1 X31.373 Y51.125 E48.59121
G1 X30.701 Y51.128 E48.62174
G1 X30.166 Y51.114 E48.64604
G1 X29.571 Y51.083 E48.67310
G1 X28.964 Y51.035 E48.70076
G1 X28.368 Y50.972 E48.72798
G1 X27.683 Y50.879 E48.75938
G1 X27.163 Y50.794 E48.78331
G1 X26.576 Y50.682 E48.81045
G1 X25.988 Y50.554 E48.83778
G1 X25.392 Y50.406 E48.86567
G1 X24.819 Y50.248 E48.89267
G1 X24.232 Y50.067 E48.92057
G1 X23.585 Y49.850 E48.95156
G1 X23.092 Y49.667 E48.97545
G1 X22.539 Y49.447 E49.00248
G1 X21.974 Y49.204 E49.03041
G1 X21.436 Y48.954 E49.05736
G1 X20.825 Y48.651 E49.08833
G1 X20.352 Y48.398 E49.11270
G1 X19.835 Y48.105 E49.13969
G1 X19.252 Y47.753 E49.17062
G1 X18.801 Y47.461 E49.19502
G1 X18.309 Y47.127 E49.22203
G1 X17.748 Y46.721 E49.25348
G1 X17.337 Y46.407 E49.27697
G1 X16.800 Y45.971 E49.30839
G1 X16.402 Y45.629 E49.33222
G1 X15.951 Y45.222 E49.35982
G1 X15.459 Y44.752 E49.39072
G1 X15.089 Y44.377 E49.41465
G1 X14.674 Y43.936 E49.44215
G1 X14.229 Y43.436 E49.47255
G1 X13.885 Y43.023 E49.49696
G1 X13.507 Y42.549 E49.52450
G1 X13.098 Y42.006 E49.55537
G1 X12.799 Y41.582 E49.57894
G1 X12.458 Y41.071 E49.60684
G1 X12.134 Y40.560 E49.63432
G1 X11.825 Y40.041 E49.66176
G1 X11.532 Y39.514 E49.68914
G1 X11.217 Y38.909 E49.72012
G1 X10.987 Y38.436 E49.74401
G1 X10.736 Y37.884 E49.77155
G1 X10.501 Y37.327 E49.79901
G1 X10.286 Y36.773 E49.82600
G1 X10.056 Y36.133 E49.85689
G1 X9.890 Y35.622 E49.88129
G1 X9.719 Y35.051 E49.90836
G1 X9.559 Y34.458 E49.93626
G1 X9.419 Y33.871 E49.96367
G1 X9.278 Y33.204 E49.99463
G1 X9.187 Y32.695 E50.01812
G1 X9.093 Y32.087 E50.04606
G1 X9.017 Y31.488 E50.07348
G1 X8.957 Y30.887 E50.10092
G1 X8.915 Y30.293 E50.12796
G1 X8.884 Y29.602 E50.15938
G1 X8.877 Y29.075 E50.18332
G1 X8.875 Y29.010 E50.18627
G1 X8.882 Y28.481 E50.21030
G1 X8.905 Y27.867 E50.23820
G1 X8.943 Y27.275 E50.26515
G1 X9.007 Y26.596 E50.29612
G1 X9.071 Y26.073 E50.32006
G1 X9.161 Y25.464 E50.34802
G1 X9.264 Y24.879 E50.37499
G1 X9.385 Y24.287 E50.40244
G1 X9.522 Y23.698 E50.42990
G1 X9.695 Y23.040 E50.46080
G1 X9.844 Y22.534 E50.48476
G1 X10.029 Y21.958 E50.51224
G1 X10.229 Y21.388 E50.53968
G1 X10.444 Y20.824 E50.56709
G1 X10.705 Y20.195 E50.59802
G1 X10.922 Y19.713 E50.62203
G1 X11.184 Y19.168 E50.64949
G1 X11.459 Y18.631 E50.67690
G1 X11.750 Y18.102 E50.70432
G1 X12.061 Y17.571 E50.73227
G1 X12.415 Y17.001 E50.76274
G1 X12.707 Y16.561 E50.78673
G1 X13.054 Y16.067 E50.81415
G1 X13.421 Y15.573 E50.84210
G1 X13.787 Y15.106 E50.86905
G1 X14.222 Y14.582 E50.89998
G1 X14.572 Y14.186 E50.92398
G1 X14.983 Y13.744 E50.95139
G1 X15.414 Y13.305 E50.97934
G1 X15.840 Y12.892 E51.00628
G1 X16.287 Y12.483 E51.03380
G1 X16.743 Y12.088 E51.06120
G1 X17.219 Y11.698 E51.08915
G1 X17.758 Y11.280 E51.12013
G1 X18.175 Y10.977 E51.14354
G1 X18.672 Y10.633 E51.17100
G1 X19.179 Y10.303 E51.19847
G1 X19.704 Y9.982 E51.22642
G1 X20.284 Y9.648 E51.25682
G1 X20.758 Y9.395 E51.28122
G1 X21.299 Y9.122 E51.30875
G1 X21.845 Y8.864 E51.33617
G1 X22.399 Y8.621 E51.36365
G1 X22.948 Y8.398 E51.39056
G1 X23.587 Y8.159 E51.42155
G1 X24.087 Y7.989 E51.44554
G1 X24.663 Y7.808 E51.47296
G1 X25.255 Y7.640 E51.50091
G1 X25.831 Y7.493 E51.52791
G1 X26.506 Y7.341 E51.55933
G1 X27.012 Y7.243 E51.58274
G1 X27.619 Y7.141 E51.61070
G1 X28.207 Y7.058 E51.63767
G1 X28.812 Y6.990 E51.66532
G1 X29.497 Y6.931 E51.69655
G1 X30.014 Y6.903 E51.72006
G1 X30.628 Y6.885 E51.74796
G1 X31.224 Y6.882 E51.77503
G1 X31.826 Y6.896 E51.80238
G1 X32.440 Y6.927 E51.83030
G1 X33.116 Y6.981 E51.86110
G1 X33.633 Y7.037 E51.88472
G1 X34.242 Y7.119 E51.91263
G1 X34.835 Y7.214 E51.93991
G1 X35.496 Y7.341 E51.97048
G1 X36.021 Y7.458 E51.99491
G1 X36.684 Y7.622 E52.02593
G1 X37.191 Y7.764 E52.04984
G1 X37.832 Y7.961 E52.08030
G1 X38.341 Y8.134 E52.10472
G1 X38.910 Y8.343 E52.13225
G1 X39.533 Y8.591 E52.16271
G1 X40.017 Y8.801 E52.18667
G1 X40.635 Y9.088 E52.21762
G1 X41.116 Y9.328 E52.24203
G1 X41.641 Y9.606 E52.26901
G1 X42.242 Y9.948 E52.30042
G1 X42.685 Y10.218 E52.32398
G1 X43.267 Y10.591 E52.35538
G1 X43.693 Y10.883 E52.37884
G1 X44.182 Y11.236 E52.40623
G1 X44.723 Y11.650 E52.43717
G1 X45.133 Y11.983 E52.46116
G1 X45.651 Y12.426 E52.49212
G1 X46.049 Y12.787 E52.51652
G1 X46.534 Y13.251 E52.54701
G1 X46.912 Y13.633 E52.57141
G1 X47.327 Y14.073 E52.59889
G1 X47.772 Y14.574 E52.62932
G1 X48.111 Y14.980 E52.65334
G1 X48.542 Y15.521 E52.68476
G1 X48.852 Y15.935 E52.70825
G1 X49.207 Y16.436 E52.73614
G1 X49.581 Y16.993 E52.76661
G1 X49.861 Y17.439 E52.79053
G1 X50.209 Y18.026 E52.82152
G1 X50.464 Y18.486 E52.84541
G1 X50.744 Y19.023 E52.87292
G1 X51.043 Y19.634 E52.90381
G1 X51.260 Y20.116 E52.92782
G1 X51.529 Y20.754 E52.95927
G1 X51.715 Y21.236 E52.98273
G1 X51.923 Y21.814 E53.01063
G1 X52.132 Y22.451 E53.04108
G1 X52.282 Y22.958 E53.06510
G1 X52.459 Y23.614 E53.09596
G1 X52.580 Y24.128 E53.11994
G1 X52.721 Y24.794 E53.15086
G1 X52.814 Y25.314 E53.17485
G1 X52.908 Y25.922 E53.20279
G1 X52.993 Y26.587 E53.23324
G1 X53.043 Y27.113 E53.25724
G1 X53.092 Y27.791 E53.28812
G1 X53.113 Y28.320 E53.31216
G1 X53.124 Y28.933 E53.34001
G1 X53.125 Y29.000 E53.34305
G1 X53.117 Y29.604 E53.37049
G1 X53.096 Y30.141 E53.39489
G1 X53.052 Y30.811 E53.42539
G1 X53.002 Y31.336 E53.44934
G1 X52.920 Y32.012 E53.48027
G1 X52.830 Y32.610 E53.50774
G1 X52.723 Y33.205 E53.53520
G1 X52.616 Y33.722 E53.55917
G1 X52.462 Y34.385 E53.59009
G1 X52.307 Y34.969 E53.61753
G1 X52.157 Y35.476 E53.64155
G1 X51.949 Y36.123 E53.67241
G1 X51.746 Y36.693 E53.69989
G1 X51.525 Y37.267 E53.72783
G1 X51.326 Y37.745 E53.75135
G1 X51.048 Y38.365 E53.78221
G1 X50.784 Y38.910 E53.80971
G1 X50.507 Y39.446 E53.83712
G1 X50.214 Y39.975 E53.86458
G1 X49.902 Y40.504 E53.89248
G1 X49.626 Y40.944 E53.91607
G1 X49.294 Y41.448 E53.94348
G1 X48.902 Y42.006 E53.97445
G1 X48.581 Y42.435 E53.99879
G1 X48.213 Y42.904 E54.02586
G1 X47.821 Y43.378 E54.05380
G1 X47.379 Y43.880 E54.08418
G1 X47.018 Y44.266 E54.10818
G1 X46.594 Y44.699 E54.13571
G1 X46.106 Y45.171 E54.16654
G1 X45.714 Y45.527 E54.19059
G1 X45.258 Y45.922 E54.21799
G1 X44.791 Y46.305 E54.24542
G1 X44.252 Y46.722 E54.27638
G1 X43.826 Y47.032 E54.30030
G0 F10500 X43.564 Y46.638
G0 X34.812 Y45.041
G0 X34.340 Y44.986
G1 F480 X34.366 Y44.757 E54.31077
G1 X34.375 Y44.503 E54.32232
G1 X34.363 Y44.216 E54.33536
G1 X34.285 Y43.730 E54.35772
G1 X34.139 Y43.264 E54.37990
G1 X33.909 Y42.793 E54.40370
G1 X33.639 Y42.398 E54.42544
G1 X33.273 Y42.010 E54.44966
G1 X32.876 Y41.699 E54.47257
G1 X32.444 Y41.454 E54.49512
G1 X32.200 Y41.350 E54.50717
G1 X31.757 Y41.215 E54.52820
G1 X31.253 Y41.139 E54.55135
G1 X31.000 Y41.130 E54.56285
G1 X30.741 Y41.139 E54.57462
G1 X30.248 Y41.214 E54.59727
G1 X29.739 Y41.374 E54.62151
G1 X29.293 Y41.593 E54.64407
G1 X29.098 Y41.717 E54.65457
G1 X28.867 Y41.890 E54.66768
G1 X28.505 Y42.232 E54.69029
G1 X28.194 Y42.629 E54.71320
G1 X27.947 Y43.068 E54.73608
G1 X27.767 Y43.539 E54.75898
G1 X27.661 Y44.024 E54.78153
G1 X27.624 Y44.512 E54.80376
G1 X27.662 Y45.010 E54.82644
G1 X27.782 Y45.520 E54.85024
G1 X27.861 Y45.746 E54.86111
G1 X28.093 Y46.219 E54.88504
G1 X28.380 Y46.632 E54.90788
G1 X28.705 Y46.980 E54.92951
G1 X29.100 Y47.294 E54.95243
G1 X29.563 Y47.559 E54.97665
G1 X30.034 Y47.738 E54.99954
G1 X30.490 Y47.841 E55.02077
G1 X31.007 Y47.881 E55.04432
G1 X31.506 Y47.843 E55.06705
G1 X32.023 Y47.721 E55.09118
G1 X32.459 Y47.549 E55.11247
G1 X32.694 Y47.425 E55.12454
G1 X33.106 Y47.143 E55.14721
G1 X33.495 Y46.779 E55.17141
G1 X33.790 Y46.406 E55.19301
G1 X34.042 Y45.968 E55.21596
G1 X34.234 Y45.470 E55.24020
G1 X34.340 Y44.986 E55.26270
G0 F10500 X34.812 Y45.041
G0 X34.670 Y43.042
G0 X33.329 Y38.576
G0 X33.199 Y38.119
G1 F480 X33.974 Y37.896 E55.29933
G1 X34.727 Y37.607 E55.33596
G1 X35.453 Y37.255 E55.37261
G1 X36.146 Y36.842 E55.40925
G1 X36.761 Y36.402 E55.44360
G1 X37.412 Y35.845 E55.48251
G1 X37.976 Y35.268 E55.51916
G1 X38.490 Y34.645 E55.55584
G1 X38.946 Y33.980 E55.59246
G1 X39.345 Y33.279 E55.62910
G1 X39.682 Y32.546 E55.66574
G1 X39.937 Y31.833 E55.70013
G1 X40.160 Y31.007 E55.73899
G1 X40.298 Y30.211 E55.77568
G1 X40.367 Y29.412 E55.81211
G1 X40.375 Y29.001 E55.83078
G1 X40.341 Y28.199 E55.86724
G1 X40.237 Y27.399 E55.90388
G1 X40.065 Y26.611 E55.94051
G1 X39.826 Y25.844 E55.97700
G1 X39.661 Y25.415 E55.99787
G1 X39.367 Y24.775 E56.02986
G1 X38.947 Y24.030 E56.06871
G1 X38.520 Y23.405 E56.10309
G1 X38.009 Y22.779 E56.13979
G1 X37.413 Y22.166 E56.17862
G1 X36.804 Y21.641 E56.21514
G1 X36.143 Y21.165 E56.25213
G1 X35.456 Y20.756 E56.28845
G1 X34.354 Y20.249 E56.34354
G1 X33.641 Y20.011 E56.37768
G1 X33.196 Y19.891 E56.39862
G1 X32.408 Y19.736 E56.43509
G1 X31.655 Y19.654 E56.46949
G1 X30.800 Y19.632 E56.50834
G1 X30.044 Y19.679 E56.54274
G1 X29.200 Y19.804 E56.58150
G1 X28.798 Y19.892 E56.60019
G1 X28.027 Y20.113 E56.63661
G1 X27.274 Y20.402 E56.67325
G1 X26.593 Y20.731 E56.70760
G1 X25.897 Y21.140 E56.74426
G1 X25.201 Y21.639 E56.78316
G1 X24.625 Y22.131 E56.81756
G1 X24.059 Y22.704 E56.85415
G1 X23.542 Y23.325 E56.89085
G1 X23.055 Y24.028 E56.92969
G1 X22.656 Y24.731 E56.96640
G1 X22.319 Y25.463 E57.00300
G1 X22.048 Y26.223 E57.03965
G1 X21.854 Y26.955 E57.07404
G1 X21.711 Y27.748 E57.11064
G1 X21.639 Y28.545 E57.14699
G1 X21.625 Y29.007 E57.16798
G1 X21.656 Y29.760 E57.20221
G1 X21.756 Y30.560 E57.23883
G1 X21.924 Y31.349 E57.27547
G1 X22.159 Y32.121 E57.31212
G1 X22.480 Y32.915 E57.35102
G1 X22.848 Y33.634 E57.38770
G1 X23.276 Y34.318 E57.42435
G1 X23.761 Y34.962 E57.46097
G1 X24.266 Y35.526 E57.49535
G1 X24.851 Y36.079 E57.53191
G1 X25.479 Y36.580 E57.56840
G1 X25.857 Y36.843 E57.58931
G1 X26.504 Y37.231 E57.62358
G1 X27.225 Y37.584 E57.66004
G1 X27.696 Y37.777 E57.68316
G1 X28.413 Y38.016 E57.71749
G1 X29.196 Y38.204 E57.75406
G1 X29.945 Y38.319 E57.78848
G1 X30.798 Y38.378 E57.82731
G1 X31.605 Y38.361 E57.86397
G1 X32.407 Y38.274 E57.90061
G1 X33.199 Y38.119 E57.93727
G0 F10500 X33.329 Y38.576
G0 X36.460 Y37.323
G0 X38.949 Y34.991
G0 X40.485 Y32.004
G0 X40.914 Y28.149
G0 X39.880 Y24.515
G0 X37.808 Y21.747
G0 X34.559 Y19.713
G0 X31.613 Y17.305
G0 X31.506 Y16.843
G1 F480 X32.023 Y16.721 E57.96139
G1 X32.459 Y16.549 E57.98268
G1 X32.694 Y16.425 E57.99475
G1 X33.106 Y16.143 E58.01743
G1 X33.495 Y15.779 E58.04162
G1 X33.790 Y15.406 E58.06322
G1 X34.042 Y14.968 E58.08617
G1 X34.234 Y14.470 E58.11041
G1 X34.340 Y13.986 E58.13292
G1 X34.366 Y13.757 E58.14338
G1 X34.375 Y13.503 E58.15493
G1 X34.363 Y13.216 E58.16797
G1 X34.285 Y12.730 E58.19033
G1 X34.139 Y12.264 E58.21251
G1 X33.909 Y11.793 E58.23632
G1 X33.639 Y11.398 E58.25805
G1 X33.273 Y11.010 E58.28227
G1 X32.876 Y10.699 E58.30518
G1 X32.444 Y10.454 E58.32774
G1 X32.200 Y10.350 E58.33978
G1 X31.757 Y10.215 E58.36082
G1 X31.253 Y10.139 E58.38397
G1 X31.000 Y10.130 E58.39546
G1 X30.741 Y10.139 E58.40724
G1 X30.248 Y10.214 E58.42988
G1 X29.739 Y10.374 E58.45412
G1 X29.293 Y10.593 E58.47669
G1 X29.098 Y10.717 E58.48718
G1 X28.867 Y10.890 E58.50029
G1 X28.505 Y11.232 E58.52291
G1 X28.194 Y11.629 E58.54581
G1 X27.947 Y12.068 E58.56869
G1 X27.767 Y12.539 E58.59159
G1 X27.661 Y13.024 E58.61414
G1 X27.624 Y13.512 E58.63637
G1 X27.662 Y14.010 E58.65905
G1 X27.782 Y14.520 E58.68285
G1 X27.861 Y14.746 E58.69372
G1 X28.093 Y15.219 E58.71765
G1 X28.380 Y15.632 E58.74049
G1 X28.705 Y15.980 E58.76212
G1 X29.100 Y16.294 E58.78504
G1 X29.563 Y16.559 E58.80927
G1 X30.034 Y16.738 E58.83215
G1 X30.490 Y16.841 E58.85338
G1 X31.007 Y16.881 E58.87694
G1 X31.506 Y16.843 E58.89967
G0 F10500 X31.432 Y17.113
;TYPE:SKIN
G1 F480 X34.258 Y19.939 E59.08119
G0 F10500 X34.325 Y19.740
G0 X32.845 Y19.338
G0 X32.804 Y19.546
G1 F480 X30.334 Y17.075 E59.23987
G1 F240 E57.23987
G1 Z0.500
G0 F10500 X32.281 Y16.901
G1 Z0.400
G1 F240 E59.23987
G1 F480 X36.419 Y21.039 E59.50566
G0 F10500 X36.540 Y20.863
G0 X38.439 Y22.398
G0 X39.128 Y23.454
G0 X38.953 Y23.573
G1 F480 X51.625 Y36.246 E60.31964
G0 F10500 X51.338 Y37.019
G1 F480 X40.071 Y25.752 E61.04334
G0 F10500 X40.271 Y25.675
G0 X40.671 Y27.161
G0 X40.463 Y27.205
G1 F480 X51.026 Y37.768 E61.72182
G0 F10500 X50.693 Y38.495
G1 F480 X40.612 Y28.415 E62.36931
G0 F10500 X40.623 Y29.486
G1 F480 X50.338 Y39.201 E62.99332
G0 F10500 X49.961 Y39.885
G1 F480 X40.522 Y30.446 E63.59961
G0 F10500 X40.344 Y31.329
G1 F480 X49.563 Y40.548 E64.19176
G0 F10500 X49.147 Y41.192
G1 F480 X40.102 Y32.147 E64.77274
G0 F10500 X40.303 Y32.219
G0 X51.688 Y35.384
G0 X51.889 Y35.449
G1 F480 X32.985 Y16.544 E65.98701
G0 F10500 X33.569 Y16.069
G1 F480 X52.126 Y34.625 E67.17893
G0 F10500 X52.334 Y33.772
G1 F480 X34.045 Y15.484 E68.35363
G0 F10500 X34.397 Y14.774
G1 F480 X52.512 Y32.890 E69.51722
G0 F10500 X52.658 Y31.976
G1 F480 X34.610 Y13.927 E70.67651
G0 F10500 X34.564 Y12.820
G1 F480 X52.767 Y31.024 E71.84575
G0 F10500 X52.837 Y30.032
G1 F480 X29.972 Y7.168 E73.31438
G0 F10500 X28.984 Y7.240
G1 F480 X31.681 Y9.937 E73.48762
G0 F10500 X30.580 Y9.897
G1 F480 X28.031 Y7.348 E73.65134
G0 F10500 X27.115 Y7.493
G1 F480 X29.725 Y10.103 E73.81899
G0 F10500 X29.016 Y10.455
G1 F480 X26.233 Y7.672 E73.99775
G0 F10500 X25.380 Y7.879
G1 F480 X28.434 Y10.933 E74.19391
G0 F10500 X27.956 Y11.515
G1 F480 X24.557 Y8.116 E74.41223
G0 F10500 X23.758 Y8.379
G1 F480 X27.605 Y12.225 E74.65930
G0 F10500 X27.394 Y13.075
G1 F480 X22.985 Y8.666 E74.94250
G0 F10500 X22.237 Y8.978
G1 F480 X27.428 Y14.170 E75.27596
G0 F10500 X27.223 Y14.216
G0 X28.612 Y19.451
G0 X28.669 Y19.654
G1 F480 X19.457 Y10.441 E75.86770
G0 F10500 X18.811 Y10.856
G1 F480 X27.852 Y19.897 E76.44842
G0 F10500 X27.778 Y19.700
G0 X29.530 Y19.275
G0 X29.561 Y19.485
G1 F480 X20.121 Y10.045 E77.05476
G0 F10500 X20.805 Y9.668
G1 F480 X30.522 Y19.386 E77.67894
G0 F10500 X31.587 Y19.389
G1 F480 X21.510 Y9.313 E78.32617
G0 F10500 X21.599 Y9.505
G0 X31.010 Y7.359
G0 X31.010 Y7.146
G1 F480 X52.861 Y28.996 E79.72967
G0 F10500 X52.832 Y27.907
G1 F480 X32.099 Y7.174 E81.06139
G0 F10500 X33.246 Y7.259
G1 F480 X52.744 Y26.758 E82.31381
G0 F10500 X52.581 Y25.534
G1 F480 X34.468 Y7.421 E83.47724
G0 F10500 X35.782 Y7.674
G1 F480 X52.329 Y24.221 E84.54009
G0 F10500 X51.957 Y22.789
G1 F480 X37.215 Y8.046 E85.48702
G0 F10500 X37.153 Y8.248
G0 X38.736 Y8.784
G0 X38.818 Y8.589
G1 F480 X51.412 Y21.183 E86.29596
G0 F10500 X51.215 Y21.259
G0 X50.393 Y19.383
G0 X50.582 Y19.292
G1 F480 X40.708 Y9.419 E86.93015
G0 F10500 X40.614 Y9.607
G0 X43.127 Y11.070
G0 X43.247 Y10.897
G1 F480 X49.102 Y16.752 E87.30623
G0 F10500 X48.925 Y16.868
G0 X39.995 Y32.998
G0 X39.803 Y32.909
G1 F480 X48.711 Y41.817 E87.87841
G0 F10500 X48.256 Y42.422
G1 F480 X39.453 Y33.619 E88.44384
G0 F10500 X39.056 Y34.283
G1 F480 X47.783 Y43.010 E89.00439
G0 F10500 X47.292 Y43.579
G1 F480 X38.616 Y34.904 E89.56164
G0 F10500 X38.133 Y35.481
G1 F480 X46.782 Y44.130 E90.11718
G0 F10500 X46.252 Y44.661
G1 F480 X37.608 Y36.017 E90.67240
G0 F10500 X37.039 Y36.509
G1 F480 X45.706 Y45.176 E91.22909
G0 F10500 X45.142 Y45.672
G1 F480 X36.430 Y36.961 E91.78865
G0 F10500 X35.776 Y37.367
G1 F480 X44.559 Y46.150 E92.35280
G0 F10500 X43.958 Y46.609
G1 F480 X35.076 Y37.728 E92.92327
G0 F10500 X34.327 Y38.040
G1 F480 X43.335 Y47.048 E93.50187
G0 F10500 X42.698 Y47.471
G1 F480 X33.525 Y38.298 E94.09107
G0 F10500 X32.659 Y38.492
G1 F480 X42.037 Y47.871 E94.69347
G0 F10500 X41.357 Y48.252
G1 F480 X31.719 Y38.613 E95.31257
G0 F10500 X30.677 Y38.632
G1 F480 X40.658 Y48.613 E95.95367
G0 F10500 X39.938 Y48.954
G1 F480 X34.489 Y43.504 E96.30370
G0 F10500 X34.629 Y44.706
G1 F480 X39.192 Y49.269 E96.59679
G0 F10500 X38.427 Y49.563
G1 F480 X34.465 Y45.602 E96.85124
G0 F10500 X34.134 Y46.331
G1 F480 X37.635 Y49.833 E97.07615
G0 F10500 X36.816 Y50.074
G1 F480 X33.693 Y46.951 E97.27675
G0 F10500 X33.127 Y47.446
G1 F480 X35.971 Y50.290 E97.45942
G0 F10500 X35.095 Y50.475
G1 F480 X32.453 Y47.832 E97.62915
G0 F10500 X31.640 Y48.081
G1 F480 X34.189 Y50.629 E97.79285
G0 F10500 X33.245 Y50.746
G1 F480 X30.612 Y48.112 E97.96200
G0 F10500 X30.589 Y48.329
G0 X29.318 Y48.079
G0 X28.808 Y47.669
G0 X28.941 Y47.502
G1 F480 X32.263 Y50.825 E98.17541
G0 F10500 X31.238 Y50.860
G1 F480 X9.140 Y28.762 E99.59481
G0 F10500 X9.176 Y27.737
G1 F480 X28.038 Y46.599 E100.80635
G0 F10500 X27.864 Y46.721
G0 X27.230 Y45.680
G0 X27.179 Y44.905
G0 X27.389 Y44.889
G1 F480 X9.255 Y26.756 E101.97110
G0 F10500 X9.374 Y25.814
G1 F480 X27.426 Y43.866 E103.13061
G0 F10500 X27.672 Y43.052
G1 F480 X9.526 Y24.905 E104.29619
G0 F10500 X9.713 Y24.032
G1 F480 X28.057 Y42.376 E105.47446
G0 F10500 X28.558 Y41.816
G1 F480 X9.928 Y23.186 E106.67110
G0 F10500 X10.172 Y22.370
G1 F480 X29.163 Y41.361 E107.89093
G0 F10500 X29.907 Y41.044
G1 F480 X26.244 Y37.381 E108.12621
G0 F10500 X26.135 Y37.563
G0 X28.051 Y38.395
G0 X28.118 Y38.195
G1 F480 X30.797 Y40.873 E108.29826
G0 F10500 X31.995 Y41.011
G1 F480 X29.499 Y38.515 E108.45858
G0 F10500 X29.465 Y38.725
G0 X26.991 Y38.109
G0 X23.854 Y35.927
G0 X22.422 Y33.847
G0 X22.613 Y33.750
G1 F480 X10.440 Y21.577 E109.24047
G0 F10500 X10.733 Y20.810
G1 F480 X21.814 Y31.890 E109.95219
G0 F10500 X21.484 Y30.499
G1 F480 X11.050 Y20.066 E110.62236
G0 F10500 X11.244 Y20.154
G0 X9.370 Y29.832
G0 X9.158 Y29.841
G1 F480 X30.166 Y50.849 E111.97174
G0 F10500 X29.032 Y50.775
G1 F480 X9.229 Y30.972 E113.24372
G0 F10500 X9.373 Y32.177
G1 F480 X27.828 Y50.632 E114.42912
G0 F10500 X26.538 Y50.403
G1 F480 X9.602 Y33.467 E115.51695
G0 F10500 X9.941 Y34.866
G1 F480 X25.135 Y50.061 E116.49292
G0 F10500 X25.190 Y49.858
G0 X23.654 Y49.371
G0 X23.581 Y49.567
G1 F480 X10.441 Y36.427 E117.33693
G0 F10500 X10.641 Y36.356
G0 X11.376 Y38.141
G0 X11.181 Y38.228
G1 F480 X21.773 Y48.820 E118.01727
G0 F10500 X21.862 Y48.629
G0 X19.573 Y47.393
G0 X19.465 Y47.573
G1 F480 X12.436 Y40.544 E118.46876
G0 F10500 X12.614 Y40.433
G0 X21.163 Y29.339
G0 X21.375 Y29.330
G1 F480 X11.390 Y19.345 E119.11011
G0 F10500 X11.750 Y18.644
G1 F480 X21.398 Y28.292 E119.72982
G0 F10500 X21.515 Y27.349
G1 F480 X12.133 Y17.966 E120.33248
G0 F10500 X12.533 Y17.306
G1 F480 X21.708 Y26.481 E120.92180
G0 F10500 X21.964 Y25.676
G1 F480 X12.952 Y16.665 E121.50063
G0 F10500 X13.395 Y16.047
G1 F480 X22.275 Y24.927 E122.07101
G0 F10500 X22.638 Y24.229
G1 F480 X13.853 Y15.444 E122.63529
G0 F10500 X14.330 Y14.861
G1 F480 X23.046 Y23.577 E123.19513
G0 F10500 X23.497 Y22.967
G1 F480 X14.827 Y14.296 E123.75205
G0 F10500 X15.342 Y13.751
G1 F480 X23.990 Y22.399 E124.30753
G0 F10500 X24.522 Y21.870
G1 F480 X15.875 Y13.224 E124.86291
G0 F10500 X16.425 Y12.713
G1 F480 X25.099 Y21.387 E125.42006
G0 F10500 X25.716 Y20.943
G1 F480 X16.995 Y12.222 E125.98022
G0 F10500 X17.582 Y11.748
G1 F480 X26.382 Y20.549 E126.54549
G0 F10500 X27.092 Y20.197
G1 F480 X18.186 Y11.292 E127.11751
G0 F10500 X18.957 Y12.357
G1 F240 E125.11751
G1 Z0.500
G0 F10500 X27.012 Y56.239
;TYPE:WALL-OUTER
G1 Z0.400
G1 F240 E127.11751
G1 F480 X27.619 Y56.137 E127.14547
G1 X28.207 Y56.054 E127.17244
G1 X28.812 Y55.986 E127.20009
G1 X29.497 Y55.927 E127.23132
G1 X30.014 Y55.898 E127.25483
G1 X30.628 Y55.880 E127.28273
G1 X31.223 Y55.878 E127.30976
G1 X31.826 Y55.892 E127.33715
G1 X32.440 Y55.923 E127.36508
G1 X33.116 Y55.977 E127.39588
G1 X33.633 Y56.033 E127.41950
G1 X34.242 Y56.115 E127.44741
G1 X34.835 Y56.210 E127.47468
G1 X35.497 Y56.337 E127.50530
G1 X36.012 Y56.451 E127.52925
G1 X36.683 Y56.618 E127.56066
G1 X37.191 Y56.760 E127.58462
G1 X37.832 Y56.957 E127.61507
G1 X38.341 Y57.130 E127.63949
G1 X38.910 Y57.338 E127.66701
G1 X39.533 Y57.587 E127.69748
G1 X40.017 Y57.797 E127.72144
G1 X40.635 Y58.084 E127.75239
G1 X41.116 Y58.324 E127.77681
G1 X41.641 Y58.602 E127.80379
G1 X42.242 Y58.944 E127.83519
G1 X42.685 Y59.214 E127.85876
G1 X43.267 Y59.587 E127.89015
G1 X43.693 Y59.879 E127.91361
G1 X44.182 Y60.232 E127.94100
G1 X44.723 Y60.646 E127.97194
G1 X45.140 Y60.985 E127.99635
G1 X45.651 Y61.420 E128.02683
G1 X46.042 Y61.776 E128.05085
G1 X46.534 Y62.245 E128.08172
G1 X46.906 Y62.622 E128.10578
G1 X47.327 Y63.069 E128.13367
G1 X47.772 Y63.570 E128.16410
G1 X48.111 Y63.976 E128.18812
G1 X48.535 Y64.508 E128.21902
G1 X48.851 Y64.930 E128.24297
G1 X49.201 Y65.423 E128.27043
G1 X49.586 Y65.998 E128.30186
G1 X49.861 Y66.435 E128.32531
G1 X50.209 Y67.021 E128.35626
G1 X50.464 Y67.482 E128.38019
G1 X50.744 Y68.019 E128.40770
G1 X51.043 Y68.630 E128.43859
G1 X51.260 Y69.112 E128.46260
G1 X51.529 Y69.750 E128.49405
G1 X51.715 Y70.232 E128.51751
G1 X51.923 Y70.810 E128.54541
G1 X52.132 Y71.447 E128.57586
G1 X52.282 Y71.954 E128.59988
G1 X52.459 Y72.610 E128.63074
G1 X52.580 Y73.124 E128.65472
G1 X52.721 Y73.790 E128.68564
G1 X52.814 Y74.310 E128.70963
G1 X52.908 Y74.918 E128.73757
G1 X52.993 Y75.583 E128.76802
G1 X53.043 Y76.109 E128.79202
G1 X53.092 Y76.787 E128.82289
G1 X53.113 Y77.316 E128.84694
G1 X53.124 Y77.928 E128.87474
G1 X53.125 Y77.995 E128.87778
G1 X53.117 Y78.599 E128.90522
G1 X53.096 Y79.136 E128.92963
G1 X53.052 Y79.805 E128.96008
G1 X53.002 Y80.331 E128.98408
G1 X52.920 Y81.007 E129.01501
G1 X52.830 Y81.605 E129.04247
G1 X52.723 Y82.200 E129.06993
G1 X52.616 Y82.717 E129.09391
G1 X52.462 Y83.380 E129.12482
G1 X52.307 Y83.964 E129.15227
G1 X52.157 Y84.470 E129.17624
G1 X51.949 Y85.118 E129.20715
G1 X51.746 Y85.688 E129.23463
G1 X51.525 Y86.261 E129.26252
G1 X51.326 Y86.740 E129.28608
G1 X51.048 Y87.360 E129.31694
G1 X50.784 Y87.905 E129.34445
G1 X50.507 Y88.441 E129.37185
G1 X50.214 Y88.970 E129.39931
G1 X49.902 Y89.499 E129.42721
G1 X49.626 Y89.939 E129.45080
G1 X49.294 Y90.443 E129.47821
G1 X48.902 Y91.001 E129.50918
G1 X48.581 Y91.430 E129.53352
G1 X48.213 Y91.899 E129.56059
G1 X47.828 Y92.363 E129.58798
G1 X47.371 Y92.883 E129.61942
G1 X47.018 Y93.261 E129.64291
G1 X46.594 Y93.693 E129.67040
G1 X46.097 Y94.173 E129.70179
G1 X45.714 Y94.522 E129.72532
G1 X45.250 Y94.924 E129.75320
G1 X44.790 Y95.300 E129.78019
G1 X44.243 Y95.724 E129.81162
G1 X43.826 Y96.027 E129.83503
G1 X43.266 Y96.414 E129.86595
G1 X42.822 Y96.700 E129.88994
G1 X42.297 Y97.022 E129.91791
G1 X41.783 Y97.318 E129.94485
G1 X41.251 Y97.605 E129.97230
G1 X40.702 Y97.882 E130.00023
G1 X40.097 Y98.168 E130.03063
G1 X39.611 Y98.379 E130.05469
G1 X39.042 Y98.611 E130.08260
G1 X38.486 Y98.819 E130.10956
G1 X37.831 Y99.043 E130.14100
G1 X37.338 Y99.196 E130.16445
G1 X36.746 Y99.364 E130.19240
G1 X36.171 Y99.511 E130.21935
G1 X35.580 Y99.644 E130.24687
G1 X34.903 Y99.778 E130.27821
G1 X34.383 Y99.863 E130.30214
G1 X33.794 Y99.946 E130.32916
G1 X33.189 Y100.014 E130.35681
G1 X32.581 Y100.066 E130.38453
G1 X31.987 Y100.101 E130.41155
G1 X31.373 Y100.120 E130.43945
G1 X30.702 Y100.122 E130.46993
G1 X30.175 Y100.108 E130.49387
G1 X29.561 Y100.077 E130.52180
G1 X28.964 Y100.030 E130.54899
G1 X28.368 Y99.967 E130.57621
G1 X27.683 Y99.874 E130.60761
G1 X27.163 Y99.789 E130.63154
G1 X26.576 Y99.677 E130.65868
G1 X25.988 Y99.549 E130.68602
G1 X25.392 Y99.401 E130.71391
G1 X24.819 Y99.243 E130.74090
G1 X24.232 Y99.062 E130.76880
G1 X23.596 Y98.848 E130.79928
G1 X23.092 Y98.662 E130.82368
G1 X22.530 Y98.438 E130.85116
G1 X21.984 Y98.203 E130.87816
G1 X21.436 Y97.949 E130.90559
G1 X20.825 Y97.646 E130.93657
G1 X20.352 Y97.393 E130.96093
G1 X19.835 Y97.100 E130.98792
G1 X19.242 Y96.741 E131.01940
G1 X18.808 Y96.461 E131.04286
G1 X18.300 Y96.115 E131.07078
G1 X17.757 Y95.723 E131.10120
G1 X17.338 Y95.400 E131.12522
G1 X16.800 Y94.965 E131.15665
G1 X16.402 Y94.623 E131.18048
G1 X15.951 Y94.216 E131.20807
G1 X15.459 Y93.747 E131.23895
G1 X15.089 Y93.372 E131.26287
G1 X14.674 Y92.931 E131.29038
G1 X14.221 Y92.421 E131.32136
G1 X13.885 Y92.018 E131.34519
G1 X13.507 Y91.544 E131.37273
G1 X13.098 Y91.001 E131.40360
G1 X12.799 Y90.577 E131.42717
G1 X12.458 Y90.066 E131.45507
G1 X12.134 Y89.555 E131.48255
G1 X11.825 Y89.036 E131.50998
G1 X11.532 Y88.509 E131.53737
G1 X11.217 Y87.904 E131.56835
G1 X10.987 Y87.431 E131.59224
G1 X10.740 Y86.888 E131.61933
G1 X10.502 Y86.321 E131.64726
G1 X10.286 Y85.768 E131.67422
G1 X10.056 Y85.128 E131.70511
G1 X9.890 Y84.617 E131.72952
G1 X9.719 Y84.046 E131.75659
G1 X9.559 Y83.453 E131.78448
G1 X9.419 Y82.866 E131.81189
G1 X9.278 Y82.199 E131.84286
G1 X9.187 Y81.690 E131.86634
G1 X9.093 Y81.082 E131.89428
G1 X9.017 Y80.483 E131.92171
G1 X8.957 Y79.881 E131.94919
G1 X8.915 Y79.288 E131.97619
G1 X8.884 Y78.597 E132.00760
G1 X8.877 Y78.070 E132.03154
G1 X8.875 Y78.005 E132.03449
G1 X8.882 Y77.477 E132.05848
G1 X8.905 Y76.863 E132.08638
G1 X8.943 Y76.271 E132.11333
G1 X9.007 Y75.592 E132.14430
G1 X9.071 Y75.069 E132.16823
G1 X9.161 Y74.460 E132.19619
G1 X9.264 Y73.875 E132.22317
G1 X9.385 Y73.283 E132.25062
G1 X9.522 Y72.694 E132.27808
G1 X9.695 Y72.036 E132.30898
G1 X9.844 Y71.530 E132.33294
G1 X10.029 Y70.954 E132.36042
G1 X10.229 Y70.384 E132.38786
G1 X10.448 Y69.810 E132.41576
G1 X10.705 Y69.190 E132.44624
G1 X10.922 Y68.709 E132.47021
G1 X11.184 Y68.164 E132.49767
G1 X11.459 Y67.627 E132.52508
G1 X11.755 Y67.088 E132.55300
G1 X12.055 Y66.575 E132.58000
G1 X12.416 Y65.996 E132.61099
G1 X12.713 Y65.548 E132.63540
G1 X13.054 Y65.062 E132.66236
G1 X13.421 Y64.569 E132.69028
G1 X13.787 Y64.102 E132.71723
G1 X14.222 Y63.578 E132.74816
G1 X14.572 Y63.182 E132.77216
G1 X14.983 Y62.739 E132.79961
G1 X15.407 Y62.307 E132.82710
G1 X15.848 Y61.881 E132.85495
G1 X16.287 Y61.478 E132.88202
G1 X16.751 Y61.076 E132.90990
G1 X17.211 Y60.700 E132.93688
G1 X17.758 Y60.276 E132.96832
G1 X18.175 Y59.973 E132.99173
G1 X18.672 Y59.629 E133.01918
G1 X19.179 Y59.299 E133.04666
G1 X19.704 Y58.978 E133.07461
G1 X20.284 Y58.644 E133.10501
G1 X20.758 Y58.391 E133.12941
G1 X21.299 Y58.118 E133.15693
G1 X21.845 Y57.860 E133.18436
G1 X22.390 Y57.621 E133.21139
G1 X22.959 Y57.389 E133.23930
G1 X23.587 Y57.155 E133.26974
G1 X24.087 Y56.985 E133.29372
G1 X24.663 Y56.804 E133.32114
G1 X25.255 Y56.636 E133.34909
G1 X25.830 Y56.489 E133.37605
G1 X26.505 Y56.337 E133.40747
G1 X27.012 Y56.239 E133.43093
G0 F10500 X27.082 Y56.709
G0 X28.796 Y59.347
G0 X29.092 Y59.717
G1 F480 X28.683 Y60.046 E133.45477
G1 X28.343 Y60.420 E133.47773
G1 X28.062 Y60.839 E133.50064
G1 X27.848 Y61.295 E133.52352
G1 X27.711 Y61.744 E133.54484
G1 X27.635 Y62.248 E133.56799
G1 X27.624 Y62.507 E133.57976
G1 X27.662 Y63.006 E133.60249
G1 X27.782 Y63.516 E133.62629
G1 X27.861 Y63.742 E133.63716
G1 X28.093 Y64.214 E133.66105
G1 X28.380 Y64.628 E133.68393
G1 X28.705 Y64.976 E133.70556
G1 X29.094 Y65.286 E133.72815
G1 X29.345 Y65.442 E133.74157
G1 X29.795 Y65.653 E133.76414
G1 X30.250 Y65.792 E133.78575
G1 X30.741 Y65.866 E133.80830
G1 X31.001 Y65.875 E133.82012
G1 X31.289 Y65.863 E133.83321
G1 X31.747 Y65.792 E133.85426
G1 X32.030 Y65.714 E133.86760
G1 X32.467 Y65.541 E133.88894
G1 X32.918 Y65.277 E133.91268
G1 X33.111 Y65.135 E133.92356
G1 X33.489 Y64.780 E133.94711
G1 X33.644 Y64.600 E133.95790
G1 X33.925 Y64.188 E133.98055
G1 X34.143 Y63.734 E134.00343
G1 X34.290 Y63.257 E134.02610
G1 X34.366 Y62.753 E134.04925
G1 X34.375 Y62.498 E134.06084
G1 X34.363 Y62.211 E134.07388
G1 X34.285 Y61.726 E134.09619
G1 X34.140 Y61.259 E134.11840
G1 X33.909 Y60.788 E134.14223
G1 X33.639 Y60.394 E134.16392
G1 X33.274 Y60.005 E134.18815
G1 X32.876 Y59.694 E134.21109
G1 X32.443 Y59.450 E134.23367
G1 X32.200 Y59.346 E134.24567
G1 X31.757 Y59.211 E134.26670
G1 X31.253 Y59.135 E134.28985
G1 X31.000 Y59.125 E134.30135
G1 X30.740 Y59.135 E134.31317
G1 X30.248 Y59.210 E134.33578
G1 X29.739 Y59.370 E134.36001
G1 X29.293 Y59.589 E134.38258
G1 X29.092 Y59.717 E134.39340
G0 F10500 X28.796 Y59.347
G0 X27.560 Y60.556
G0 X27.049 Y62.516
G0 X27.597 Y64.505
G0 X29.070 Y65.947
G0 X30.014 Y68.201
G0 X30.044 Y68.675
G1 F480 X29.197 Y68.800 E134.43229
G1 X28.460 Y68.976 E134.46670
G1 X27.648 Y69.245 E134.50555
G1 X26.952 Y69.545 E134.53997
G1 X26.200 Y69.948 E134.57873
G1 X25.200 Y70.635 E134.63383
G1 X24.625 Y71.126 E134.66817
G1 X24.059 Y71.700 E134.70478
G1 X23.542 Y72.321 E134.74148
G1 X23.055 Y73.024 E134.78033
G1 X22.656 Y73.726 E134.81700
G1 X22.319 Y74.459 E134.85364
G1 X22.048 Y75.219 E134.89029
G1 X21.854 Y75.950 E134.92464
G1 X21.711 Y76.744 E134.96128
G1 X21.639 Y77.541 E134.99763
G1 X21.625 Y78.002 E135.01858
G1 X21.656 Y78.755 E135.05281
G1 X21.756 Y79.555 E135.08942
G1 X21.924 Y80.344 E135.12606
G1 X22.159 Y81.116 E135.16271
G1 X22.480 Y81.910 E135.20161
G1 X22.848 Y82.628 E135.23826
G1 X23.276 Y83.313 E135.27494
G1 X23.761 Y83.956 E135.31152
G1 X24.266 Y84.521 E135.34594
G1 X24.851 Y85.074 E135.38250
G1 X25.479 Y85.574 E135.41896
G1 X25.857 Y85.838 E135.43990
G1 X26.504 Y86.226 E135.47417
G1 X27.225 Y86.579 E135.51063
G1 X27.696 Y86.772 E135.53375
G1 X28.413 Y87.011 E135.56808
G1 X29.196 Y87.199 E135.60465
G1 X29.945 Y87.313 E135.63906
G1 X30.798 Y87.372 E135.67789
G1 X31.605 Y87.356 E135.71455
G1 X32.407 Y87.269 E135.75119
G1 X33.199 Y87.114 E135.78785
G1 X33.974 Y86.891 E135.82448
G1 X34.727 Y86.602 E135.86111
G1 X35.453 Y86.250 E135.89775
G1 X36.146 Y85.837 E135.93439
G1 X36.761 Y85.396 E135.96877
G1 X37.412 Y84.840 E136.00765
G1 X37.976 Y84.263 E136.04430
G1 X38.490 Y83.640 E136.08098
G1 X38.946 Y82.975 E136.11760
G1 X39.345 Y82.274 E136.15424
G1 X39.682 Y81.541 E136.19088
G1 X39.937 Y80.828 E136.22527
G1 X40.160 Y80.002 E136.26413
G1 X40.298 Y79.206 E136.30082
G1 X40.367 Y78.407 E136.33725
G1 X40.375 Y77.996 E136.35592
G1 X40.341 Y77.195 E136.39233
G1 X40.237 Y76.395 E136.42897
G1 X40.065 Y75.606 E136.46565
G1 X39.826 Y74.840 E136.50209
G1 X39.661 Y74.411 E136.52297
G1 X39.367 Y73.770 E136.55500
G1 X38.947 Y73.026 E136.59380
G1 X38.520 Y72.401 E136.62818
G1 X38.012 Y71.778 E136.66469
G1 X37.664 Y71.407 E136.68780
G1 X37.112 Y70.891 E136.72212
G1 X36.522 Y70.426 E136.75624
G1 X36.144 Y70.162 E136.77718
G1 X35.453 Y69.750 E136.81372
G1 X34.727 Y69.398 E136.85036
G1 X33.974 Y69.109 E136.88699
G1 X33.199 Y68.886 E136.92362
G1 X32.407 Y68.731 E136.96028
G1 X31.655 Y68.650 E136.99463
G1 X30.800 Y68.628 E137.03347
G1 X30.044 Y68.675 E137.06788
G0 F10500 X30.014 Y68.201
G0 X26.703 Y69.027
G0 X23.633 Y71.314
G0 X21.787 Y74.243
G0 X21.050 Y78.005
G0 X21.617 Y81.307
G0 X23.317 Y84.322
G0 X26.230 Y86.731
G0 X29.883 Y87.884
G0 X31.015 Y89.651
G0 X31.000 Y90.125
G1 F480 X30.741 Y90.134 E137.07965
G1 X30.248 Y90.209 E137.10230
G1 X29.739 Y90.369 E137.12653
G1 X29.293 Y90.588 E137.14910
G1 X29.092 Y90.716 E137.15992
G1 X28.683 Y91.045 E137.18376
G1 X28.343 Y91.419 E137.20672
G1 X28.062 Y91.839 E137.22967
G1 X27.848 Y92.294 E137.25251
G1 X27.711 Y92.743 E137.27383
G1 X27.635 Y93.247 E137.29698
G1 X27.624 Y93.507 E137.30880
G1 X27.662 Y94.005 E137.33148
G1 X27.782 Y94.515 E137.35528
G1 X27.861 Y94.741 E137.36615
G1 X28.093 Y95.214 E137.39008
G1 X28.380 Y95.627 E137.41292
G1 X28.705 Y95.975 E137.43455
G1 X29.094 Y96.285 E137.45714
G1 X29.345 Y96.441 E137.47056
G1 X29.795 Y96.652 E137.49314
G1 X30.250 Y96.791 E137.51474
G1 X30.740 Y96.865 E137.53725
G1 X31.007 Y96.876 E137.54939
G1 X31.506 Y96.838 E137.57212
G1 X32.024 Y96.716 E137.59629
G1 X32.467 Y96.540 E137.61794
G1 X32.918 Y96.276 E137.64167
G1 X33.111 Y96.134 E137.65256
G1 X33.489 Y95.779 E137.67611
G1 X33.644 Y95.599 E137.68690
G1 X33.925 Y95.188 E137.70951
G1 X34.143 Y94.733 E137.73243
G1 X34.290 Y94.256 E137.75510
G1 X34.366 Y93.752 E137.77825
G1 X34.375 Y93.499 E137.78975
G1 X34.363 Y93.210 E137.80288
G1 X34.285 Y92.725 E137.82519
G1 X34.140 Y92.258 E137.84740
G1 X33.909 Y91.788 E137.87119
G1 X33.639 Y91.393 E137.89292
G1 X33.274 Y91.004 E137.91715
G1 X32.876 Y90.693 E137.94009
G1 X32.443 Y90.449 E137.96266
G1 X32.200 Y90.345 E137.97467
G1 X31.757 Y90.210 E137.99570
G1 X31.253 Y90.134 E138.01885
G1 X31.000 Y90.125 E138.03035
G0 F10500 X30.994 Y89.861
;TYPE:SKIN
G1 F480 X28.414 Y87.281 E138.19607
G0 F10500 X29.740 Y87.546
G1 F480 X32.290 Y90.096 E138.35986
G0 F10500 X32.349 Y89.895
G0 X30.688 Y89.561
G0 X30.001 Y89.788
G0 X30.064 Y89.991
G1 F480 X26.674 Y86.601 E138.57761
G0 F10500 X26.580 Y86.791
G0 X29.086 Y87.764
G0 X30.891 Y87.846
G0 X30.887 Y87.632
G1 F480 X40.794 Y97.539 E139.21395
G0 F10500 X41.490 Y97.175
G1 F480 X31.903 Y87.588 E139.82974
G0 F10500 X32.830 Y87.454
G1 F480 X42.166 Y96.790 E140.42941
G0 F10500 X42.822 Y96.385
G1 F480 X33.684 Y87.247 E141.01636
G0 F10500 X34.476 Y86.979
G1 F480 X43.458 Y95.960 E141.59326
G0 F10500 X44.076 Y95.518
G1 F480 X35.214 Y86.656 E142.16248
G0 F10500 X35.905 Y86.286
G1 F480 X44.673 Y95.054 E142.72567
G0 F10500 X45.252 Y94.572
G1 F480 X36.550 Y85.871 E143.28458
G0 F10500 X37.149 Y85.409
G1 F480 X45.813 Y94.073 E143.84108
G0 F10500 X46.355 Y93.555
G1 F480 X37.710 Y84.910 E144.39637
G0 F10500 X38.229 Y84.368
G1 F480 X46.881 Y93.020 E144.95210
G0 F10500 X47.386 Y92.464
G1 F480 X38.708 Y83.786 E145.50951
G0 F10500 X39.139 Y83.157
G1 F480 X47.875 Y91.892 E146.07060
G0 F10500 X48.346 Y91.303
G1 F480 X39.527 Y82.484 E146.63706
G0 F10500 X39.868 Y81.764
G1 F480 X48.796 Y90.692 E147.21053
G0 F10500 X49.228 Y90.064
G1 F480 X40.157 Y80.992 E147.79320
G0 F10500 X40.388 Y80.163
G1 F480 X49.642 Y89.417 E148.38761
G0 F10500 X50.035 Y88.749
G1 F480 X40.553 Y79.267 E148.99665
G0 F10500 X40.631 Y78.285
G1 F480 X50.407 Y88.060 E149.62455
G0 F10500 X50.759 Y87.352
G1 F480 X40.603 Y77.196 E150.27689
G0 F10500 X40.407 Y75.939
G1 F480 X51.090 Y86.622 E150.96308
G0 F10500 X51.395 Y85.866
G1 F480 X39.944 Y74.415 E151.69860
G0 F10500 X40.142 Y74.339
G0 X39.434 Y72.722
G0 X38.445 Y71.559
G0 X38.281 Y71.692
G1 F480 X51.679 Y85.090 E152.55918
G0 F10500 X51.936 Y84.286
G1 F480 X33.111 Y65.461 E153.76834
G0 F10500 X33.675 Y64.964
G1 F480 X52.169 Y83.459 E154.95628
G0 F10500 X52.371 Y82.600
G1 F480 X34.127 Y64.356 E156.12812
G0 F10500 X34.452 Y63.620
G1 F480 X52.544 Y81.712 E157.29020
G0 F10500 X52.681 Y80.789
G1 F480 X34.629 Y62.736 E158.44975
G0 F10500 X34.506 Y61.553
G1 F480 X52.786 Y79.833 E159.62391
G0 F10500 X52.844 Y78.831
G1 F480 X30.170 Y56.156 E161.08033
G0 F10500 X29.172 Y56.219
G1 F480 X31.944 Y58.991 E161.25838
G0 F10500 X30.762 Y58.870
G1 F480 X28.210 Y56.318 E161.42230
G0 F10500 X27.290 Y56.458
G1 F480 X29.880 Y59.049 E161.58869
G0 F10500 X29.143 Y59.372
G1 F480 X26.400 Y56.629 E161.76488
G0 F10500 X25.544 Y56.833
G1 F480 X28.536 Y59.825 E161.95706
G0 F10500 X28.043 Y60.393
G1 F480 X24.713 Y57.063 E162.17096
G0 F10500 X23.911 Y57.322
G1 F480 X27.661 Y61.072 E162.41183
G0 F10500 X27.423 Y61.894
G1 F480 X23.132 Y57.604 E162.68741
G0 F10500 X22.380 Y57.912
G1 F480 X27.392 Y62.924 E163.00934
G0 F10500 X27.182 Y62.940
G0 X27.597 Y64.505
G0 X27.944 Y64.832
G0 X28.118 Y64.711
G1 F480 X21.650 Y58.242 E163.42483
G0 F10500 X20.940 Y58.593
G1 F480 X30.716 Y68.369 E164.05276
G0 F10500 X29.739 Y68.453
G1 F480 X20.252 Y58.966 E164.66212
G0 F10500 X20.356 Y59.149
G0 X31.224 Y56.353
G0 X31.215 Y56.140
G1 F480 X52.859 Y77.784 E166.05236
G0 F10500 X52.820 Y76.685
G1 F480 X32.314 Y56.179 E167.36950
G0 F10500 X33.475 Y56.280
G1 F480 X52.720 Y75.524 E168.60561
G0 F10500 X52.542 Y74.285
G1 F480 X34.712 Y56.456 E169.75083
G0 F10500 X36.047 Y56.730
G1 F480 X52.269 Y72.952 E170.79280
G0 F10500 X52.063 Y72.999
G0 X51.668 Y71.558
G0 X51.870 Y71.492
G1 F480 X37.510 Y57.132 E171.71517
G0 F10500 X37.447 Y57.335
G0 X39.079 Y57.916
G0 X39.158 Y57.719
G1 F480 X51.284 Y69.845 E172.49404
G0 F10500 X51.086 Y69.921
G0 X50.184 Y67.970
G0 X50.372 Y67.873
G1 F480 X41.123 Y58.624 E173.08812
G0 F10500 X41.023 Y58.812
G0 X43.815 Y60.553
G0 X43.940 Y60.380
G1 F480 X48.624 Y65.064 E173.38898
G0 F10500 X48.454 Y65.192
G0 X37.397 Y70.511
G0 X37.265 Y70.676
G1 F480 X32.428 Y65.839 E173.69967
G0 F10500 X31.607 Y66.079
G1 F480 X34.595 Y69.066 E173.89157
G0 F10500 X34.671 Y68.868
G0 X33.098 Y68.383
G0 X33.057 Y68.589
G1 F480 X30.573 Y66.105 E174.05112
G0 F10500 X30.540 Y66.315
G0 X29.070 Y65.947
G0 X28.635 Y65.527
G0 X28.769 Y65.362
G1 F480 X31.807 Y68.400 E174.24625
G0 F10500 X31.829 Y68.191
G0 X29.985 Y68.103
G0 X28.791 Y68.409
G0 X28.839 Y68.614
G1 F480 X19.584 Y59.359 E174.84072
G0 F10500 X18.935 Y59.771
G1 F480 X28.011 Y68.846 E175.42366
G0 F10500 X27.237 Y69.133
G1 F480 X18.306 Y60.202 E175.99731
G0 F10500 X17.698 Y60.654
G1 F480 X26.520 Y69.476 E176.56396
G0 F10500 X25.849 Y69.867
G1 F480 X17.107 Y61.124 E177.12551
G0 F10500 X16.533 Y61.611
G1 F480 X25.221 Y70.299 E177.68356
G0 F10500 X24.632 Y70.771
G1 F480 X15.979 Y62.118 E178.23935
G0 F10500 X15.444 Y62.644
G1 F480 X24.092 Y71.291 E178.79480
G0 F10500 X23.591 Y71.851
G1 F480 X14.926 Y63.186 E179.35137
G0 F10500 X14.423 Y63.744
G1 F480 X23.131 Y72.452 E179.91070
G0 F10500 X22.712 Y73.093
G1 F480 X13.944 Y64.325 E180.47388
G0 F10500 X13.483 Y64.925
G1 F480 X22.341 Y73.783 E181.04285
G0 F10500 X22.017 Y74.520
G1 F480 X13.038 Y65.541 E181.61959
G0 F10500 X12.612 Y66.176
G1 F480 X21.751 Y75.314 E182.20657
G0 F10500 X21.546 Y76.170
G1 F480 X12.208 Y66.832 E182.80637
G0 F10500 X11.823 Y67.508
G1 F480 X21.416 Y77.100 E183.42251
G0 F10500 X21.366 Y78.111
G1 F480 X11.458 Y68.203 E184.05892
G0 F10500 X11.113 Y68.919
G1 F480 X21.455 Y79.261 E184.72321
G0 F10500 X21.724 Y80.591
G1 F480 X10.793 Y69.660 E185.42532
G0 F10500 X10.495 Y70.422
G1 F480 X22.398 Y82.325 E186.18988
G0 F10500 X22.208 Y82.421
G0 X23.854 Y84.921
G0 X28.538 Y90.553
G0 X28.668 Y90.717
G1 F480 X9.973 Y72.021 E187.39072
G0 F10500 X10.222 Y71.210
G1 F480 X29.302 Y90.290 E188.61627
G0 F10500 X29.210 Y90.101
G0 X27.984 Y91.108
G0 X28.140 Y91.250
G1 F480 X9.752 Y72.861 E189.79739
G0 F10500 X9.561 Y73.731
G1 F480 X27.738 Y91.908 E190.96493
G0 F10500 X27.454 Y92.684
G1 F480 X9.400 Y74.630 E192.12458
G0 F10500 X9.275 Y75.566
G1 F480 X27.372 Y93.664 E193.28701
G0 F10500 X27.742 Y95.094
G1 F480 X9.188 Y76.540 E194.47877
G0 F10500 X9.143 Y77.556
G1 F480 X31.440 Y99.853 E195.91095
G0 F10500 X32.457 Y99.809
G1 F480 X29.410 Y96.762 E196.10666
G0 F10500 X30.840 Y97.131
G1 F480 X33.429 Y99.720 E196.27296
G0 F10500 X34.367 Y99.598
G1 F480 X31.806 Y97.036 E196.43749
G0 F10500 X32.597 Y96.767
G1 F480 X35.266 Y99.436 E196.60892
G0 F10500 X36.138 Y99.247
G1 F480 X33.249 Y96.358 E196.79449
G0 F10500 X33.786 Y95.835
G1 F480 X36.975 Y99.023 E196.99929
G0 F10500 X37.789 Y98.777
G1 F480 X34.210 Y95.198 E197.22918
G0 F10500 X34.508 Y94.436
G1 F480 X38.575 Y98.502 E197.49038
G0 F10500 X39.338 Y98.205
G1 F480 X34.637 Y93.504 E197.79233
G0 F10500 X34.397 Y92.203
G1 F480 X40.078 Y97.884 E198.15723
G0 F10500 X39.990 Y97.694
G0 X30.380 Y99.639
G0 X30.375 Y99.849
G1 F480 X9.148 Y78.621 E199.52071
G0 F10500 X9.210 Y79.743
G1 F480 X29.254 Y99.788 E200.80821
G0 F10500 X28.064 Y99.658
G1 F480 X9.338 Y80.933 E202.01098
G0 F10500 X9.548 Y82.203
G1 F480 X26.795 Y99.450 E203.11879
G0 F10500 X25.416 Y99.132
G1 F480 X9.864 Y83.580 E204.11772
G0 F10500 X10.070 Y83.525
G0 X10.526 Y85.032
G0 X10.327 Y85.103
G1 F480 X23.893 Y98.669 E204.98909
G0 F10500 X23.960 Y98.471
G0 X22.233 Y97.794
G0 X22.150 Y97.987
G1 F480 X11.009 Y86.846 E205.70470
G0 F10500 X11.204 Y86.758
G0 X12.303 Y88.909
G0 X12.120 Y89.018
G1 F480 X19.984 Y96.882 E206.20982
G0 F10500 X20.630 Y95.739
G1 F240 E204.20982
G1 Z0.500
G0 F10500 X58.719 Y84.046
;TYPE:WALL-OUTER
G1 Z0.400
G1 F240 E206.20982
G1 F480 X58.559 Y83.453 E206.23771
G1 X58.419 Y82.866 E206.26512
G1 X58.278 Y82.199 E206.29609
G1 X58.187 Y81.690 E206.31957
G1 X58.093 Y81.082 E206.34751
G1 X58.017 Y80.483 E206.37494
G1 X57.957 Y79.881 E206.40241
G1 X57.915 Y79.288 E206.42942
G1 X57.884 Y78.597 E206.46083
G1 X57.877 Y78.070 E206.48477
G1 X57.875 Y78.005 E206.48772
G1 X57.882 Y77.477 E206.51171
G1 X57.905 Y76.863 E206.53961
G1 X57.943 Y76.271 E206.56656
G1 X58.007 Y75.592 E206.59753
G1 X58.071 Y75.069 E206.62146
G1 X58.161 Y74.460 E206.64942
G1 X58.264 Y73.875 E206.67640
G1 X58.385 Y73.283 E206.70385
G1 X58.522 Y72.694 E206.73131
G1 X58.695 Y72.036 E206.76221
G1 X58.844 Y71.530 E206.78617
G1 X59.029 Y70.954 E206.81365
G1 X59.229 Y70.384 E206.84108
G1 X59.448 Y69.810 E206.86899
G1 X59.705 Y69.190 E206.89947
G1 X59.922 Y68.709 E206.92344
G1 X60.184 Y68.164 E206.95090
G1 X60.459 Y67.627 E206.97830
G1 X60.755 Y67.088 E207.00623
G1 X61.055 Y66.575 E207.03322
G1 X61.416 Y65.996 E207.06422
G1 X61.713 Y65.548 E207.08863
G1 X62.054 Y65.062 E207.11559
G1 X62.421 Y64.569 E207.14351
G1 X62.787 Y64.102 E207.17046
G1 X63.222 Y63.578 E207.20139
G1 X63.572 Y63.182 E207.22539
G1 X63.983 Y62.739 E207.25284
G1 X64.407 Y62.307 E207.28033
G1 X64.848 Y61.881 E207.30818
G1 X65.287 Y61.478 E207.33525
G1 X65.751 Y61.076 E207.36313
G1 X66.211 Y60.700 E207.39011
G1 X66.758 Y60.276 E207.42155
G1 X67.175 Y59.973 E207.44496
G1 X67.672 Y59.629 E207.47241
G1 X68.179 Y59.299 E207.49989
G1 X68.704 Y58.978 E207.52784
G1 X69.284 Y58.644 E207.55823
G1 X69.758 Y58.391 E207.58264
G1 X70.299 Y58.118 E207.61016
G1 X70.845 Y57.860 E207.63759
G1 X71.390 Y57.621 E207.66462
G1 X71.959 Y57.389 E207.69253
G1 X72.587 Y57.155 E207.72296
G1 X73.087 Y56.985 E207.74695
G1 X73.663 Y56.804 E207.77437
G1 X74.255 Y56.636 E207.80232
G1 X74.830 Y56.489 E207.82928
G1 X75.505 Y56.337 E207.86070
G1 X76.012 Y56.239 E207.88416
G1 X76.619 Y56.137 E207.91211
G1 X77.207 Y56.054 E207.93908
G1 X77.812 Y55.986 E207.96674
G1 X78.497 Y55.927 E207.99796
G1 X79.014 Y55.898 E208.02148
G1 X79.628 Y55.880 E208.04938
G1 X80.222 Y55.878 E208.07636
G1 X80.825 Y55.892 E208.10375
G1 X81.439 Y55.923 E208.13168
G1 X82.115 Y55.977 E208.16248
G1 X82.632 Y56.033 E208.18610
G1 X83.241 Y56.115 E208.21401
G1 X83.834 Y56.210 E208.24128
G1 X84.496 Y56.337 E208.27190
G1 X85.011 Y56.451 E208.29585
G1 X85.682 Y56.618 E208.32726
G1 X86.190 Y56.760 E208.35122
G1 X86.831 Y56.957 E208.38167
G1 X87.340 Y57.130 E208.40609
G1 X87.909 Y57.338 E208.43361
G1 X88.532 Y57.587 E208.46408
G1 X89.016 Y57.797 E208.48804
G1 X89.634 Y58.084 E208.51899
G1 X90.115 Y58.324 E208.54341
G1 X90.640 Y58.602 E208.57039
G1 X91.241 Y58.944 E208.60179
G1 X91.684 Y59.214 E208.62536
G1 X92.266 Y59.587 E208.65675
G1 X92.692 Y59.879 E208.68021
G1 X93.181 Y60.232 E208.70760
G1 X93.722 Y60.646 E208.73854
G1 X94.139 Y60.985 E208.76295
G1 X94.650 Y61.420 E208.79343
G1 X95.041 Y61.776 E208.81745
G1 X95.533 Y62.245 E208.84832
G1 X95.905 Y62.622 E208.87238
G1 X96.326 Y63.069 E208.90027
G1 X96.771 Y63.570 E208.93070
G1 X97.110 Y63.976 E208.95472
G1 X97.534 Y64.508 E208.98562
G1 X97.850 Y64.930 E209.00957
G1 X98.200 Y65.423 E209.03703
G1 X98.585 Y65.998 E209.06846
G1 X98.860 Y66.435 E209.09191
G1 X99.208 Y67.021 E209.12286
G1 X99.463 Y67.482 E209.14679
G1 X99.743 Y68.019 E209.17430
G1 X100.042 Y68.630 E209.20519
G1 X100.259 Y69.112 E209.22920
G1 X100.528 Y69.750 E209.26065
G1 X100.714 Y70.232 E209.28411
G1 X100.922 Y70.810 E209.31201
G1 X101.131 Y71.447 E209.34246
G1 X101.281 Y71.954 E209.36648
G1 X101.458 Y72.610 E209.39734
G1 X101.579 Y73.124 E209.42132
G1 X101.720 Y73.790 E209.45224
G1 X101.813 Y74.310 E209.47623
G1 X101.907 Y74.918 E209.50417
G1 X101.992 Y75.583 E209.53462
G1 X102.042 Y76.109 E209.55862
G1 X102.091 Y76.787 E209.58950
G1 X102.112 Y77.316 E209.61354
G1 X102.123 Y77.931 E209.64148
G1 X102.125 Y77.995 E209.64439
G1 X102.116 Y78.599 E209.67182
G1 X102.095 Y79.136 E209.69623
G1 X102.051 Y79.805 E209.72668
G1 X102.001 Y80.331 E209.75068
G1 X101.919 Y81.007 E209.78161
G1 X101.829 Y81.605 E209.80907
G1 X101.722 Y82.200 E209.83653
G1 X101.615 Y82.717 E209.86051
G1 X101.461 Y83.380 E209.89142
G1 X101.306 Y83.964 E209.91887
G1 X101.156 Y84.470 E209.94284
G1 X100.948 Y85.118 E209.97375
G1 X100.745 Y85.688 E210.00123
G1 X100.524 Y86.261 E210.02912
G1 X100.325 Y86.740 E210.05268
G1 X100.047 Y87.360 E210.08354
G1 X99.783 Y87.905 E210.11105
G1 X99.506 Y88.441 E210.13845
G1 X99.213 Y88.970 E210.16592
G1 X98.901 Y89.499 E210.19381
G1 X98.625 Y89.939 E210.21740
G1 X98.293 Y90.443 E210.24481
G1 X97.901 Y91.001 E210.27578
G1 X97.580 Y91.430 E210.30012
G1 X97.212 Y91.899 E210.32720
G1 X96.827 Y92.363 E210.35458
G1 X96.370 Y92.883 E210.38602
G1 X96.017 Y93.261 E210.40951
G1 X95.593 Y93.693 E210.43701
G1 X95.096 Y94.173 E210.46839
G1 X94.713 Y94.522 E210.49192
G1 X94.249 Y94.924 E210.51981
G1 X93.789 Y95.300 E210.54679
G1 X93.242 Y95.724 E210.57822
G1 X92.825 Y96.027 E210.60163
G1 X92.265 Y96.414 E210.63255
G1 X91.821 Y96.700 E210.65654
G1 X91.296 Y97.022 E210.68451
G1 X90.782 Y97.318 E210.71145
G1 X90.250 Y97.605 E210.73891
G1 X89.701 Y97.882 E210.76683
G1 X89.096 Y98.168 E210.79723
G1 X88.610 Y98.379 E210.82129
G1 X88.041 Y98.611 E210.84920
G1 X87.485 Y98.819 E210.87616
G1 X86.830 Y99.043 E210.90760
G1 X86.337 Y99.196 E210.93105
G1 X85.745 Y99.364 E210.95900
G1 X85.170 Y99.511 E210.98596
G1 X84.579 Y99.644 E211.01347
G1 X83.902 Y99.778 E211.04481
G1 X83.382 Y99.863 E211.06875
G1 X82.793 Y99.946 E211.09576
G1 X82.188 Y100.014 E211.12341
G1 X81.580 Y100.066 E211.15113
G1 X80.986 Y100.101 E211.17815
G1 X80.372 Y100.120 E211.20605
G1 X79.702 Y100.122 E211.23648
G1 X79.175 Y100.108 E211.26043
G1 X78.561 Y100.077 E211.28835
G1 X77.964 Y100.030 E211.31555
G1 X77.368 Y99.967 E211.34277
G1 X76.683 Y99.874 E211.37417
G1 X76.163 Y99.789 E211.39810
G1 X75.576 Y99.677 E211.42524
G1 X74.988 Y99.549 E211.45257
G1 X74.392 Y99.401 E211.48046
G1 X73.819 Y99.243 E211.50746
G1 X73.232 Y99.062 E211.53536
G1 X72.596 Y98.848 E211.56584
G1 X72.092 Y98.662 E211.59024
G1 X71.530 Y98.438 E211.61772
G1 X70.984 Y98.203 E211.64471
G1 X70.436 Y97.949 E211.67215
G1 X69.825 Y97.646 E211.70312
G1 X69.352 Y97.393 E211.72749
G1 X68.835 Y97.100 E211.75448
G1 X68.242 Y96.741 E211.78596
G1 X67.808 Y96.461 E211.80942
G1 X67.300 Y96.115 E211.83734
G1 X66.757 Y95.723 E211.86775
G1 X66.338 Y95.400 E211.89178
G1 X65.800 Y94.965 E211.92320
G1 X65.402 Y94.623 E211.94704
G1 X64.951 Y94.216 E211.97463
G1 X64.459 Y93.747 E212.00550
G1 X64.089 Y93.372 E212.02943
G1 X63.674 Y92.931 E212.05693
G1 X63.221 Y92.421 E212.08791
G1 X62.885 Y92.018 E212.11175
G1 X62.507 Y91.544 E212.13928
G1 X62.098 Y91.001 E212.17016
G1 X61.799 Y90.577 E212.19372
G1 X61.458 Y90.066 E212.22162
G1 X61.134 Y89.555 E212.24911
G1 X60.825 Y89.036 E212.27654
G1 X60.532 Y88.509 E212.30393
G1 X60.217 Y87.904 E212.33491
G1 X59.987 Y87.431 E212.35879
G1 X59.740 Y86.888 E212.38589
G1 X59.502 Y86.321 E212.41382
G1 X59.286 Y85.768 E212.44078
G1 X59.056 Y85.128 E212.47167
G1 X58.890 Y84.617 E212.49607
G1 X58.719 Y84.046 E212.52314
G0 F10500 X59.174 Y83.911
G0 X70.469 Y80.482
G0 X70.924 Y80.344
G1 F480 X71.159 Y81.116 E212.55980
G1 X71.480 Y81.910 E212.59869
G1 X71.848 Y82.628 E212.63534
G1 X72.276 Y83.313 E212.67202
G1 X72.761 Y83.956 E212.70860
G1 X73.266 Y84.521 E212.74302
G1 X73.851 Y85.074 E212.77958
G1 X74.479 Y85.574 E212.81604
G1 X74.857 Y85.838 E212.83699
G1 X75.504 Y86.226 E212.87125
G1 X76.225 Y86.579 E212.90771
G1 X76.696 Y86.772 E212.93083
G1 X77.413 Y87.011 E212.96516
G1 X78.196 Y87.199 E213.00173
G1 X78.945 Y87.313 E213.03614
G1 X79.798 Y87.372 E213.07498
G1 X80.604 Y87.356 E213.11159
G1 X81.406 Y87.269 E213.14823
G1 X82.198 Y87.114 E213.18488
G1 X82.973 Y86.891 E213.22151
G1 X83.726 Y86.602 E213.25814
G1 X84.452 Y86.250 E213.29479
G1 X85.145 Y85.837 E213.33143
G1 X85.760 Y85.396 E213.36580
G1 X86.411 Y84.840 E213.40469
G1 X86.975 Y84.263 E213.44133
G1 X87.489 Y83.640 E213.47802
G1 X87.945 Y82.975 E213.51464
G1 X88.344 Y82.274 E213.55127
G1 X88.681 Y81.541 E213.58791
G1 X88.936 Y80.828 E213.62231
G1 X89.159 Y80.002 E213.66117
G1 X89.297 Y79.206 E213.69786
G1 X89.366 Y78.407 E213.73428
G1 X89.375 Y77.996 E213.75296
G1 X89.340 Y77.194 E213.78942
G1 X89.236 Y76.395 E213.82601
G1 X89.064 Y75.606 E213.86269
G1 X88.825 Y74.840 E213.89913
G1 X88.660 Y74.411 E213.92001
G1 X88.366 Y73.770 E213.95204
G1 X87.946 Y73.026 E213.99084
G1 X87.519 Y72.401 E214.02522
G1 X87.011 Y71.778 E214.06173
G1 X86.663 Y71.407 E214.08484
G1 X86.111 Y70.891 E214.11916
G1 X85.521 Y70.426 E214.15327
G1 X85.143 Y70.162 E214.17422
G1 X84.452 Y69.750 E214.21076
G1 X83.726 Y69.398 E214.24740
G1 X82.973 Y69.109 E214.28403
G1 X82.198 Y68.886 E214.32066
G1 X81.406 Y68.731 E214.35731
G1 X80.654 Y68.650 E214.39167
G1 X79.800 Y68.628 E214.43047
G1 X79.044 Y68.675 E214.46487
G1 X78.197 Y68.800 E214.50376
G1 X77.460 Y68.976 E214.53817
G1 X76.648 Y69.245 E214.57702
G1 X75.952 Y69.545 E214.61145
G1 X75.200 Y69.948 E214.65020
G1 X74.200 Y70.635 E214.70530
G1 X73.625 Y71.126 E214.73964
G1 X73.059 Y71.700 E214.77626
G1 X72.542 Y72.321 E214.81296
G1 X72.055 Y73.024 E214.85180
G1 X71.656 Y73.726 E214.88847
G1 X71.319 Y74.459 E214.92511
G1 X71.048 Y75.219 E214.96176
G1 X70.854 Y75.950 E214.99611
G1 X70.711 Y76.744 E215.03275
G1 X70.639 Y77.541 E215.06910
G1 X70.625 Y78.002 E215.09005
G1 X70.656 Y78.755 E215.12428
G1 X70.756 Y79.555 E215.16090
G1 X70.924 Y80.344 E215.19753
G0 F10500 X70.469 Y80.482
G0 X71.802 Y83.638
G0 X74.545 Y86.320
G0 X77.796 Y90.346
G0 X78.092 Y90.716
G1 F480 X77.683 Y91.045 E215.22137
G1 X77.343 Y91.419 E215.24433
G1 X77.062 Y91.839 E215.26728
G1 X76.848 Y92.294 E215.29012
G1 X76.711 Y92.743 E215.31144
G1 X76.635 Y93.247 E215.33459
G1 X76.624 Y93.507 E215.34641
G1 X76.662 Y94.005 E215.36909
G1 X76.782 Y94.515 E215.39289
G1 X76.861 Y94.741 E215.40376
G1 X77.093 Y95.214 E215.42769
G1 X77.380 Y95.627 E215.45054
G1 X77.705 Y95.975 E215.47216
G1 X78.094 Y96.285 E215.49475
G1 X78.345 Y96.441 E215.50818
G1 X78.795 Y96.652 E215.53075
G1 X79.250 Y96.791 E215.55236
G1 X79.740 Y96.865 E215.57487
G1 X80.007 Y96.876 E215.58700
G1 X80.505 Y96.838 E215.60969
G1 X81.023 Y96.716 E215.63386
G1 X81.466 Y96.540 E215.65551
G1 X81.917 Y96.276 E215.67924
G1 X82.110 Y96.134 E215.69013
G1 X82.488 Y95.779 E215.71368
G1 X82.643 Y95.599 E215.72447
G1 X82.924 Y95.188 E215.74708
G1 X83.142 Y94.733 E215.77000
G1 X83.289 Y94.256 E215.79267
G1 X83.365 Y93.752 E215.81582
G1 X83.376 Y93.492 E215.82764
G1 X83.332 Y92.966 E215.85161
G1 X83.217 Y92.483 E215.87416
G1 X83.139 Y92.258 E215.88498
G1 X82.908 Y91.788 E215.90876
G1 X82.638 Y91.393 E215.93049
G1 X82.273 Y91.004 E215.95472
G1 X81.875 Y90.693 E215.97766
G1 X81.442 Y90.449 E216.00023
G1 X81.199 Y90.345 E216.01224
G1 X80.756 Y90.210 E216.03327
G1 X80.252 Y90.134 E216.05642
G1 X80.000 Y90.125 E216.06788
G1 X79.741 Y90.134 E216.07965
G1 X79.248 Y90.209 E216.10230
G1 X78.739 Y90.369 E216.12653
G1 X78.293 Y90.588 E216.14910
G1 X78.092 Y90.716 E216.15992
G0 F10500 X77.796 Y90.346
G0 X71.348 Y82.912
G0 X70.189 Y79.651
G0 X70.292 Y75.825
G0 X71.569 Y72.718
G0 X73.845 Y70.183
G0 X77.304 Y68.423
G0 X79.724 Y66.340
G0 X79.741 Y65.866
G1 F480 X80.002 Y65.875 E216.17178
G1 X80.288 Y65.863 E216.18478
G1 X80.746 Y65.792 E216.20583
G1 X81.029 Y65.714 E216.21917
G1 X81.466 Y65.541 E216.24051
G1 X81.917 Y65.277 E216.26425
G1 X82.110 Y65.135 E216.27513
G1 X82.488 Y64.780 E216.29868
G1 X82.643 Y64.600 E216.30947
G1 X82.924 Y64.188 E216.33212
G1 X83.142 Y63.734 E216.35500
G1 X83.289 Y63.257 E216.37767
G1 X83.365 Y62.753 E216.40082
G1 X83.376 Y62.492 E216.41268
G1 X83.332 Y61.967 E216.43661
G1 X83.217 Y61.484 E216.45916
G1 X83.139 Y61.259 E216.46998
G1 X82.908 Y60.788 E216.49380
G1 X82.638 Y60.394 E216.51550
G1 X82.273 Y60.005 E216.53972
G1 X81.875 Y59.694 E216.56266
G1 X81.442 Y59.450 E216.58524
G1 X81.199 Y59.346 E216.59724
G1 X80.756 Y59.211 E216.61828
G1 X80.252 Y59.135 E216.64143
G1 X80.000 Y59.125 E216.65288
G1 X79.740 Y59.135 E216.66470
G1 X79.248 Y59.210 E216.68730
G1 X78.739 Y59.370 E216.71154
G1 X78.293 Y59.589 E216.73410
G1 X78.092 Y59.717 E216.74493
G1 X77.683 Y60.046 E216.76877
G1 X77.343 Y60.420 E216.79172
G1 X77.062 Y60.839 E216.81464
G1 X76.848 Y61.295 E216.83752
G1 X76.711 Y61.744 E216.85884
G1 X76.635 Y62.248 E216.88199
G1 X76.624 Y62.507 E216.89376
G1 X76.662 Y63.006 E216.91649
G1 X76.782 Y63.516 E216.94029
G1 X76.861 Y63.742 E216.95116
G1 X77.093 Y64.214 E216.97505
G1 X77.380 Y64.628 E216.99793
G1 X77.705 Y64.976 E217.01955
G1 X78.094 Y65.286 E217.04215
G1 X78.345 Y65.442 E217.05557
G1 X78.795 Y65.653 E217.07814
G1 X79.250 Y65.792 E217.09975
G1 X79.741 Y65.866 E217.12230
G0 F10500 X79.328 Y66.069
;TYPE:SKIN
G1 F480 X81.798 Y68.539 E217.28096
G0 F10500 X80.583 Y68.385
G1 F480 X70.507 Y58.310 E217.92812
G0 F10500 X69.802 Y58.665
G1 F480 X79.519 Y68.382 E218.55227
G0 F10500 X78.556 Y68.480
G1 F480 X69.118 Y59.042 E219.15849
G0 F10500 X68.454 Y59.438
G1 F480 X77.670 Y68.655 E219.75048
G0 F10500 X76.853 Y68.898
G1 F480 X67.808 Y59.853 E220.33146
G0 F10500 X67.928 Y60.030
G0 X71.319 Y58.171
G0 X71.234 Y57.976
