;This Gcode has been generated specifically for the LulzBot Mini
;Basic settings: Layer height: 0.35 Walls: 0.6 Fill: 30
;Filament Diameter: 2.9
;Nozzle Size: 0.6
G21                          ; metric values
G90                          ; absolute positioning
M82                          ; set extruder to absolute mode
M107                         ; start with the fan off
G92 E0                       ; set extruder position to 0
M140 S40; get bed heating up
G28                          ; home all
M907 X500                    ; reduce extruder torque for safety
M109 S160                    ; set to cleaning temp and wait
G1 Z150 E-30 F55             ; suck up XXmm of filament
M109 S170                    ; heat up rest of way
G1 X45 Y174 F11520           ; move behind scraper
G1 Z0  F1200                 ; CRITICAL: set Z to height of top of scraper
G1 X45 Y174 Z-.5 F4000       ; wiping ; plunge into wipe pad
G1 X55 Y172 Z-.5 F4000       ; wiping
G1 X45 Y174 Z0 F4000         ; wiping
G1 X55 Y172 F4000            ; wiping
G1 X45 Y174 F4000            ; wiping
G1 X55 Y172 F4000            ; wiping
G1 X45 Y174 F4000            ; wiping
G1 X55 Y172 F4000            ; wiping
G1 X60 Y174 F4000            ; wiping
G1 X80 Y172 F4000            ; wiping
G1 X60 Y174 F4000            ; wiping
G1 X80 Y172 F4000            ; wiping
G1 X60 Y174 F4000            ; wiping
G1 X90 Y172 F4000            ; wiping
G1 X80 Y174 F4000            ; wiping
G1 X100 Y172 F4000           ; wiping
G1 X80 Y174 F4000            ; wiping
G1 X100 Y172 F4000           ; wiping
G1 X80 Y174 F4000            ; wiping
G1 X100 Y172 F4000           ; wiping
G1 X110 Y174 F4000           ; wiping
G1 X100 Y172 F4000           ; wiping
G1 X110 Y174 F4000           ; wiping
G1 X100 Y172 F4000           ; wiping
G1 X110 Y174 F4000           ; wiping
G1 X115 Y172 Z-0.5 F1000     ; wipe slower and bury noz in cleanish area
G1 Z10                       ; raise z
G28 X0 Y0                    ; home x and y
M109 S180                    ; set to probing temp
M204 S300                    ; Set probing acceleration
G29                          ; Probe
M204 S2000                   ; Restore standard acceleration
G1 X5 Y15 Z10 F5000          ; get out the way
G4 S1                        ; pause
M400                         ; clear buffer
M109 S230    ; set extruder temp and wait
G1 Z2 E0 F45                 ; extrude filament back into nozzle
M140 S40; get bed temping up during first layer

;Layer count: 25
;LAYER:0
M107
G0 F10500 X10.416 Y6.890 Z0.400
G0 X10.236 Y7.327
;TYPE:SKIRT
G1 F480 X10.416 Y6.890 E0.02147
G1 X11.141 Y5.943 E0.07563
G1 X11.436 Y5.558 E0.09766
G1 X12.764 Y4.539 E0.17369
G1 X13.866 Y4.083 E0.22786
G1 X14.311 Y3.900 E0.24971
G1 X15.707 Y3.717 E0.31366
G1 X23.598 Y3.712 E0.67206
G1 X24.105 Y3.714 E0.69509
G1 X25.373 Y3.776 E0.75275
G1 X26.712 Y3.975 E0.81423
G1 X28.076 Y4.309 E0.87801
G1 X29.406 Y4.780 E0.94209
G1 X30.736 Y5.401 E1.00876
G1 X31.749 Y6.008 E1.06240
G1 X31.945 Y6.124 E1.07274
G1 X33.040 Y6.937 E1.13468
G1 X34.127 Y7.912 E1.20101
G1 X35.041 Y8.920 E1.26281
G1 X35.614 Y9.686 E1.30625
G1 X35.717 Y8.902 E1.34217
G1 X35.781 Y8.422 E1.36416
G1 X36.236 Y7.327 E1.41802
G1 X36.416 Y6.890 E1.43948
G1 X37.141 Y5.943 E1.49365
G1 X37.436 Y5.558 E1.51568
G1 X38.764 Y4.539 E1.59171
G1 X39.866 Y4.083 E1.64588
G1 X40.311 Y3.900 E1.66773
G1 X41.707 Y3.717 E1.73168
G1 X49.598 Y3.712 E2.09008
G1 X50.105 Y3.714 E2.11310
G1 X51.373 Y3.776 E2.17076
G1 X52.712 Y3.975 E2.23225
G1 X54.076 Y4.309 E2.29603
G1 X55.406 Y4.780 E2.36011
G1 X56.736 Y5.401 E2.42678
G1 X57.749 Y6.008 E2.48042
G1 X57.945 Y6.124 E2.49076
G1 X59.040 Y6.937 E2.55270
G1 X60.127 Y7.912 E2.61902
G1 X61.041 Y8.920 E2.68082
G1 X61.614 Y9.686 E2.72427
G1 X61.717 Y8.902 E2.76019
G1 X61.781 Y8.422 E2.78218
G1 X62.236 Y7.327 E2.83604
G1 X62.416 Y6.890 E2.85750
G1 X63.141 Y5.943 E2.91167
G1 X63.436 Y5.558 E2.93370
G1 X64.764 Y4.539 E3.00973
G1 X65.866 Y4.083 E3.06389
G1 X66.311 Y3.900 E3.08575
G1 X67.707 Y3.717 E3.14970
G1 X75.598 Y3.712 E3.50809
G1 X76.105 Y3.714 E3.53112
G1 X77.373 Y3.776 E3.58878
G1 X78.712 Y3.975 E3.65027
G1 X80.077 Y4.309 E3.71409
G1 X81.405 Y4.780 E3.77809
G1 X82.735 Y5.401 E3.84476
G1 X83.748 Y6.008 E3.89839
G1 X83.944 Y6.124 E3.90874
G1 X85.039 Y6.937 E3.97068
G1 X86.126 Y7.912 E4.03700
G1 X87.040 Y8.920 E4.09880
G1 X87.613 Y9.686 E4.14225
G1 X87.716 Y8.902 E4.17816
G1 X87.780 Y8.422 E4.20016
G1 X88.235 Y7.327 E4.25401
G1 X88.415 Y6.890 E4.27548
G1 X89.140 Y5.943 E4.32965
G1 X89.435 Y5.558 E4.35168
G1 X90.763 Y4.539 E4.42770
G1 X91.865 Y4.083 E4.48187
G1 X92.310 Y3.900 E4.50373
G1 X93.706 Y3.717 E4.56767
G1 X101.597 Y3.712 E4.92607
G1 X102.104 Y3.714 E4.94910
G1 X103.372 Y3.776 E5.00676
G1 X104.711 Y3.975 E5.06824
G1 X106.075 Y4.309 E5.13202
G1 X107.405 Y4.780 E5.19611
G1 X108.735 Y5.401 E5.26277
G1 X109.748 Y6.008 E5.31641
G1 X109.944 Y6.124 E5.32676
G1 X111.039 Y6.937 E5.38870
G1 X112.126 Y7.912 E5.45502
G1 X113.040 Y8.920 E5.51682
G1 X113.613 Y9.686 E5.56027
G1 X113.716 Y8.902 E5.59618
G1 X113.780 Y8.422 E5.61818
G1 X114.235 Y7.327 E5.67203
G1 X114.415 Y6.890 E5.69350
G1 X115.140 Y5.943 E5.74767
G1 X115.435 Y5.558 E5.76970
G1 X116.763 Y4.539 E5.84572
G1 X117.865 Y4.083 E5.89989
G1 X118.310 Y3.900 E5.92174
G1 X119.706 Y3.717 E5.98569
G1 X127.597 Y3.712 E6.34409
G1 X128.104 Y3.714 E6.36712
G1 X129.372 Y3.776 E6.42478
G1 X130.711 Y3.975 E6.48626
G1 X132.075 Y4.309 E6.55004
G1 X133.405 Y4.780 E6.61413
G1 X134.735 Y5.401 E6.68079
G1 X135.748 Y6.008 E6.73443
G1 X135.944 Y6.124 E6.74477
G1 X137.039 Y6.937 E6.80672
G1 X138.126 Y7.912 E6.87304
G1 X139.040 Y8.920 E6.93484
G1 X139.881 Y10.044 E6.99860
G1 X140.535 Y11.124 E7.05594
G1 X140.650 Y11.319 E7.06622
G1 X141.222 Y12.531 E7.12709
G1 X141.702 Y13.850 E7.19084
G1 X142.030 Y15.139 E7.25126
G1 X142.084 Y15.403 E7.26349
G1 X142.274 Y16.676 E7.32195
G1 X142.336 Y17.953 E7.38002
G1 X142.339 Y25.729 E7.73320
G1 X142.333 Y26.362 E7.76195
G1 X142.150 Y27.746 E7.82536
G1 X141.694 Y28.845 E7.87940
G1 X141.512 Y29.287 E7.90111
G1 X140.491 Y30.616 E7.97722
G1 X139.547 Y31.340 E8.03126
G1 X139.190 Y31.624 E8.05198
G1 X138.061 Y32.090 E8.10745
G1 X137.619 Y32.272 E8.12916
G1 X136.367 Y32.438 E8.18652
G1 X137.039 Y32.937 E8.22454
G1 X138.126 Y33.912 E8.29086
G1 X139.040 Y34.920 E8.35266
G1 X139.881 Y36.044 E8.41642
G1 X140.535 Y37.124 E8.47377
G1 X140.650 Y37.319 E8.48405
G1 X141.222 Y38.531 E8.54492
G1 X141.702 Y39.850 E8.60867
G1 X142.030 Y41.139 E8.66908
G1 X142.084 Y41.403 E8.68132
G1 X142.274 Y42.676 E8.73978
G1 X142.336 Y43.953 E8.79784
G1 X142.339 Y51.729 E9.15102
G1 X142.333 Y52.362 E9.17977
G1 X142.150 Y53.746 E9.24318
G1 X141.694 Y54.845 E9.29722
G1 X141.512 Y55.287 E9.31893
G1 X140.491 Y56.616 E9.39505
G1 X139.547 Y57.340 E9.44908
G1 X139.190 Y57.624 E9.46980
G1 X138.061 Y58.090 E9.52527
G1 X137.619 Y58.272 E9.54699
G1 X136.367 Y58.438 E9.60435
G1 X137.039 Y58.937 E9.64236
G1 X138.126 Y59.912 E9.70868
G1 X139.040 Y60.920 E9.77048
G1 X139.881 Y62.044 E9.83424
G1 X140.535 Y63.124 E9.89159
G1 X140.650 Y63.319 E9.90187
G1 X141.222 Y64.531 E9.96274
G1 X141.702 Y65.850 E10.02649
G1 X142.030 Y67.139 E10.08690
G1 X142.084 Y67.403 E10.09914
G1 X142.274 Y68.676 E10.15760
G1 X142.336 Y69.953 E10.21567
G1 X142.339 Y77.728 E10.56880
G1 X142.333 Y78.361 E10.59755
G1 X142.150 Y79.745 E10.66096
G1 X141.694 Y80.844 E10.71500
G1 X141.512 Y81.286 E10.73671
G1 X140.491 Y82.615 E10.81283
G1 X139.547 Y83.339 E10.86686
G1 X139.190 Y83.623 E10.88758
G1 X138.061 Y84.089 E10.94305
G1 X137.619 Y84.271 E10.96476
G1 X136.367 Y84.437 E11.02213
G1 X137.039 Y84.936 E11.06014
G1 X138.126 Y85.911 E11.12646
G1 X139.040 Y86.919 E11.18826
G1 X139.881 Y88.043 E11.25202
G1 X140.535 Y89.123 E11.30937
G1 X140.650 Y89.318 E11.31965
G1 X141.222 Y90.530 E11.38052
G1 X141.702 Y91.849 E11.44427
G1 X142.030 Y93.138 E11.50468
G1 X142.084 Y93.402 E11.51692
G1 X142.274 Y94.675 E11.57538
G1 X142.336 Y95.952 E11.63345
G1 X142.339 Y103.728 E11.98662
G1 X142.333 Y104.361 E12.01537
G1 X142.150 Y105.745 E12.07878
G1 X141.694 Y106.844 E12.13282
G1 X141.512 Y107.286 E12.15453
G1 X140.491 Y108.615 E12.23065
G1 X139.547 Y109.339 E12.28468
G1 X139.190 Y109.623 E12.30540
G1 X138.061 Y110.089 E12.36088
G1 X137.619 Y110.271 E12.38259
G1 X136.367 Y110.437 E12.43995
G1 X137.039 Y110.936 E12.47796
G1 X138.126 Y111.911 E12.54428
G1 X139.040 Y112.919 E12.60609
G1 X139.881 Y114.043 E12.66984
G1 X140.535 Y115.123 E12.72719
G1 X140.650 Y115.318 E12.73747
G1 X141.222 Y116.530 E12.79834
G1 X141.702 Y117.849 E12.86209
G1 X142.030 Y119.138 E12.92250
G1 X142.084 Y119.402 E12.93474
G1 X142.274 Y120.675 E12.99320
G1 X142.336 Y121.952 E13.05127
G1 X142.339 Y129.728 E13.40444
G1 X142.333 Y130.361 E13.43320
G1 X142.150 Y131.745 E13.49660
G1 X141.694 Y132.844 E13.55064
G1 X141.512 Y133.286 E13.57235
G1 X140.491 Y134.615 E13.64847
G1 X139.547 Y135.339 E13.70251
G1 X139.190 Y135.623 E13.72323
G1 X138.061 Y136.089 E13.77870
G1 X137.619 Y136.271 E13.80041
G1 X136.224 Y136.456 E13.86432
G1 X122.432 Y136.461 E14.49074
G1 X121.742 Y136.461 E14.52208
G1 X120.289 Y136.269 E14.58865
G1 X119.791 Y136.204 E14.61146
G1 X118.221 Y135.555 E14.68862
G1 X117.754 Y135.358 E14.71164
G1 X116.021 Y134.028 E14.81086
G1 X115.482 Y133.325 E14.85109
G1 X114.491 Y134.615 E14.92497
G1 X113.547 Y135.339 E14.97901
G1 X113.190 Y135.623 E14.99973
G1 X112.061 Y136.089 E15.05520
G1 X111.619 Y136.271 E15.07691
G1 X110.224 Y136.456 E15.14082
G1 X96.432 Y136.461 E15.76724
G1 X95.742 Y136.461 E15.79858
G1 X94.289 Y136.269 E15.86515
G1 X93.791 Y136.204 E15.88796
G1 X92.221 Y135.555 E15.96512
G1 X91.754 Y135.358 E15.98814
G1 X90.021 Y134.028 E16.08735
G1 X89.482 Y133.325 E16.12759
G1 X88.491 Y134.615 E16.20147
G1 X87.547 Y135.339 E16.25551
G1 X87.190 Y135.623 E16.27622
G1 X86.061 Y136.089 E16.33170
G1 X85.619 Y136.271 E16.35341
G1 X84.224 Y136.456 E16.41732
G1 X70.433 Y136.461 E17.04369
G1 X69.743 Y136.461 E17.07503
G1 X68.290 Y136.269 E17.14160
G1 X67.792 Y136.204 E17.16441
G1 X66.222 Y135.555 E17.24157
G1 X65.755 Y135.358 E17.26459
G1 X64.022 Y134.028 E17.36381
G1 X63.483 Y133.325 E17.40404
G1 X62.492 Y134.615 E17.47793
G1 X61.548 Y135.339 E17.53196
G1 X61.191 Y135.623 E17.55268
G1 X60.062 Y136.089 E17.60815
G1 X59.620 Y136.271 E17.62986
G1 X58.225 Y136.456 E17.69378
G1 X44.433 Y136.461 E18.32019
G1 X43.743 Y136.461 E18.35153
G1 X42.290 Y136.269 E18.41810
G1 X41.792 Y136.204 E18.44091
G1 X40.222 Y135.555 E18.51807
G1 X39.755 Y135.358 E18.54109
G1 X38.022 Y134.028 E18.64031
G1 X37.483 Y133.325 E18.68054
G1 X36.492 Y134.615 E18.75443
G1 X35.548 Y135.339 E18.80846
G1 X35.191 Y135.623 E18.82918
G1 X34.062 Y136.089 E18.88465
G1 X33.620 Y136.271 E18.90636
G1 X32.225 Y136.456 E18.97028
G1 X18.433 Y136.461 E19.59669
G1 X17.743 Y136.461 E19.62803
G1 X16.290 Y136.269 E19.69460
G1 X15.792 Y136.204 E19.71741
G1 X14.222 Y135.555 E19.79457
G1 X13.755 Y135.358 E19.81759
G1 X12.022 Y134.028 E19.91681
G1 X10.687 Y132.288 E20.01642
G1 X10.048 Y130.747 E20.09219
G1 X9.848 Y130.271 E20.11564
G1 X9.601 Y128.393 E20.20167
G1 X9.590 Y127.646 E20.23560
G1 X9.590 Y113.866 E20.86147
G1 X9.717 Y112.901 E20.90568
G1 X9.781 Y112.421 E20.92767
G1 X10.236 Y111.326 E20.98153
G1 X10.416 Y110.889 E21.00299
G1 X11.141 Y109.942 E21.05716
G1 X11.436 Y109.557 E21.07919
G1 X12.725 Y108.568 E21.15298
G1 X12.022 Y108.028 E21.19325
G1 X10.687 Y106.288 E21.29285
G1 X10.048 Y104.747 E21.36862
G1 X9.848 Y104.271 E21.39207
G1 X9.601 Y102.393 E21.47811
G1 X9.590 Y101.646 E21.51204
G1 X9.590 Y87.866 E22.13791
G1 X9.717 Y86.901 E22.18211
G1 X9.781 Y86.421 E22.20411
G1 X10.236 Y85.326 E22.25796
G1 X10.416 Y84.889 E22.27943
G1 X11.141 Y83.942 E22.33360
G1 X11.436 Y83.557 E22.35563
G1 X12.725 Y82.568 E22.42942
G1 X12.022 Y82.028 E22.46968
G1 X10.687 Y80.288 E22.56929
G1 X10.041 Y78.731 E22.64585
G1 X9.848 Y78.272 E22.66847
G1 X9.601 Y76.394 E22.75450
G1 X9.590 Y75.647 E22.78843
G1 X9.590 Y61.867 E23.41430
G1 X9.717 Y60.902 E23.45851
G1 X9.781 Y60.422 E23.48050
G1 X10.236 Y59.327 E23.53436
G1 X10.416 Y58.890 E23.55583
G1 X11.141 Y57.943 E23.60999
G1 X11.436 Y57.558 E23.63202
G1 X12.725 Y56.569 E23.70582
G1 X12.022 Y56.029 E23.74608
G1 X10.687 Y54.289 E23.84569
G1 X10.048 Y52.748 E23.92146
G1 X9.848 Y52.272 E23.94491
G1 X9.601 Y50.394 E24.03094
G1 X9.590 Y49.647 E24.06487
G1 X9.590 Y35.867 E24.69074
G1 X9.717 Y34.902 E24.73495
G1 X9.781 Y34.422 E24.75694
G1 X10.236 Y33.327 E24.81080
G1 X10.416 Y32.890 E24.83226
G1 X11.141 Y31.943 E24.88643
G1 X11.436 Y31.558 E24.90846
G1 X12.725 Y30.569 E24.98225
G1 X12.022 Y30.029 E25.02251
G1 X10.687 Y28.289 E25.12212
G1 X10.048 Y26.748 E25.19789
G1 X9.848 Y26.272 E25.22134
G1 X9.601 Y24.394 E25.30737
G1 X9.590 Y23.647 E25.34131
G1 X9.590 Y9.867 E25.96718
G1 X9.717 Y8.902 E26.01138
G1 X9.781 Y8.422 E26.03338
G1 X10.236 Y7.327 E26.08723
G1 F240 E24.08723
G1 Z0.500
G0 F10500 X13.695 Y8.776
;TYPE:WALL-OUTER
G1 Z0.400
G1 F240 E26.08723
G1 F480 X14.111 Y8.232 E26.11834
G1 X14.654 Y7.816 E26.14941
G1 X15.286 Y7.555 E26.18046
G1 X15.954 Y7.467 E26.21106
G1 X23.589 Y7.462 E26.55784
G1 X23.997 Y7.464 E26.57637
G1 X25.010 Y7.513 E26.62243
G1 X25.992 Y7.659 E26.66752
G1 X26.995 Y7.905 E26.71443
G1 X27.984 Y8.255 E26.76208
G1 X28.973 Y8.717 E26.81165
G1 X29.840 Y9.236 E26.85755
G1 X30.659 Y9.839 E26.90374
G1 X31.478 Y10.575 E26.95375
G1 X32.146 Y11.311 E26.99890
G1 X32.769 Y12.143 E27.04610
G1 X33.317 Y13.048 E27.09416
G1 X33.336 Y13.081 E27.09589
G1 X33.760 Y13.978 E27.14095
G1 X34.115 Y14.953 E27.18808
G1 X34.373 Y15.967 E27.23560
G1 X34.537 Y17.036 E27.28472
G1 X34.587 Y18.054 E27.33101
G1 X34.590 Y25.709 E27.67869
G1 X34.586 Y26.095 E27.69622
G1 X34.497 Y26.767 E27.72701
G1 X34.235 Y27.399 E27.75809
G1 X33.821 Y27.938 E27.78895
G1 X33.273 Y28.358 E27.82031
G1 X32.643 Y28.619 E27.85129
G1 X31.976 Y28.707 E27.88184
G1 X17.991 Y28.712 E28.51702
G1 X16.769 Y28.551 E28.57300
G1 X15.668 Y28.095 E28.62713
G1 X15.654 Y28.089 E28.62782
G1 X14.697 Y27.354 E28.68263
G1 X13.962 Y26.396 E28.73747
G1 X13.505 Y25.293 E28.79170
G1 X13.500 Y25.282 E28.79225
G1 X13.348 Y24.119 E28.84552
G1 X13.340 Y10.113 E29.48165
G1 X13.433 Y9.407 E29.51399
G1 X13.695 Y8.776 E29.54503
G0 F10500 X14.110 Y9.014
G0 X21.230 Y9.788
G0 X21.668 Y9.971
G1 F480 X21.587 Y10.587 E29.57324
G1 X21.668 Y11.202 E29.60142
G1 X21.905 Y11.776 E29.62962
G1 X22.283 Y12.268 E29.65780
G1 X22.718 Y12.603 E29.68274
G1 X22.778 Y12.647 E29.68612
G1 X23.349 Y12.883 E29.71418
G1 X23.965 Y12.965 E29.74241
G1 X24.580 Y12.883 E29.77059
G1 X25.154 Y12.647 E29.79877
G1 X25.646 Y12.268 E29.82698
G1 X26.025 Y11.776 E29.85519
G1 X26.262 Y11.202 E29.88339
G1 X26.343 Y10.587 E29.91157
G1 X26.262 Y9.971 E29.93979
G1 X26.025 Y9.398 E29.96795
G1 X25.647 Y8.905 E29.99617
G1 X25.154 Y8.526 E30.02441
G1 X24.580 Y8.290 E30.05260
G1 X23.965 Y8.209 E30.08077
G1 X23.349 Y8.290 E30.10899
G1 X22.776 Y8.526 E30.13714
G1 X22.283 Y8.905 E30.16538
G1 X21.905 Y9.398 E30.19359
G1 X21.668 Y9.971 E30.22176
G0 F10500 X21.230 Y9.788
G0 X21.109 Y11.351
G0 X21.875 Y12.677
G0 X22.674 Y13.413
G0 X22.852 Y13.852
G1 F480 X21.808 Y14.280 E30.27301
G1 X20.915 Y14.953 E30.32379
G1 X20.839 Y15.027 E30.32861
G1 X20.187 Y15.877 E30.37727
G1 X19.741 Y16.938 E30.42954
G1 X19.605 Y17.970 E30.47682
G1 X19.585 Y18.069 E30.48140
G1 X19.733 Y19.213 E30.53380
G1 X20.167 Y20.263 E30.58540
G1 X20.866 Y21.179 E30.63773
G1 X21.774 Y21.876 E30.68972
G1 X22.829 Y22.314 E30.74160
G1 X23.965 Y22.465 E30.79365
G1 X25.112 Y22.310 E30.84622
G1 X26.090 Y21.907 E30.89427
G1 X26.177 Y21.862 E30.89871
G1 X27.002 Y21.229 E30.94594
G1 X27.075 Y21.166 E30.95032
G1 X27.710 Y20.338 E30.99772
G1 X27.765 Y20.258 E31.00213
G1 X28.164 Y19.292 E31.04960
G1 X28.197 Y19.201 E31.05399
G1 X28.332 Y18.171 E31.10117
G1 X28.343 Y18.075 E31.10556
G1 X28.206 Y17.036 E31.15316
G1 X28.190 Y16.940 E31.15758
G1 X27.791 Y15.978 E31.20488
G1 X27.752 Y15.890 E31.20925
G1 X27.116 Y15.063 E31.25664
G1 X27.057 Y14.987 E31.26101
G1 X26.226 Y14.349 E31.30859
G1 X26.149 Y14.292 E31.31294
G1 X25.186 Y13.894 E31.36027
G1 X25.096 Y13.857 E31.36469
G1 X24.062 Y13.722 E31.41205
G1 X23.968 Y13.708 E31.41637
G1 X22.852 Y13.852 E31.46748
G1 F240 E29.46748
G1 Z0.500
G0 F10500 X29.405 Y16.898
G1 Z0.400
G1 F240 E31.46748
G1 F480 X29.168 Y17.471 E31.49564
G1 X29.087 Y18.087 E31.52386
G1 X29.168 Y18.702 E31.55203
G1 X29.405 Y19.276 E31.58024
G1 X29.783 Y19.768 E31.60842
G1 X30.218 Y20.103 E31.63335
G1 X30.278 Y20.147 E31.63673
G1 X30.849 Y20.383 E31.66479
G1 X31.465 Y20.465 E31.69302
G1 X32.080 Y20.383 E31.72120
G1 X32.654 Y20.147 E31.74939
G1 X33.146 Y19.768 E31.77759
G1 X33.525 Y19.276 E31.80580
G1 X33.762 Y18.702 E31.83401
G1 X33.843 Y18.087 E31.86218
G1 X33.762 Y17.471 E31.89040
G1 X33.525 Y16.898 E31.91856
G1 X33.147 Y16.405 E31.94678
G1 X32.654 Y16.026 E31.97502
G1 X32.080 Y15.790 E32.00321
G1 X31.465 Y15.709 E32.03138
G1 X30.849 Y15.790 E32.05960
G1 X30.276 Y16.026 E32.08775
G1 X29.783 Y16.405 E32.11599
G1 X29.405 Y16.898 E32.14421
G0 F10500 X29.113 Y16.915
;TYPE:SKIN
G1 F480 X28.001 Y15.803 E32.21563
G0 F10500 X28.195 Y15.718
G0 X29.377 Y16.156
G0 X29.542 Y16.284
G1 F480 X25.765 Y12.507 E32.45824
G0 F10500 X26.242 Y11.923
G1 F480 X30.126 Y15.807 E32.70771
G0 F10500 X30.898 Y15.518
G1 F480 X26.532 Y11.152 E32.98815
G0 F10500 X26.542 Y10.102
G1 F480 X31.947 Y15.507 E33.33532
G0 F10500 X31.974 Y15.297
G0 X33.750 Y15.445
G0 X33.955 Y15.394
G1 F480 X26.653 Y8.092 E33.80434
G0 F10500 X25.326 Y7.825
G1 F480 X34.222 Y16.721 E34.37575
G0 F10500 X34.042 Y17.602
G1 F480 X34.173 Y18.263 E34.39317
G1 X34.033 Y19.183 E34.41188
G1 X33.794 Y20.006 E34.44925
G1 X34.325 Y21.066 E34.50310
G0 F10500 X34.325 Y22.127
G1 F480 X32.635 Y20.438 E34.61162
G0 F10500 X31.819 Y20.682
G1 F480 X34.325 Y23.188 E34.77258
G0 F10500 X34.325 Y24.249
G1 F480 X30.669 Y20.593 E35.00741
G0 F10500 X30.588 Y20.789
G0 X29.871 Y20.560
G0 X28.602 Y19.475
G0 X28.406 Y19.390
G1 F480 X34.325 Y25.310 E35.38763
G0 F10500 X34.288 Y26.333
G1 F480 X28.096 Y20.141 E35.78536
G0 F10500 X27.688 Y20.794
G1 F480 X34.050 Y27.156 E36.19400
G0 F10500 X33.604 Y27.770
G1 F480 X27.220 Y21.387 E36.60403
G0 F10500 X26.623 Y21.851
G1 F480 X32.970 Y28.198 E37.01170
G0 F10500 X32.132 Y28.420
G1 F480 X25.957 Y22.245 E37.40834
G0 F10500 X25.206 Y22.554
G1 F480 X31.095 Y28.443 E37.78660
G0 F10500 X30.034 Y28.443
G1 F480 X24.278 Y22.687 E38.15632
G0 F10500 X23.152 Y22.622
G1 F480 X28.974 Y28.444 E38.53027
G0 F10500 X27.914 Y28.444
G1 F480 X21.351 Y21.882 E38.95180
G0 F10500 X21.222 Y22.050
G0 X20.457 Y21.588
G0 X20.000 Y20.830
G0 X20.171 Y20.701
G1 F480 X13.604 Y14.135 E39.37357
G0 F10500 X13.605 Y15.196
G1 F480 X26.853 Y28.444 E40.22452
G0 F10500 X25.793 Y28.445
G1 F480 X13.606 Y16.257 E41.00734
G0 F10500 X13.606 Y17.319
G1 F480 X24.733 Y28.445 E41.72202
G0 F10500 X23.673 Y28.446
G1 F480 X13.607 Y18.380 E42.36858
G0 F10500 X13.607 Y19.441
G1 F480 X22.612 Y28.446 E42.94698
G0 F10500 X21.552 Y28.446
G1 F480 X13.608 Y20.502 E43.45724
G0 F10500 X13.608 Y21.563
G1 F480 X20.491 Y28.446 E43.89935
G0 F10500 X19.432 Y28.447
G1 F480 X13.609 Y22.625 E44.27334
G0 F10500 X13.610 Y23.686
G1 F480 X18.371 Y28.447 E44.57915
G0 F10500 X17.204 Y28.341
G1 F480 X13.708 Y24.845 E44.80370
G0 F10500 X13.919 Y24.818
G0 X14.780 Y26.684
G0 X14.613 Y26.810
G1 F480 X15.245 Y27.443 E44.84433
G0 F10500 X15.373 Y27.276
G0 X19.217 Y18.922
G0 X19.426 Y18.896
G1 F480 X13.604 Y13.073 E45.21832
G0 F10500 X13.603 Y12.012
G1 F480 X19.364 Y17.773 E45.58836
G0 F10500 X19.494 Y16.843
G1 F480 X13.602 Y10.950 E45.96684
G0 F10500 X13.630 Y9.917
G1 F480 X19.808 Y16.096 E46.36370
G0 F10500 X20.200 Y15.427
G1 F480 X13.852 Y9.079 E46.77144
G0 F10500 X14.278 Y8.444
G1 F480 X20.663 Y14.829 E47.18156
G0 F10500 X21.257 Y14.363
G1 F480 X14.895 Y8.001 E47.59021
G0 F10500 X15.718 Y7.764
G1 F480 X21.908 Y13.953 E47.98777
G0 F10500 X22.660 Y13.645
G1 F480 X16.745 Y7.730 E48.36770
G0 F10500 X17.806 Y7.730
G1 F480 X21.457 Y11.381 E48.60221
G0 F10500 X21.368 Y10.231
G1 F480 X18.866 Y7.729 E48.76292
G0 F10500 X19.926 Y7.729
G1 F480 X21.612 Y9.415 E48.87122
G0 F10500 X22.043 Y8.785
G1 F480 X21.517 Y7.728 E48.93900
G1 X22.867 Y8.017 E48.97612
G1 X23.787 Y7.877 E48.99471
G1 X24.447 Y8.007 E49.02527
G1 F240 E47.02527
G1 Z0.500
G0 F10500 X28.330 Y8.708
G1 Z0.400
G1 F240 E49.02527
G1 F480 X33.348 Y13.726 E49.34758
G1 F240 E47.34758
G1 Z0.500
G0 F10500 X28.868 Y17.731
G1 Z0.400
G1 F240 E49.34758
G1 F480 X28.535 Y17.928 E49.37029
G1 X28.958 Y18.881 E49.41764
G1 F240 E47.41764
G1 Z0.500
G0 F10500 X26.245 Y14.048
G1 Z0.400
G1 F240 E49.41764
G1 F480 X25.136 Y12.938 E49.48891
G0 F10500 X24.673 Y13.536
G1 F480 X23.943 Y13.337 E49.51163
G1 X23.169 Y13.092 E49.54851
G0 F10500 X21.940 Y12.524
G1 F240 E47.54851
G1 Z0.500
G0 F10500 X23.589 Y33.462
;TYPE:WALL-OUTER
G1 Z0.400
G1 F240 E49.54851
G1 F480 X23.997 Y33.464 E49.56704
G1 X25.010 Y33.513 E49.61310
G1 X25.992 Y33.659 E49.65819
G1 X26.995 Y33.905 E49.70510
G1 X27.984 Y34.255 E49.75275
G1 X28.973 Y34.717 E49.80233
G1 X29.840 Y35.236 E49.84822
G1 X30.659 Y35.839 E49.89441
G1 X31.478 Y36.575 E49.94442
G1 X32.146 Y37.311 E49.98957
G1 X32.769 Y38.143 E50.03678
G1 X33.317 Y39.048 E50.08483
G1 X33.336 Y39.081 E50.08656
G1 X33.760 Y39.978 E50.13162
G1 X34.115 Y40.953 E50.17875
G1 X34.373 Y41.967 E50.22627
G1 X34.537 Y43.036 E50.27539
G1 X34.587 Y44.054 E50.32168
G1 X34.590 Y51.709 E50.66936
G1 X34.586 Y52.095 E50.68690
G1 X34.497 Y52.767 E50.71768
G1 X34.235 Y53.399 E50.74876
G1 X33.821 Y53.938 E50.77963
G1 X33.273 Y54.358 E50.81098
G1 X32.643 Y54.619 E50.84196
G1 X31.976 Y54.707 E50.87251
G1 X17.991 Y54.712 E51.50770
G1 X16.769 Y54.551 E51.56368
G1 X15.668 Y54.095 E51.61780
G1 X15.654 Y54.089 E51.61849
G1 X14.697 Y53.354 E51.67330
G1 X13.962 Y52.396 E51.72814
G1 X13.505 Y51.293 E51.78237
G1 X13.500 Y51.282 E51.78292
G1 X13.348 Y50.119 E51.83619
G1 X13.340 Y36.113 E52.47232
G1 X13.433 Y35.407 E52.50467
G1 X13.695 Y34.776 E52.53570
G1 X14.111 Y34.232 E52.56680
G1 X14.654 Y33.816 E52.59787
G1 X15.286 Y33.555 E52.62893
G1 X15.954 Y33.467 E52.65953
G1 X23.589 Y33.462 E53.00630
G0 F10500 X23.965 Y34.209
G1 F480 X23.349 Y34.290 E53.03452
G1 X22.776 Y34.526 E53.06267
G1 X22.283 Y34.905 E53.09091
G1 X21.905 Y35.398 E53.11912
G1 X21.668 Y35.971 E53.14729
G1 X21.587 Y36.587 E53.17551
G1 X21.668 Y37.202 E53.20368
G1 X21.905 Y37.776 E53.23189
G1 X22.283 Y38.268 E53.26007
G1 X22.718 Y38.603 E53.28500
G1 X22.778 Y38.647 E53.28838
G1 X23.349 Y38.883 E53.31644
G1 X23.965 Y38.965 E53.34467
G1 X24.580 Y38.883 E53.37285
G1 X25.154 Y38.647 E53.40104
G1 X25.646 Y38.268 E53.42924
G1 X26.025 Y37.776 E53.45745
G1 X26.262 Y37.202 E53.48566
G1 X26.343 Y36.587 E53.51383
G1 X26.262 Y35.971 E53.54205
G1 X26.025 Y35.398 E53.57021
G1 X25.647 Y34.905 E53.59843
G1 X25.154 Y34.526 E53.62667
G1 X24.580 Y34.290 E53.65486
G1 X23.965 Y34.209 E53.68303
G1 F240 E51.68303
G1 Z0.500
G0 F10500 X24.062 Y39.722
G1 Z0.400
G1 F240 E53.68303
G1 F480 X23.968 Y39.708 E53.68735
G1 X22.852 Y39.852 E53.73846
G1 X21.808 Y40.280 E53.78970
G1 X20.915 Y40.953 E53.84049
G1 X20.839 Y41.027 E53.84531
G1 X20.187 Y41.877 E53.89396
G1 X19.741 Y42.938 E53.94624
G1 X19.605 Y43.970 E53.99352
G1 X19.585 Y44.069 E53.99810
G1 X19.733 Y45.213 E54.05049
G1 X20.167 Y46.263 E54.10210
G1 X20.866 Y47.179 E54.15443
G1 X21.774 Y47.876 E54.20642
G1 X22.829 Y48.314 E54.25830
G1 X23.965 Y48.465 E54.31035
G1 X25.112 Y48.310 E54.36292
G1 X26.090 Y47.907 E54.41096
G1 X26.177 Y47.862 E54.41541
G1 X27.002 Y47.229 E54.46264
G1 X27.075 Y47.166 E54.46702
G1 X27.710 Y46.338 E54.51441
G1 X27.765 Y46.258 E54.51882
G1 X28.164 Y45.292 E54.56629
G1 X28.197 Y45.201 E54.57069
G1 X28.332 Y44.171 E54.61787
G1 X28.343 Y44.075 E54.62226
G1 X28.206 Y43.036 E54.66986
G1 X28.190 Y42.940 E54.67428
G1 X27.791 Y41.978 E54.72158
G1 X27.752 Y41.890 E54.72595
G1 X27.116 Y41.063 E54.77334
G1 X27.057 Y40.987 E54.77771
G1 X26.226 Y40.349 E54.82529
G1 X26.149 Y40.292 E54.82964
G1 X25.186 Y39.894 E54.87697
G1 X25.096 Y39.857 E54.88139
G1 X24.062 Y39.722 E54.92875
G1 F240 E52.92875
G1 Z0.500
G0 F10500 X29.405 Y42.898
G1 Z0.400
G1 F240 E54.92875
G1 F480 X29.168 Y43.471 E54.95691
G1 X29.087 Y44.087 E54.98513
G1 X29.168 Y44.702 E55.01331
G1 X29.405 Y45.276 E55.04151
G1 X29.783 Y45.768 E55.06969
G1 X30.218 Y46.103 E55.09463
G1 X30.278 Y46.147 E55.09801
G1 X30.849 Y46.383 E55.12607
G1 X31.465 Y46.465 E55.15429
G1 X32.080 Y46.383 E55.18247
G1 X32.654 Y46.147 E55.21066
G1 X33.146 Y45.768 E55.23887
G1 X33.525 Y45.276 E55.26708
G1 X33.762 Y44.702 E55.29528
G1 X33.843 Y44.087 E55.32346
G1 X33.762 Y43.471 E55.35167
G1 X33.525 Y42.898 E55.37984
G1 X33.147 Y42.405 E55.40805
G1 X32.654 Y42.026 E55.43630
G1 X32.080 Y41.790 E55.46448
G1 X31.465 Y41.709 E55.49266
G1 X30.849 Y41.790 E55.52088
G1 X30.276 Y42.026 E55.54902
G1 X29.783 Y42.405 E55.57727
G1 X29.405 Y42.898 E55.60548
G0 F10500 X29.319 Y42.577
;TYPE:SKIN
G1 F480 X25.474 Y38.732 E55.85245
G0 F10500 X26.017 Y38.214
G1 F480 X29.834 Y42.032 E56.09766
G0 F10500 X30.508 Y41.645
G1 F480 X26.404 Y37.541 E56.36127
G0 F10500 X26.595 Y36.671
G1 F480 X31.378 Y41.454 E56.66849
G0 F10500 X32.775 Y41.790
G1 F480 X26.256 Y35.272 E57.08718
G0 F10500 X25.967 Y33.922
G1 F480 X34.123 Y42.078 E57.61106
G0 F10500 X33.757 Y42.772
G1 F480 X34.191 Y43.737 E57.64502
G1 X34.114 Y44.720 E57.65959
G1 X33.920 Y45.588 E57.68652
G1 X34.325 Y46.522 E57.73276
G0 F10500 X34.325 Y47.584
G1 F480 X32.974 Y46.232 E57.81956
G0 F10500 X32.269 Y46.588
G1 F480 X34.326 Y48.645 E57.95169
G0 F10500 X34.326 Y49.706
G1 F480 X31.331 Y46.711 E58.14406
G0 F10500 X31.303 Y46.923
G0 X29.993 Y46.649
G0 X28.452 Y45.837
G0 X28.255 Y45.756
G1 F480 X34.326 Y51.827 E58.53402
G0 F10500 X34.209 Y52.771
G1 F480 X27.925 Y46.486 E58.93768
G0 F10500 X27.465 Y47.087
G1 F480 X33.849 Y53.471 E59.34774
G0 F10500 X33.311 Y53.994
G1 F480 X26.931 Y47.614 E59.75754
G0 F10500 X26.331 Y48.075
G1 F480 X32.605 Y54.348 E60.16049
G0 F10500 X31.638 Y54.442
G1 F480 X25.591 Y48.395 E60.54890
G0 F10500 X24.757 Y48.622
G1 F480 X30.578 Y54.442 E60.92277
G0 F10500 X29.518 Y54.443
G1 F480 X23.780 Y48.705 E61.29133
G0 F10500 X22.459 Y48.445
G1 F480 X28.458 Y54.444 E61.67665
G0 F10500 X27.397 Y54.444
G1 F480 X13.604 Y40.651 E62.56260
G0 F10500 X13.604 Y39.590
G1 F480 X19.605 Y45.592 E62.94809
G0 F10500 X19.345 Y44.271
G1 F480 X13.604 Y38.529 E63.31688
G0 F10500 X13.603 Y37.468
G1 F480 X19.429 Y43.294 E63.69109
G0 F10500 X19.656 Y42.460
G1 F480 X13.602 Y36.406 E64.07995
G0 F10500 X13.701 Y35.445
G1 F480 X19.975 Y41.719 E64.48294
G0 F10500 X19.809 Y41.591
G0 X13.815 Y41.712
G0 X13.605 Y41.712
G1 F480 X26.337 Y54.445 E65.30078
G0 F10500 X25.276 Y54.445
G1 F480 X13.606 Y42.774 E66.05039
G0 F10500 X13.606 Y43.835
G1 F480 X24.216 Y54.445 E66.73189
G0 F10500 X23.157 Y54.446
G1 F480 X13.607 Y44.897 E67.34528
G0 F10500 X13.608 Y45.958
G1 F480 X22.096 Y54.446 E67.89048
G0 F10500 X21.036 Y54.447
G1 F480 X13.608 Y47.019 E68.36759
G0 F10500 X13.609 Y48.081
G1 F480 X19.975 Y54.447 E68.77649
G0 F10500 X18.915 Y54.447
G1 F480 X13.610 Y49.142 E69.11724
G0 F10500 X13.626 Y50.219
G1 F480 X17.831 Y54.424 E69.38733
G0 F10500 X16.501 Y54.154
G1 F480 X13.896 Y51.550 E69.55463
G0 F10500 X14.092 Y51.469
G0 X20.270 Y40.990
G0 X20.436 Y41.119
G1 F480 X14.054 Y34.737 E69.96455
G0 F10500 X14.581 Y34.203
G1 F480 X20.962 Y40.585 E70.37445
G0 F10500 X21.567 Y40.129
G1 F480 X15.281 Y33.842 E70.77824
G0 F10500 X16.228 Y33.729
G1 F480 X22.294 Y39.795 E71.16787
G0 F10500 X23.111 Y39.552
G1 F480 X17.289 Y33.729 E71.54186
G0 F10500 X18.350 Y33.729
G1 F480 X21.339 Y36.719 E71.73388
G0 F10500 X21.462 Y35.781
G1 F480 X19.410 Y33.728 E71.86572
G0 F10500 X20.470 Y33.728
G1 F480 X21.819 Y35.077 E71.95237
G0 F10500 X22.334 Y34.532
G1 F480 X22.060 Y33.728 E72.00401
G1 X23.330 Y33.936 E72.03074
G1 X24.312 Y33.858 E72.04518
G1 X25.274 Y34.290 E72.09308
G0 F10500 X25.355 Y34.096
G0 X27.380 Y34.544
G0 X27.451 Y34.345
G1 F480 X33.707 Y40.602 E72.49494
G0 F10500 X33.507 Y40.674
G0 X29.988 Y41.526
G0 X28.905 Y42.609
G0 X28.767 Y43.200
G0 X28.963 Y43.282
G1 F480 X28.483 Y43.332 E72.53299
G1 X28.802 Y44.181 E72.54387
G1 X28.636 Y44.015 E72.55453
G0 F10500 X28.496 Y44.936
G1 F480 X34.327 Y50.767 E72.92907
G1 F240 E70.92907
G1 Z0.500
G0 F10500 X32.695 Y38.529
G1 Z0.400
G1 F240 E72.92907
G1 F480 X29.513 Y35.346 E73.13349
G0 F10500 X29.404 Y35.527
G0 X25.445 Y39.488
G0 X25.364 Y39.683
G1 F480 X24.423 Y39.272 E73.17167
G1 X23.869 Y39.248 E73.18261
G1 X24.027 Y39.407 E73.19279
G1 F240 E71.19279
G1 Z0.500
G0 F10500 X23.589 Y59.462
;TYPE:WALL-OUTER
G1 Z0.400
G1 F240 E73.19279
G1 F480 X23.997 Y59.464 E73.21133
G1 X25.010 Y59.513 E73.25739
G1 X25.992 Y59.659 E73.30248
G1 X26.995 Y59.905 E73.34939
G1 X27.984 Y60.255 E73.39703
G1 X28.973 Y60.717 E73.44661
G1 X29.840 Y61.236 E73.49251
G1 X30.659 Y61.839 E73.53870
G1 X31.478 Y62.575 E73.58871
G1 X32.146 Y63.311 E73.63386
G1 X32.769 Y64.143 E73.68106
G1 X33.317 Y65.048 E73.72912
G1 X33.336 Y65.081 E73.73085
G1 X33.760 Y65.978 E73.77591
G1 X34.115 Y66.953 E73.82304
G1 X34.373 Y67.967 E73.87056
G1 X34.537 Y69.036 E73.91968
G1 X34.587 Y70.054 E73.96597
G1 X34.590 Y77.708 E74.31361
G1 X34.586 Y78.094 E74.33114
G1 X34.497 Y78.766 E74.36193
G1 X34.235 Y79.398 E74.39300
G1 X33.821 Y79.937 E74.42387
G1 X33.273 Y80.357 E74.45523
G1 X32.643 Y80.618 E74.48620
G1 X31.976 Y80.706 E74.51676
G1 X17.991 Y80.711 E75.15194
G1 X16.769 Y80.550 E75.20792
G1 X15.668 Y80.094 E75.26204
G1 X15.654 Y80.088 E75.26274
G1 X14.697 Y79.353 E75.31754
G1 X13.962 Y78.395 E75.37238
G1 X13.505 Y77.293 E75.42657
G1 X13.500 Y77.282 E75.42712
G1 X13.348 Y76.119 E75.48039
G1 X13.340 Y62.113 E76.11652
G1 X13.433 Y61.407 E76.14887
G1 X13.695 Y60.776 E76.17990
G1 X14.111 Y60.232 E76.21100
G1 X14.654 Y59.816 E76.24207
G1 X15.286 Y59.555 E76.27313
G1 X15.954 Y59.467 E76.30373
G1 X23.589 Y59.462 E76.65050
G0 F10500 X23.965 Y60.209
G1 F480 X23.349 Y60.290 E76.67872
G1 X22.776 Y60.526 E76.70687
G1 X22.283 Y60.905 E76.73511
G1 X21.905 Y61.398 E76.76332
G1 X21.668 Y61.971 E76.79149
G1 X21.587 Y62.587 E76.81971
G1 X21.668 Y63.202 E76.84788
G1 X21.905 Y63.776 E76.87609
G1 X22.283 Y64.268 E76.90427
G1 X22.718 Y64.603 E76.92920
G1 X22.778 Y64.647 E76.93258
G1 X23.349 Y64.883 E76.96064
G1 X23.965 Y64.965 E76.98887
G1 X24.580 Y64.883 E77.01705
G1 X25.154 Y64.647 E77.04524
G1 X25.646 Y64.268 E77.07344
G1 X26.025 Y63.776 E77.10165
G1 X26.262 Y63.202 E77.12986
G1 X26.343 Y62.587 E77.15803
G1 X26.262 Y61.971 E77.18625
G1 X26.025 Y61.398 E77.21441
G1 X25.647 Y60.905 E77.24263
G1 X25.154 Y60.526 E77.27087
G1 X24.580 Y60.290 E77.29906
G1 X23.965 Y60.209 E77.32723
G1 F240 E75.32723
G1 Z0.500
G0 F10500 X24.062 Y65.722
G1 Z0.400
G1 F240 E77.32723
G1 F480 X23.968 Y65.708 E77.33155
G1 X22.852 Y65.852 E77.38266
G1 X21.808 Y66.280 E77.43390
G1 X20.915 Y66.953 E77.48469
G1 X20.839 Y67.027 E77.48951
G1 X20.187 Y67.877 E77.53816
G1 X19.741 Y68.938 E77.59044
G1 X19.605 Y69.970 E77.63772
G1 X19.585 Y70.069 E77.64230
G1 X19.733 Y71.213 E77.69469
G1 X20.167 Y72.263 E77.74630
G1 X20.866 Y73.179 E77.79863
G1 X21.774 Y73.876 E77.85062
G1 X22.829 Y74.314 E77.90250
G1 X23.965 Y74.465 E77.95455
G1 X25.112 Y74.310 E78.00712
G1 X26.090 Y73.907 E78.05516
G1 X26.177 Y73.862 E78.05961
G1 X27.002 Y73.229 E78.10684
G1 X27.075 Y73.166 E78.11122
G1 X27.710 Y72.338 E78.15861
G1 X27.765 Y72.258 E78.16302
G1 X28.164 Y71.292 E78.21049
G1 X28.197 Y71.201 E78.21489
G1 X28.332 Y70.171 E78.26207
G1 X28.343 Y70.075 E78.26646
G1 X28.206 Y69.036 E78.31406
G1 X28.190 Y68.940 E78.31848
G1 X27.791 Y67.978 E78.36578
G1 X27.752 Y67.890 E78.37015
G1 X27.116 Y67.063 E78.41754
G1 X27.057 Y66.987 E78.42191
G1 X26.226 Y66.349 E78.46949
G1 X26.149 Y66.292 E78.47384
G1 X25.186 Y65.894 E78.52117
G1 X25.096 Y65.857 E78.52559
G1 X24.062 Y65.722 E78.57295
G1 F240 E76.57295
G1 Z0.500
G0 F10500 X29.405 Y68.898
G1 Z0.400
G1 F240 E78.57295
G1 F480 X29.168 Y69.471 E78.60111
G1 X29.087 Y70.087 E78.62933
G1 X29.168 Y70.702 E78.65751
G1 X29.405 Y71.276 E78.68571
G1 X29.783 Y71.768 E78.71389
G1 X30.218 Y72.103 E78.73883
G1 X30.278 Y72.147 E78.74221
G1 X30.849 Y72.383 E78.77027
G1 X31.465 Y72.465 E78.79849
G1 X32.080 Y72.383 E78.82667
G1 X32.654 Y72.147 E78.85486
G1 X33.146 Y71.768 E78.88307
G1 X33.525 Y71.276 E78.91128
G1 X33.762 Y70.702 E78.93948
G1 X33.843 Y70.087 E78.96766
G1 X33.762 Y69.471 E78.99587
G1 X33.525 Y68.898 E79.02404
G1 X33.147 Y68.405 E79.05225
G1 X32.654 Y68.026 E79.08050
G1 X32.080 Y67.790 E79.10868
G1 X31.465 Y67.709 E79.13686
G1 X30.849 Y67.790 E79.16508
G1 X30.276 Y68.026 E79.19322
G1 X29.783 Y68.405 E79.22147
G1 X29.405 Y68.898 E79.24968
G0 F10500 X29.122 Y68.896
;TYPE:SKIN
G1 F480 X27.980 Y67.755 E79.32300
G0 F10500 X28.174 Y67.670
G0 X29.388 Y68.141
G0 X29.555 Y68.269
G1 F480 X25.781 Y64.495 E79.56541
G0 F10500 X26.254 Y63.907
G1 F480 X30.142 Y67.795 E79.81515
G0 F10500 X30.921 Y67.514
G1 F480 X26.536 Y63.129 E80.09680
G0 F10500 X26.539 Y62.071
G1 F480 X31.978 Y67.511 E80.44619
G0 F10500 X32.005 Y67.301
G0 X33.741 Y67.409
G0 X33.947 Y67.358
G1 F480 X26.690 Y60.101 E80.91232
G0 F10500 X25.358 Y59.830
G1 F480 X34.217 Y68.689 E81.48135
G0 F10500 X34.040 Y69.572
G1 F480 X34.174 Y70.236 E81.49887
G1 X34.039 Y71.162 E81.51740
G1 X33.802 Y71.986 E81.55406
G1 X34.325 Y73.039 E81.60746
G0 F10500 X34.325 Y74.100
G1 F480 X32.655 Y72.430 E81.71473
G0 F10500 X31.843 Y72.678
G1 F480 X34.326 Y75.161 E81.87421
G0 F10500 X34.327 Y76.223
G1 F480 X30.714 Y72.610 E82.10628
G0 F10500 X30.632 Y72.807
G0 X29.375 Y72.177
G0 X28.742 Y70.917
G0 X28.940 Y70.836
G1 F480 X28.715 Y70.081 E82.13071
G1 X28.511 Y69.347 E82.16531
G1 F240 E80.16531
G1 Z0.500
G0 F10500 X28.414 Y71.371
G1 Z0.400
G1 F240 E82.16531
G1 F480 X34.327 Y77.283 E82.54508
G0 F10500 X34.291 Y78.309
G1 F480 X28.104 Y72.122 E82.94248
G0 F10500 X27.701 Y72.779
G1 F480 X34.058 Y79.136 E83.35081
G0 F10500 X33.619 Y79.758
G1 F480 X27.236 Y73.375 E83.76080
G0 F10500 X26.639 Y73.838
G1 F480 X32.989 Y80.188 E84.16867
G0 F10500 X32.155 Y80.415
G1 F480 X25.976 Y74.237 E84.56553
G0 F10500 X25.226 Y74.546
G1 F480 X31.121 Y80.441 E84.94417
G0 F10500 X30.061 Y80.442
G1 F480 X24.302 Y74.683 E85.31408
G0 F10500 X23.183 Y74.625
G1 F480 X29.000 Y80.442 E85.68772
G0 F10500 X27.940 Y80.443
G1 F480 X21.468 Y73.971 E86.10343
G0 F10500 X21.339 Y74.140
G0 X20.457 Y73.588
G0 X19.908 Y72.711
G0 X20.079 Y72.582
G1 F480 X13.604 Y66.107 E86.51933
G0 F10500 X13.604 Y65.046
G1 F480 X19.422 Y70.864 E86.89303
G0 F10500 X19.369 Y69.750
G1 F480 X13.603 Y63.984 E87.26339
G0 F10500 X13.602 Y62.923
G1 F480 X19.503 Y68.824 E87.64242
G0 F10500 X19.817 Y68.077
G1 F480 X13.633 Y61.893 E88.03963
G0 F10500 X13.860 Y61.060
G1 F480 X20.211 Y67.411 E88.44757
G0 F10500 X20.677 Y66.815
G1 F480 X14.290 Y60.429 E88.85779
G0 F10500 X14.452 Y60.566
G0 X13.815 Y67.168
G0 X13.605 Y67.168
G1 F480 X26.879 Y80.443 E89.71043
G0 F10500 X25.820 Y80.444
G1 F480 X13.606 Y68.230 E90.49496
G0 F10500 X13.606 Y69.291
G1 F480 X24.760 Y80.444 E91.21137
G0 F10500 X23.699 Y80.444
G1 F480 X13.607 Y70.352 E91.85960
G0 F10500 X13.607 Y71.413
G1 F480 X22.639 Y80.445 E92.43974
G0 F10500 X21.578 Y80.445
G1 F480 X13.608 Y72.474 E92.95170
G0 F10500 X13.608 Y73.536
G1 F480 X20.518 Y80.446 E93.39554
G0 F10500 X19.458 Y80.446
G1 F480 X13.609 Y74.597 E93.77123
G0 F10500 X13.610 Y75.659
G1 F480 X18.398 Y80.446 E94.07874
G0 F10500 X17.235 Y80.345
G1 F480 X13.704 Y76.813 E94.30558
G0 F10500 X13.915 Y76.786
G0 X14.691 Y78.567
G0 X14.524 Y78.694
G1 F480 X15.360 Y79.530 E94.35928
G0 F10500 X15.488 Y79.363
G0 X19.688 Y67.587
G0 X21.143 Y66.180
G0 X21.273 Y66.351
G1 F480 X14.915 Y59.993 E94.76766
G0 F10500 X15.743 Y59.760
G1 F480 X21.928 Y65.945 E95.16494
G0 F10500 X22.680 Y65.637
G1 F480 X16.772 Y59.729 E95.54442
G0 F10500 X17.833 Y59.729
G1 F480 X21.440 Y63.336 E95.77610
G0 F10500 X21.372 Y62.207
G1 F480 X18.893 Y59.728 E95.93533
G0 F10500 X19.953 Y59.728
G1 F480 X21.621 Y61.396 E96.04247
G0 F10500 X22.055 Y60.769
G1 F480 X21.544 Y59.727 E96.10931
G1 X22.888 Y60.011 E96.14574
G1 X23.813 Y59.875 E96.16415
G1 X24.478 Y60.010 E96.19497
G1 F240 E94.19497
G1 Z0.500
G0 F10500 X28.380 Y60.730
G1 Z0.400
G1 F240 E96.19497
G1 F480 X33.327 Y65.677 E96.51272
G0 F10500 X33.135 Y65.767
G0 X26.431 Y65.912
G0 X26.306 Y66.081
G1 F480 X25.155 Y64.930 E96.58665
G0 F10500 X24.704 Y65.539
G1 F480 X23.968 Y65.334 E96.60974
G1 X23.215 Y65.111 E96.64541
G0 F10500 X21.974 Y64.510
G1 F240 E94.64541
G1 Z0.500
G0 F10500 X23.589 Y85.461
;TYPE:WALL-OUTER
G1 Z0.400
G1 F240 E96.64541
G1 F480 X23.997 Y85.463 E96.66394
G1 X25.010 Y85.512 E96.71000
G1 X25.992 Y85.658 E96.75509
G1 X26.995 Y85.904 E96.80200
G1 X27.984 Y86.254 E96.84965
G1 X28.973 Y86.716 E96.89923
G1 X29.840 Y87.235 E96.94512
G1 X30.659 Y87.838 E96.99131
G1 X31.478 Y88.574 E97.04132
G1 X32.146 Y89.310 E97.08647
G1 X32.769 Y90.142 E97.13368
G1 X33.317 Y91.047 E97.18173
G1 X33.336 Y91.080 E97.18346
G1 X33.760 Y91.977 E97.22852
G1 X34.115 Y92.952 E97.27565
G1 X34.373 Y93.966 E97.32317
G1 X34.537 Y95.035 E97.37229
G1 X34.587 Y96.053 E97.41858
G1 X34.590 Y103.708 E97.76626
G1 X34.586 Y104.094 E97.78380
G1 X34.497 Y104.766 E97.81458
G1 X34.235 Y105.398 E97.84566
G1 X33.821 Y105.937 E97.87653
G1 X33.273 Y106.357 E97.90788
G1 X32.643 Y106.618 E97.93886
G1 X31.976 Y106.706 E97.96941
G1 X17.991 Y106.711 E98.60460
G1 X16.769 Y106.550 E98.66058
G1 X15.668 Y106.094 E98.71470
G1 X15.654 Y106.088 E98.71539
G1 X14.697 Y105.353 E98.77020
G1 X13.962 Y104.395 E98.82504
G1 X13.505 Y103.292 E98.87927
G1 X13.500 Y103.281 E98.87982
G1 X13.348 Y102.118 E98.93309
G1 X13.340 Y88.112 E99.56922
G1 X13.433 Y87.406 E99.60157
G1 X13.695 Y86.775 E99.63260
G1 X14.111 Y86.231 E99.66370
G1 X14.654 Y85.815 E99.69477
G1 X15.286 Y85.554 E99.72583
G1 X15.954 Y85.466 E99.75643
G1 X23.589 Y85.461 E100.10320
G0 F10500 X23.965 Y86.208
G1 F480 X23.349 Y86.289 E100.13142
G1 X22.776 Y86.525 E100.15957
G1 X22.283 Y86.904 E100.18781
G1 X21.905 Y87.397 E100.21602
G1 X21.668 Y87.970 E100.24419
G1 X21.587 Y88.586 E100.27241
G1 X21.668 Y89.201 E100.30058
G1 X21.905 Y89.775 E100.32879
G1 X22.283 Y90.267 E100.35697
G1 X22.718 Y90.602 E100.38190
G1 X22.778 Y90.646 E100.38528
G1 X23.349 Y90.882 E100.41334
G1 X23.965 Y90.964 E100.44157
G1 X24.580 Y90.882 E100.46975
G1 X25.154 Y90.646 E100.49794
G1 X25.646 Y90.267 E100.52614
G1 X26.025 Y89.775 E100.55435
G1 X26.262 Y89.201 E100.58256
G1 X26.343 Y88.586 E100.61073
G1 X26.262 Y87.970 E100.63895
G1 X26.025 Y87.397 E100.66711
G1 X25.647 Y86.904 E100.69533
G1 X25.154 Y86.525 E100.72357
G1 X24.580 Y86.289 E100.75176
G1 X23.965 Y86.208 E100.77993
G1 F240 E98.77993
G1 Z0.500
G0 F10500 X24.062 Y91.721
G1 Z0.400
G1 F240 E100.77993
G1 F480 X23.968 Y91.707 E100.78425
G1 X22.852 Y91.851 E100.83536
G1 X21.808 Y92.279 E100.88660
G1 X20.915 Y92.952 E100.93739
G1 X20.839 Y93.026 E100.94221
G1 X20.187 Y93.876 E100.99086
G1 X19.741 Y94.937 E101.04314
G1 X19.605 Y95.969 E101.09042
G1 X19.585 Y96.068 E101.09500
G1 X19.733 Y97.212 E101.14739
G1 X20.167 Y98.262 E101.19900
G1 X20.866 Y99.178 E101.25133
G1 X21.774 Y99.875 E101.30332
G1 X22.829 Y100.313 E101.35520
G1 X23.965 Y100.464 E101.40725
G1 X25.112 Y100.309 E101.45982
G1 X26.090 Y99.906 E101.50786
G1 X26.177 Y99.861 E101.51231
G1 X27.002 Y99.228 E101.55954
G1 X27.075 Y99.165 E101.56392
G1 X27.710 Y98.337 E101.61131
G1 X27.765 Y98.257 E101.61572
G1 X28.164 Y97.291 E101.66319
G1 X28.197 Y97.200 E101.66759
G1 X28.332 Y96.170 E101.71477
G1 X28.343 Y96.074 E101.71916
G1 X28.206 Y95.035 E101.76676
G1 X28.190 Y94.939 E101.77118
G1 X27.791 Y93.977 E101.81848
G1 X27.752 Y93.889 E101.82285
G1 X27.116 Y93.062 E101.87024
G1 X27.057 Y92.986 E101.87461
G1 X26.226 Y92.348 E101.92219
G1 X26.149 Y92.291 E101.92654
G1 X25.186 Y91.893 E101.97387
G1 X25.096 Y91.856 E101.97829
G1 X24.062 Y91.721 E102.02565
G0 F10500 X24.133 Y91.252
G0 X24.051 Y91.192
G0 X25.244 Y91.298
G0 X27.570 Y92.710
G0 X28.968 Y94.715
G0 X29.405 Y94.897
G1 F480 X29.168 Y95.470 E102.05381
G1 X29.087 Y96.086 E102.08203
G1 X29.168 Y96.701 E102.11021
G1 X29.405 Y97.275 E102.13841
G1 X29.783 Y97.767 E102.16659
G1 X30.218 Y98.102 E102.19153
G1 X30.278 Y98.146 E102.19491
G1 X30.849 Y98.382 E102.22297
G1 X31.465 Y98.464 E102.25119
G1 X32.080 Y98.382 E102.27937
G1 X32.654 Y98.146 E102.30756
G1 X33.146 Y97.767 E102.33577
G1 X33.525 Y97.275 E102.36398
G1 X33.762 Y96.701 E102.39218
G1 X33.843 Y96.086 E102.42035
G1 X33.762 Y95.470 E102.44857
G1 X33.525 Y94.897 E102.47674
G1 X33.147 Y94.404 E102.50495
G1 X32.654 Y94.025 E102.53320
G1 X32.080 Y93.789 E102.56138
G1 X31.465 Y93.708 E102.58956
G1 X30.849 Y93.789 E102.61778
G1 X30.276 Y94.025 E102.64592
G1 X29.783 Y94.404 E102.67417
G1 X29.405 Y94.897 E102.70238
G0 F10500 X29.330 Y94.561
;TYPE:SKIN
G1 F480 X25.489 Y90.719 E102.94913
G0 F10500 X26.029 Y90.199
G1 F480 X29.849 Y94.019 E103.19449
G0 F10500 X30.527 Y93.636
G1 F480 X26.412 Y89.521 E103.45881
G0 F10500 X26.599 Y88.647
G1 F480 X31.401 Y93.450 E103.76728
G0 F10500 X31.376 Y93.241
G0 X32.228 Y93.230
G0 X32.999 Y93.693
G0 X32.871 Y93.859
G1 F480 X26.187 Y87.175 E104.19661
G0 F10500 X25.372 Y86.360
G1 F480 X24.338 Y85.856 E104.23492
G1 X23.352 Y85.931 E104.24923
G1 X22.483 Y86.122 E104.27553
G1 X21.556 Y85.726 E104.32131
G0 F10500 X20.496 Y85.727
G1 F480 X21.830 Y87.061 E104.40700
G0 F10500 X21.470 Y87.761
G1 F480 X19.436 Y85.727 E104.53764
G0 F10500 X18.376 Y85.728
G1 F480 X21.336 Y88.688 E104.72777
G0 F10500 X21.125 Y88.714
G0 X21.405 Y90.064
G0 X22.234 Y91.592
G0 X22.312 Y91.785
G1 F480 X16.254 Y85.728 E105.11685
G0 F10500 X15.299 Y85.833
G1 F480 X21.583 Y92.116 E105.52045
G0 F10500 X20.978 Y92.573
G1 F480 X14.596 Y86.190 E105.93041
G0 F10500 X14.066 Y86.721
G1 F480 X20.448 Y93.103 E106.34034
G0 F10500 X20.282 Y92.974
G0 X21.550 Y91.764
G0 X23.109 Y91.339
G0 X23.135 Y91.547
G1 F480 X17.315 Y85.728 E106.71414
G0 F10500 X17.315 Y85.941
G0 X13.905 Y87.508
G0 X13.709 Y87.425
G1 F480 X19.987 Y93.703 E107.11739
G0 F10500 X19.663 Y94.440
G1 F480 X13.602 Y88.379 E107.50670
G0 F10500 X13.603 Y89.440
G1 F480 X19.432 Y95.269 E107.88110
G0 F10500 X19.342 Y96.240
G1 F480 X13.604 Y90.501 E108.24970
G0 F10500 X13.604 Y91.562
G1 F480 X19.587 Y97.546 E108.63403
G0 F10500 X19.390 Y97.626
G0 X13.815 Y97.930
G0 X13.608 Y97.930
G1 F480 X22.123 Y106.445 E109.18096
G0 F10500 X23.183 Y106.445
G1 F480 X13.607 Y96.869 E109.79605
G0 F10500 X13.606 Y95.808
G1 F480 X24.243 Y106.445 E110.47928
G0 F10500 X25.303 Y106.444
G1 F480 X13.606 Y94.746 E111.23063
G0 F10500 X13.605 Y93.685
G1 F480 X26.364 Y106.444 E112.05017
G0 F10500 X27.424 Y106.443
G1 F480 X13.604 Y92.623 E112.93785
G0 F10500 X13.815 Y92.623
G0 X13.815 Y98.992
G0 X13.608 Y98.992
G1 F480 X21.063 Y106.446 E113.41667
G0 F10500 X20.002 Y106.446
G1 F480 X13.609 Y100.053 E113.82730
G0 F10500 X13.610 Y101.114
G1 F480 X18.942 Y106.447 E114.16982
G0 F10500 X17.862 Y106.428
G1 F480 X13.622 Y102.187 E114.44219
G0 F10500 X13.877 Y103.503
G1 F480 X16.547 Y106.172 E114.61366
G0 F10500 X16.628 Y105.978
G0 X22.422 Y100.657
G0 X22.503 Y100.462
G1 F480 X28.484 Y106.442 E114.99780
G0 F10500 X29.545 Y106.442
G1 F480 X23.809 Y100.707 E115.36620
G0 F10500 X24.781 Y100.618
G1 F480 X30.604 Y106.442 E115.74025
G0 F10500 X31.665 Y106.442
G1 F480 X25.610 Y100.387 E116.12918
G0 F10500 X26.346 Y100.062
G1 F480 X32.623 Y106.339 E116.53236
G0 F10500 X33.326 Y105.981
G1 F480 X26.947 Y99.602 E116.94210
G0 F10500 X27.476 Y99.071
G1 F480 X33.860 Y105.455 E117.35215
G0 F10500 X34.218 Y104.752
G1 F480 X27.936 Y98.470 E117.75566
G0 F10500 X28.263 Y97.737
G1 F480 X34.326 Y103.799 E118.14506
G0 F10500 X34.327 Y102.739
G1 F480 X28.499 Y96.911 E118.51941
G0 F10500 X28.835 Y96.187
G1 F480 X28.627 Y95.979 E118.53043
G1 X28.880 Y95.702 E118.54325
G1 X28.352 Y94.643 E118.59699
G0 F10500 X28.547 Y94.563
G0 X27.570 Y92.710
G0 X26.432 Y91.788
G0 X25.489 Y91.505
G0 X25.409 Y91.701
G1 F480 X24.448 Y91.269 E118.63687
G1 X23.884 Y91.236 E118.64980
G1 X24.026 Y91.378 E118.65892
G1 F240 E116.65892
G1 Z0.500
G0 F10500 X26.003 Y85.931
G1 Z0.400
G1 F240 E118.65892
G1 F480 X34.119 Y94.046 E119.18020
G0 F10500 X33.687 Y94.675
G1 F480 X34.191 Y95.710 E119.21854
G1 X34.118 Y96.697 E119.23298
G1 X33.926 Y97.565 E119.25936
G1 X34.325 Y98.495 E119.30533
G0 F10500 X34.325 Y99.556
G1 F480 X32.989 Y98.219 E119.39117
G0 F10500 X32.288 Y98.579
G1 F480 X34.325 Y100.617 E119.52204
G0 F10500 X34.326 Y101.678
G1 F480 X31.363 Y98.714 E119.71239
G1 F240 E117.71239
G1 Z0.500
G0 F10500 X33.692 Y92.558
G1 Z0.400
G1 F240 E119.71239
G1 F480 X27.493 Y86.359 E120.11057
G0 F10500 X27.423 Y86.558
G0 X29.470 Y87.566
G0 X29.579 Y87.385
G1 F480 X32.657 Y90.462 E120.30824
G1 F240 E118.30824
G1 Z0.500
G0 F10500 X26.995 Y111.904
;TYPE:WALL-OUTER
G1 Z0.400
G1 F240 E120.30824
G1 F480 X27.984 Y112.254 E120.35589
G1 X28.973 Y112.716 E120.40547
G1 X29.840 Y113.235 E120.45136
G1 X30.659 Y113.838 E120.49756
G1 X31.478 Y114.574 E120.54757
G1 X32.146 Y115.310 E120.59271
G1 X32.769 Y116.142 E120.63992
G1 X33.317 Y117.047 E120.68797
G1 X33.336 Y117.080 E120.68970
G1 X33.760 Y117.977 E120.73476
G1 X34.115 Y118.952 E120.78189
G1 X34.373 Y119.966 E120.82941
G1 X34.537 Y121.035 E120.87853
G1 X34.587 Y122.053 E120.92483
G1 X34.590 Y129.708 E121.27251
G1 X34.586 Y130.094 E121.29004
G1 X34.497 Y130.766 E121.32083
G1 X34.235 Y131.398 E121.35190
G1 X33.821 Y131.937 E121.38277
G1 X33.273 Y132.357 E121.41413
G1 X32.643 Y132.618 E121.44510
G1 X31.976 Y132.706 E121.47566
G1 X17.991 Y132.711 E122.11084
G1 X16.769 Y132.550 E122.16682
G1 X15.668 Y132.094 E122.22095
G1 X15.654 Y132.088 E122.22164
G1 X14.697 Y131.353 E122.27644
G1 X13.962 Y130.395 E122.33129
G1 X13.505 Y129.292 E122.38551
G1 X13.500 Y129.281 E122.38606
G1 X13.348 Y128.118 E122.43933
G1 X13.340 Y114.112 E123.07547
G1 X13.433 Y113.406 E123.10781
G1 X13.695 Y112.775 E123.13884
G1 X14.111 Y112.231 E123.16995
G1 X14.654 Y111.815 E123.20101
G1 X15.286 Y111.554 E123.23207
G1 X15.954 Y111.466 E123.26267
G1 X23.589 Y111.461 E123.60944
G1 X23.997 Y111.463 E123.62798
G1 X25.010 Y111.512 E123.67404
G1 X25.992 Y111.658 E123.71913
G1 X26.995 Y111.904 E123.76603
G0 F10500 X26.859 Y112.359
G0 X25.936 Y112.528
G0 X25.647 Y112.904
G1 F480 X25.154 Y112.525 E123.79428
G1 X24.580 Y112.289 E123.82247
G1 X23.965 Y112.208 E123.85064
G1 X23.349 Y112.289 E123.87886
G1 X22.776 Y112.525 E123.90700
G1 X22.283 Y112.904 E123.93525
G1 X21.905 Y113.397 E123.96346
G1 X21.668 Y113.970 E123.99163
G1 X21.587 Y114.586 E124.01985
G1 X21.668 Y115.201 E124.04802
G1 X21.905 Y115.775 E124.07622
G1 X22.283 Y116.267 E124.10440
G1 X22.718 Y116.602 E124.12934
G1 X22.778 Y116.646 E124.13272
G1 X23.349 Y116.882 E124.16078
G1 X23.965 Y116.964 E124.18901
G1 X24.580 Y116.882 E124.21719
G1 X25.154 Y116.646 E124.24538
G1 X25.646 Y116.267 E124.27358
G1 X26.025 Y115.775 E124.30179
G1 X26.262 Y115.201 E124.33000
G1 X26.343 Y114.586 E124.35817
G1 X26.262 Y113.970 E124.38639
G1 X26.025 Y113.397 E124.41455
G1 X25.647 Y112.904 E124.44277
G0 F10500 X25.936 Y112.528
G0 X26.821 Y113.821
G0 X26.821 Y115.350
G0 X26.055 Y116.676
G0 X25.356 Y117.450
G0 X25.186 Y117.893
G1 F480 X25.096 Y117.856 E124.44719
G1 X24.062 Y117.721 E124.49455
G1 X23.968 Y117.707 E124.49886
G1 X22.852 Y117.851 E124.54997
G1 X21.808 Y118.279 E124.60122
G1 X20.915 Y118.952 E124.65201
G1 X20.839 Y119.026 E124.65682
G1 X20.187 Y119.876 E124.70548
G1 X19.741 Y120.937 E124.75775
G1 X19.605 Y121.969 E124.80503
G1 X19.585 Y122.068 E124.80962
G1 X19.733 Y123.212 E124.86201
G1 X20.167 Y124.262 E124.91361
G1 X20.866 Y125.178 E124.96595
G1 X21.774 Y125.875 E125.01794
G1 X22.829 Y126.313 E125.06982
G1 X23.965 Y126.464 E125.12187
G1 X25.112 Y126.309 E125.17444
G1 X26.090 Y125.906 E125.22248
G1 X26.177 Y125.861 E125.22693
G1 X27.002 Y125.228 E125.27416
G1 X27.075 Y125.165 E125.27854
G1 X27.710 Y124.337 E125.32593
G1 X27.765 Y124.257 E125.33034
G1 X28.164 Y123.291 E125.37781
G1 X28.197 Y123.200 E125.38221
G1 X28.332 Y122.170 E125.42939
G1 X28.343 Y122.074 E125.43378
G1 X28.206 Y121.035 E125.48137
G1 X28.190 Y120.939 E125.48579
G1 X27.791 Y119.977 E125.53310
G1 X27.752 Y119.889 E125.53747
G1 X27.116 Y119.062 E125.58485
G1 X27.057 Y118.986 E125.58922
G1 X26.226 Y118.348 E125.63681
G1 X26.149 Y118.291 E125.64116
G1 X25.186 Y117.893 E125.68848
G0 F10500 X25.356 Y117.450
G0 X26.572 Y117.890
G0 X28.320 Y119.752
G0 X28.968 Y120.715
G0 X29.405 Y120.897
G1 F480 X29.168 Y121.470 E125.71665
G1 X29.087 Y122.086 E125.74487
G1 X29.168 Y122.701 E125.77304
G1 X29.405 Y123.275 E125.80125
G1 X29.783 Y123.767 E125.82942
G1 X30.218 Y124.102 E125.85436
G1 X30.278 Y124.146 E125.85774
G1 X30.849 Y124.382 E125.88580
G1 X31.465 Y124.464 E125.91403
G1 X32.080 Y124.382 E125.94221
G1 X32.654 Y124.146 E125.97040
G1 X33.146 Y123.767 E125.99860
G1 X33.525 Y123.275 E126.02681
G1 X33.762 Y122.701 E126.05502
G1 X33.843 Y122.086 E126.08319
G1 X33.762 Y121.470 E126.11141
G1 X33.525 Y120.897 E126.13957
G1 X33.147 Y120.404 E126.16779
G1 X32.654 Y120.025 E126.19603
G1 X32.080 Y119.789 E126.22422
G1 X31.465 Y119.708 E126.25239
G1 X30.849 Y119.789 E126.28061
G1 X30.276 Y120.025 E126.30876
G1 X29.783 Y120.404 E126.33700
G1 X29.405 Y120.897 E126.36522
G0 F10500 X29.129 Y120.876
;TYPE:SKIN
G1 F480 X27.891 Y119.638 E126.44473
G0 F10500 X28.060 Y119.510
G0 X29.400 Y120.125
G0 X29.567 Y120.254
G1 F480 X25.795 Y116.482 E126.68702
G0 F10500 X26.261 Y115.887
G1 F480 X30.160 Y119.786 E126.93746
G0 F10500 X30.945 Y119.510
G1 F480 X26.539 Y115.104 E127.22046
G0 F10500 X26.535 Y114.040
G1 F480 X32.009 Y119.513 E127.57204
G0 F10500 X32.037 Y119.305
G0 X33.732 Y119.373
G0 X33.938 Y119.321
G1 F480 X26.725 Y112.108 E128.03534
G0 F10500 X25.390 Y111.833
G1 F480 X34.213 Y120.657 E128.60209
G0 F10500 X34.035 Y121.540
G1 F480 X34.175 Y122.210 E128.61983
G1 X34.043 Y123.139 E128.63818
G1 X33.810 Y123.966 E128.67429
G1 X34.325 Y125.012 E128.72725
G0 F10500 X34.326 Y126.073
G1 F480 X32.674 Y124.421 E128.83336
G0 F10500 X31.867 Y124.674
G1 F480 X34.326 Y127.134 E128.99134
G0 F10500 X34.327 Y128.195
G1 F480 X30.760 Y124.628 E129.22045
G0 F10500 X30.677 Y124.825
G0 X29.375 Y124.176
G0 X28.723 Y122.869
G0 X28.920 Y122.789
G1 F480 X28.718 Y122.057 E129.24345
G1 X28.508 Y121.316 E129.27843
G1 F240 E127.27843
G1 Z0.500
G0 F10500 X28.421 Y123.350
G1 Z0.400
G1 F240 E129.27843
G1 F480 X34.327 Y129.256 E129.65778
G0 F10500 X34.295 Y130.285
G1 F480 X28.112 Y124.102 E130.05493
G0 F10500 X27.712 Y124.763
G1 F480 X34.066 Y131.117 E130.46305
G0 F10500 X33.634 Y131.746
G1 F480 X27.250 Y125.361 E130.87314
G0 F10500 X26.655 Y125.826
G1 F480 X33.008 Y132.180 E131.28124
G0 F10500 X32.180 Y132.412
G1 F480 X25.996 Y126.228 E131.67845
G0 F10500 X25.245 Y126.538
G1 F480 X31.149 Y132.442 E132.05767
G0 F10500 X30.088 Y132.442
G1 F480 X24.325 Y126.679 E132.42784
G0 F10500 X23.214 Y126.628
G1 F480 X29.028 Y132.443 E132.80132
G0 F10500 X27.968 Y132.443
G1 F480 X21.583 Y126.058 E133.21144
G0 F10500 X21.454 Y126.227
G0 X21.606 Y132.234
G0 X21.606 Y132.445
G1 F480 X13.608 Y124.447 E133.72516
G0 F10500 X13.608 Y125.508
G1 F480 X20.545 Y132.445 E134.17074
G0 F10500 X20.545 Y132.235
G0 X22.666 Y132.234
G0 X22.666 Y132.444
G1 F480 X13.607 Y123.385 E134.75262
G0 F10500 X13.607 Y122.325
G1 F480 X23.726 Y132.444 E135.40258
G0 F10500 X24.787 Y132.444
G1 F480 X13.606 Y121.263 E136.12076
G0 F10500 X13.606 Y120.202
G1 F480 X25.847 Y132.443 E136.90702
G0 F10500 X26.908 Y132.443
G1 F480 X13.605 Y119.141 E137.76146
G0 F10500 X13.604 Y118.079
G1 F480 X19.997 Y124.472 E138.17210
G0 F10500 X19.819 Y124.594
G0 X19.209 Y122.858
G0 X19.418 Y122.832
G1 F480 X13.604 Y117.018 E138.54554
G0 F10500 X13.603 Y115.957
G1 F480 X19.372 Y121.726 E138.91609
G0 F10500 X19.511 Y120.804
G1 F480 X13.602 Y114.895 E139.29564
G0 F10500 X13.636 Y113.868
G1 F480 X19.825 Y120.057 E139.69317
G0 F10500 X19.631 Y119.975
G0 X13.815 Y126.569
G0 X13.609 Y126.569
G1 F480 X19.485 Y132.446 E140.07063
G0 F10500 X18.425 Y132.446
G1 F480 X13.610 Y127.631 E140.37990
G0 F10500 X13.700 Y128.781
G1 F480 X17.267 Y132.349 E140.60905
G0 F10500 X17.294 Y132.140
G0 X15.610 Y131.457
G0 X15.482 Y131.624
G1 F480 X14.432 Y130.574 E140.67650
G0 F10500 X14.599 Y130.447
G0 X20.057 Y119.267
G0 X20.223 Y119.395
G1 F480 X13.868 Y113.040 E141.08469
G0 F10500 X14.304 Y112.415
G1 F480 X20.689 Y118.801 E141.49484
G0 F10500 X21.288 Y118.338
G1 F480 X14.933 Y111.983 E141.90303
G0 F10500 X15.765 Y111.755
G1 F480 X21.946 Y117.936 E142.30005
G0 F10500 X22.698 Y117.627
G1 F480 X16.798 Y111.727 E142.67902
G0 F10500 X17.859 Y111.727
G1 F480 X21.421 Y115.289 E142.90781
G0 F10500 X21.375 Y114.182
G1 F480 X18.920 Y111.727 E143.06550
G0 F10500 X19.980 Y111.727
G1 F480 X21.629 Y113.376 E143.17142
G0 F10500 X22.067 Y112.753
G1 F480 X21.570 Y111.727 E143.23728
G1 X22.910 Y112.006 E143.27317
G1 X23.838 Y111.873 E143.29128
G1 X24.509 Y112.014 E143.32243
G1 F240 E141.32243
G1 Z0.500
G0 F10500 X28.430 Y112.753
G1 Z0.400
G1 F240 E143.32243
G1 F480 X33.303 Y117.625 E143.63540
G0 F10500 X33.111 Y117.715
G0 X26.536 Y117.989
G0 X26.408 Y118.155
G1 F480 X25.174 Y116.921 E143.71466
G0 F10500 X24.735 Y117.543
G1 F480 X23.991 Y117.330 E143.73828
G1 X23.260 Y117.128 E143.77272
G1 F240 E141.77272
G1 Z0.500
G0 F10500 X39.340 Y114.112
;TYPE:WALL-OUTER
G1 Z0.400
G1 F240 E143.77272
G1 F480 X39.433 Y113.406 E143.80507
G1 X39.695 Y112.775 E143.83610
G1 X40.111 Y112.231 E143.86720
G1 X40.654 Y111.815 E143.89827
G1 X41.286 Y111.554 E143.92933
G1 X41.954 Y111.466 E143.95993
G1 X49.589 Y111.461 E144.30670
G1 X49.997 Y111.463 E144.32523
G1 X51.010 Y111.512 E144.37129
G1 X51.992 Y111.658 E144.41639
G1 X52.995 Y111.904 E144.46329
G1 X53.984 Y112.254 E144.51094
G1 X54.973 Y112.716 E144.56052
G1 X55.840 Y113.235 E144.60641
G1 X56.659 Y113.838 E144.65261
G1 X57.478 Y114.574 E144.70262
G1 X58.146 Y115.310 E144.74776
G1 X58.769 Y116.142 E144.79497
G1 X59.317 Y117.047 E144.84302
G1 X59.336 Y117.080 E144.84475
G1 X59.760 Y117.977 E144.88981
G1 X60.115 Y118.952 E144.93694
G1 X60.373 Y119.966 E144.98446
G1 X60.537 Y121.035 E145.03358
G1 X60.587 Y122.053 E145.07988
G1 X60.590 Y129.708 E145.42756
G1 X60.586 Y130.094 E145.44509
G1 X60.497 Y130.766 E145.47588
G1 X60.235 Y131.398 E145.50695
G1 X59.821 Y131.937 E145.53782
G1 X59.273 Y132.357 E145.56918
G1 X58.643 Y132.618 E145.60015
G1 X57.976 Y132.706 E145.63071
G1 X43.991 Y132.711 E146.26589
G1 X42.769 Y132.550 E146.32187
G1 X41.668 Y132.094 E146.37600
G1 X41.654 Y132.088 E146.37669
G1 X40.697 Y131.353 E146.43149
G1 X39.962 Y130.395 E146.48633
G1 X39.505 Y129.292 E146.54056
G1 X39.500 Y129.281 E146.54111
G1 X39.348 Y128.118 E146.59438
G1 X39.340 Y114.112 E147.23052
G0 F10500 X39.815 Y114.141
G0 X47.117 Y114.525
G0 X47.587 Y114.586
G1 F480 X47.668 Y115.201 E147.25869
G1 X47.905 Y115.775 E147.28690
G1 X48.283 Y116.267 E147.31508
G1 X48.718 Y116.602 E147.34001
G1 X48.778 Y116.646 E147.34339
G1 X49.349 Y116.882 E147.37145
G1 X49.965 Y116.964 E147.39968
G1 X50.580 Y116.882 E147.42786
G1 X51.154 Y116.646 E147.45605
G1 X51.646 Y116.267 E147.48425
G1 X52.025 Y115.775 E147.51246
G1 X52.262 Y115.201 E147.54067
G1 X52.343 Y114.586 E147.56884
G1 X52.262 Y113.970 E147.59706
G1 X52.025 Y113.397 E147.62522
G1 X51.647 Y112.904 E147.65344
G1 X51.154 Y112.525 E147.68168
G1 X50.580 Y112.289 E147.70987
G1 X49.965 Y112.208 E147.73804
G1 X49.349 Y112.289 E147.76626
G1 X48.776 Y112.525 E147.79441
G1 X48.283 Y112.904 E147.82265
G1 X47.905 Y113.397 E147.85087
G1 X47.668 Y113.970 E147.87903
G1 X47.587 Y114.586 E147.90725
G0 F10500 X47.117 Y114.525
G0 X47.405 Y116.064
G0 X48.674 Y117.412
G0 X48.852 Y117.851
G1 F480 X47.808 Y118.279 E147.95850
G1 X46.915 Y118.952 E148.00928
G1 X46.839 Y119.026 E148.01410
G1 X46.187 Y119.876 E148.06276
G1 X45.741 Y120.937 E148.11503
G1 X45.605 Y121.969 E148.16231
G1 X45.585 Y122.068 E148.16689
G1 X45.733 Y123.212 E148.21929
G1 X46.167 Y124.262 E148.27089
G1 X46.866 Y125.178 E148.32322
G1 X47.774 Y125.875 E148.37521
G1 X48.829 Y126.313 E148.42709
G1 X49.965 Y126.464 E148.47914
G1 X51.112 Y126.309 E148.53171
G1 X52.090 Y125.906 E148.57976
G1 X52.177 Y125.861 E148.58420
G1 X53.002 Y125.228 E148.63143
G1 X53.075 Y125.165 E148.63581
G1 X53.710 Y124.337 E148.68321
G1 X53.765 Y124.257 E148.68762
G1 X54.164 Y123.291 E148.73509
G1 X54.197 Y123.200 E148.73948
G1 X54.332 Y122.170 E148.78666
G1 X54.343 Y122.074 E148.79105
G1 X54.206 Y121.035 E148.83865
G1 X54.190 Y120.939 E148.84307
G1 X53.791 Y119.977 E148.89037
G1 X53.752 Y119.889 E148.89474
G1 X53.116 Y119.062 E148.94213
G1 X53.057 Y118.986 E148.94650
G1 X52.226 Y118.348 E148.99408
G1 X52.149 Y118.291 E148.99843
G1 X51.186 Y117.893 E149.04576
G1 X51.096 Y117.856 E149.05018
G1 X50.062 Y117.721 E149.09754
G1 X49.968 Y117.707 E149.10186
G1 X48.852 Y117.851 E149.15297
G1 F240 E147.15297
G1 Z0.500
G0 F10500 X55.405 Y120.897
G1 Z0.400
G1 F240 E149.15297
G1 F480 X55.168 Y121.470 E149.18113
G1 X55.087 Y122.086 E149.20935
G1 X55.168 Y122.701 E149.23752
G1 X55.405 Y123.275 E149.26573
G1 X55.783 Y123.767 E149.29391
G1 X56.218 Y124.102 E149.31884
G1 X56.278 Y124.146 E149.32222
G1 X56.849 Y124.382 E149.35028
G1 X57.465 Y124.464 E149.37851
G1 X58.080 Y124.382 E149.40669
G1 X58.654 Y124.146 E149.43488
G1 X59.146 Y123.767 E149.46308
G1 X59.525 Y123.275 E149.49129
G1 X59.762 Y122.701 E149.51950
G1 X59.843 Y122.086 E149.54767
G1 X59.762 Y121.470 E149.57589
G1 X59.525 Y120.897 E149.60405
G1 X59.147 Y120.404 E149.63227
G1 X58.654 Y120.025 E149.66051
G1 X58.080 Y119.789 E149.68870
G1 X57.465 Y119.708 E149.71687
G1 X56.849 Y119.789 E149.74509
G1 X56.276 Y120.025 E149.77324
G1 X55.783 Y120.404 E149.80148
G1 X55.405 Y120.897 E149.82970
G0 F10500 X55.330 Y120.560
;TYPE:SKIN
G1 F480 X51.489 Y116.719 E150.07641
G0 F10500 X52.028 Y116.198
G1 F480 X55.849 Y120.019 E150.32184
G0 F10500 X55.723 Y119.852
G0 X54.905 Y120.608
G0 X54.775 Y121.179
G0 X54.970 Y121.261
G1 F480 X54.471 Y121.293 E150.36148
G1 X54.813 Y122.165 E150.37436
G1 X54.663 Y122.015 E150.38399
G0 F10500 X54.499 Y122.912
G1 F480 X60.326 Y128.739 E150.75827
G0 F10500 X60.326 Y129.799
G1 F480 X54.264 Y123.737 E151.14764
G0 F10500 X53.936 Y124.470
G1 F480 X60.217 Y130.751 E151.55108
G0 F10500 X60.023 Y130.670
G0 X60.114 Y127.678
G0 X60.326 Y127.678
G1 F480 X57.362 Y124.714 E151.74147
G0 F10500 X58.288 Y124.579
G1 F480 X60.326 Y126.617 E151.87237
G0 F10500 X60.325 Y125.556
G1 F480 X58.988 Y124.219 E151.95825
G0 F10500 X59.529 Y123.699
G1 F480 X60.324 Y123.964 E152.00930
G1 X59.912 Y123.021 E152.05604
G1 F240 E150.05604
G1 Z0.500
G0 F10500 X60.285 Y121.273
G1 Z0.400
G1 F240 E152.05604
G1 F480 X59.687 Y120.675 E152.09445
G1 F240 E150.09445
G1 Z0.500
G0 F10500 X53.477 Y125.071
G1 Z0.400
G1 F240 E152.09445
G1 F480 X59.860 Y131.455 E152.50448
G0 F10500 X59.326 Y131.982
G1 F480 X52.946 Y125.601 E152.91431
G0 F10500 X52.346 Y126.062
G1 F480 X58.623 Y132.339 E153.31749
G0 F10500 X57.665 Y132.442
G1 F480 X51.610 Y126.386 E153.70645
G0 F10500 X50.780 Y126.618
G1 F480 X56.605 Y132.442 E154.08056
G0 F10500 X55.545 Y132.443
G1 F480 X49.810 Y126.707 E154.44897
G0 F10500 X48.503 Y126.461
G1 F480 X54.484 Y132.443 E154.83317
G0 F10500 X53.424 Y132.443
G1 F480 X39.605 Y118.624 E155.72079
G0 F10500 X39.605 Y119.685
G1 F480 X52.364 Y132.443 E156.54029
G0 F10500 X51.304 Y132.444
G1 F480 X39.606 Y120.746 E157.29167
G0 F10500 X39.607 Y121.808
G1 F480 X50.243 Y132.444 E157.97484
G0 F10500 X49.183 Y132.445
G1 F480 X39.607 Y122.868 E158.58996
G0 F10500 X39.607 Y123.930
G1 F480 X48.122 Y132.445 E159.13689
G0 F10500 X47.062 Y132.446
G1 F480 X39.608 Y124.991 E159.61571
G0 F10500 X39.609 Y126.053
G1 F480 X46.002 Y132.446 E160.02634
G0 F10500 X44.942 Y132.446
G1 F480 X39.610 Y127.114 E160.36883
G0 F10500 X39.622 Y128.187
G1 F480 X43.862 Y132.427 E160.64117
G0 F10500 X42.547 Y132.173
G1 F480 X39.877 Y129.503 E160.81267
G0 F10500 X40.073 Y129.423
G0 X45.390 Y123.626
G0 X45.587 Y123.546
G1 F480 X39.604 Y117.562 E161.19700
G0 F10500 X39.603 Y116.501
G1 F480 X45.342 Y122.240 E161.56563
G0 F10500 X45.432 Y121.269
G1 F480 X39.603 Y115.440 E161.94004
G0 F10500 X39.602 Y114.379
G1 F480 X45.664 Y120.440 E162.32938
G0 F10500 X45.988 Y119.703
G1 F480 X39.708 Y113.424 E162.73272
G0 F10500 X40.066 Y112.721
G1 F480 X46.448 Y119.103 E163.14265
G0 F10500 X46.978 Y118.572
G1 F480 X40.596 Y112.190 E163.55258
G0 F10500 X41.299 Y111.833
G1 F480 X47.582 Y118.116 E163.95615
G0 F10500 X48.312 Y117.785
G1 F480 X42.254 Y111.727 E164.34526
G0 F10500 X43.315 Y111.727
G1 F480 X49.134 Y117.547 E164.71906
G0 F10500 X49.863 Y117.214
G1 F480 X50.068 Y117.420 E164.72962
G1 X50.347 Y117.168 E164.74269
G1 X51.410 Y117.701 E164.79670
G0 F10500 X51.490 Y117.506
G0 X52.609 Y115.604
G0 X52.412 Y115.522
G1 F480 X56.527 Y119.636 E165.06098
G0 F10500 X57.401 Y119.450
G1 F480 X52.599 Y114.648 E165.36942
G0 F10500 X52.809 Y114.676
G0 X52.821 Y113.821
G0 X52.355 Y113.049
G0 X52.188 Y113.175
G1 F480 X58.872 Y119.860 E165.79878
G0 F10500 X60.118 Y120.046
G1 F480 X52.003 Y111.930 E166.32005
G0 F10500 X51.372 Y112.359
G1 F480 X50.338 Y111.856 E166.35835
G1 X49.352 Y111.931 E166.37266
G1 X48.483 Y112.123 E166.39896
G1 X47.557 Y111.727 E166.44470
G0 F10500 X46.496 Y111.727
G1 F480 X47.830 Y113.061 E166.53039
G0 F10500 X47.470 Y113.761
G1 F480 X45.436 Y111.727 E166.66104
G0 F10500 X44.375 Y111.727
G1 F480 X47.336 Y114.688 E166.85123
G1 F240 E164.85123
G1 Z0.500
G0 F10500 X53.492 Y112.359
G1 Z0.400
G1 F240 E166.85123
G1 F480 X59.692 Y118.559 E167.24946
G0 F10500 X59.492 Y118.631
G0 X58.475 Y116.572
G0 X58.657 Y116.463
G1 F480 X55.580 Y113.385 E167.44714
G1 F240 E165.44714
G1 Z0.500
G0 F10500 X60.099 Y122.147
G1 Z0.400
G1 F240 E167.44714
G1 F480 X60.324 Y122.373 E167.46162
G1 F240 E165.46162
G1 Z0.500
G0 F10500 X57.976 Y106.706
;TYPE:WALL-OUTER
G1 Z0.400
G1 F240 E167.46162
G1 F480 X43.991 Y106.711 E168.09680
G1 X42.769 Y106.550 E168.15279
G1 X41.668 Y106.094 E168.20691
G1 X41.654 Y106.088 E168.20760
G1 X40.697 Y105.353 E168.26241
G1 X39.962 Y104.395 E168.31725
G1 X39.505 Y103.292 E168.37148
G1 X39.500 Y103.281 E168.37203
G1 X39.348 Y102.118 E168.42530
G1 X39.340 Y88.112 E169.06143
G1 X39.433 Y87.406 E169.09378
G1 X39.695 Y86.775 E169.12481
G1 X40.111 Y86.231 E169.15591
G1 X40.654 Y85.815 E169.18698
G1 X41.286 Y85.554 E169.21804
G1 X41.954 Y85.466 E169.24864
G1 X49.589 Y85.461 E169.59541
G1 X49.997 Y85.463 E169.61394
G1 X51.010 Y85.512 E169.66000
G1 X51.992 Y85.658 E169.70509
G1 X52.995 Y85.904 E169.75200
G1 X53.984 Y86.254 E169.79965
G1 X54.973 Y86.716 E169.84923
G1 X55.840 Y87.235 E169.89512
G1 X56.659 Y87.838 E169.94131
G1 X57.478 Y88.574 E169.99133
G1 X58.146 Y89.310 E170.03647
G1 X58.769 Y90.142 E170.08368
G1 X59.317 Y91.047 E170.13173
G1 X59.336 Y91.080 E170.13346
G1 X59.760 Y91.977 E170.17852
G1 X60.115 Y92.952 E170.22565
G1 X60.373 Y93.966 E170.27317
G1 X60.537 Y95.035 E170.32229
G1 X60.587 Y96.053 E170.36858
G1 X60.590 Y103.708 E170.71627
G1 X60.586 Y104.094 E170.73380
G1 X60.497 Y104.766 E170.76459
G1 X60.235 Y105.398 E170.79566
G1 X59.821 Y105.937 E170.82653
G1 X59.273 Y106.357 E170.85789
G1 X58.643 Y106.618 E170.88886
G1 X57.976 Y106.706 E170.91942
G0 F10500 X57.946 Y106.231
G0 X57.402 Y98.935
G0 X57.465 Y98.464
G1 F480 X58.080 Y98.382 E170.94760
G1 X58.654 Y98.146 E170.97578
G1 X59.146 Y97.767 E171.00399
G1 X59.525 Y97.275 E171.03220
G1 X59.762 Y96.701 E171.06040
G1 X59.843 Y96.086 E171.08858
G1 X59.762 Y95.470 E171.11680
G1 X59.525 Y94.897 E171.14496
G1 X59.147 Y94.404 E171.17318
G1 X58.654 Y94.025 E171.20142
G1 X58.080 Y93.789 E171.22961
G1 X57.465 Y93.708 E171.25778
G1 X56.849 Y93.789 E171.28600
G1 X56.276 Y94.025 E171.31414
G1 X55.783 Y94.404 E171.34239
G1 X55.405 Y94.897 E171.37060
G1 X55.168 Y95.470 E171.39877
G1 X55.087 Y96.086 E171.42699
G1 X55.168 Y96.701 E171.45516
G1 X55.405 Y97.275 E171.48336
G1 X55.783 Y97.767 E171.51154
G1 X56.218 Y98.102 E171.53648
G1 X56.278 Y98.146 E171.53986
G1 X56.849 Y98.382 E171.56792
G1 X57.465 Y98.464 E171.59615
G0 F10500 X57.402 Y98.935
G0 X55.871 Y98.559
G0 X54.611 Y97.450
G0 X54.164 Y97.291
G1 F480 X54.197 Y97.200 E171.60054
G1 X54.332 Y96.170 E171.64773
G1 X54.343 Y96.074 E171.65211
G1 X54.206 Y95.035 E171.69971
G1 X54.190 Y94.939 E171.70413
G1 X53.791 Y93.977 E171.75144
G1 X53.752 Y93.889 E171.75581
G1 X53.116 Y93.062 E171.80319
G1 X53.057 Y92.986 E171.80756
G1 X52.226 Y92.348 E171.85514
G1 X52.149 Y92.291 E171.85950
G1 X51.186 Y91.893 E171.90682
G1 X51.096 Y91.856 E171.91124
G1 X50.062 Y91.721 E171.95860
G1 X49.968 Y91.707 E171.96292
G1 X48.852 Y91.851 E172.01403
G1 X47.808 Y92.279 E172.06528
G1 X46.915 Y92.952 E172.11606
G1 X46.839 Y93.026 E172.12088
G1 X46.187 Y93.876 E172.16954
G1 X45.741 Y94.937 E172.22181
G1 X45.605 Y95.969 E172.26909
G1 X45.585 Y96.068 E172.27367
G1 X45.733 Y97.212 E172.32607
G1 X46.167 Y98.262 E172.37767
G1 X46.866 Y99.178 E172.43000
G1 X47.774 Y99.875 E172.48199
G1 X48.829 Y100.313 E172.53387
G1 X49.965 Y100.464 E172.58592
G1 X51.112 Y100.309 E172.63849
G1 X52.090 Y99.906 E172.68654
G1 X52.177 Y99.861 E172.69098
G1 X53.002 Y99.228 E172.73821
G1 X53.075 Y99.165 E172.74259
G1 X53.710 Y98.337 E172.78999
G1 X53.765 Y98.257 E172.79440
G1 X54.164 Y97.291 E172.84187
G1 F240 E170.84187
G1 Z0.500
G0 F10500 X51.154 Y90.646
G1 Z0.400
G1 F240 E172.84187
G1 F480 X51.646 Y90.267 E172.87007
G1 X52.025 Y89.775 E172.89828
G1 X52.262 Y89.201 E172.92649
G1 X52.343 Y88.586 E172.95466
G1 X52.262 Y87.970 E172.98288
G1 X52.025 Y87.397 E173.01104
G1 X51.647 Y86.904 E173.03926
G1 X51.154 Y86.525 E173.06750
G1 X50.580 Y86.289 E173.09569
G1 X49.965 Y86.208 E173.12386
G1 X49.349 Y86.289 E173.15208
G1 X48.776 Y86.525 E173.18023
G1 X48.283 Y86.904 E173.20847
G1 X47.905 Y87.397 E173.23669
G1 X47.668 Y87.970 E173.26485
G1 X47.587 Y88.586 E173.29307
G1 X47.668 Y89.201 E173.32124
G1 X47.905 Y89.775 E173.34945
G1 X48.283 Y90.267 E173.37763
G1 X48.718 Y90.602 E173.40256
G1 X48.778 Y90.646 E173.40594
G1 X49.349 Y90.882 E173.43400
G1 X49.965 Y90.964 E173.46223
G1 X50.580 Y90.882 E173.49041
G1 X51.154 Y90.646 E173.51860
G0 F10500 X51.154 Y90.929
;TYPE:SKIN
G1 F480 X52.301 Y92.075 E173.59224
G0 F10500 X52.426 Y91.906
G0 X51.909 Y90.664
G0 X51.780 Y90.494
G1 F480 X55.555 Y94.269 E173.83471
G0 F10500 X56.142 Y93.795
G1 F480 X52.253 Y89.907 E174.08448
G0 F10500 X52.535 Y89.128
G1 F480 X56.921 Y93.514 E174.36620
G0 F10500 X57.977 Y93.509
G1 F480 X52.540 Y88.072 E174.71543
G0 F10500 X52.752 Y88.046
G0 X52.637 Y86.305
G0 X52.687 Y86.098
G1 F480 X59.948 Y93.359 E175.18182
G0 F10500 X60.218 Y94.690
G1 F480 X51.357 Y85.828 E175.75101
G0 F10500 X50.477 Y86.009
G1 F480 X49.812 Y85.874 E175.76851
G1 X48.887 Y86.010 E175.78691
G1 X48.063 Y86.247 E175.82336
G1 X47.013 Y85.727 E175.87658
G0 F10500 X45.952 Y85.727
G1 F480 X47.621 Y87.396 E175.98378
G0 F10500 X47.371 Y88.207
G1 F480 X44.892 Y85.727 E176.14305
G0 F10500 X43.832 Y85.728
G1 F480 X47.441 Y89.337 E176.37486
G0 F10500 X47.243 Y89.418
G0 X47.875 Y90.676
G0 X49.129 Y91.305
G0 X49.212 Y91.108
G1 F480 X49.967 Y91.333 E176.39924
G1 X50.703 Y91.538 E176.43394
G1 F240 E174.43394
G1 Z0.500
G0 F10500 X48.679 Y91.636
G1 Z0.400
G1 F240 E176.43394
G1 F480 X42.771 Y85.728 E176.81342
G0 F10500 X41.741 Y85.759
G1 F480 X47.926 Y91.944 E177.21069
G0 F10500 X47.272 Y92.350
G1 F480 X40.913 Y85.991 E177.61915
G0 F10500 X40.290 Y86.428
G1 F480 X46.676 Y92.814 E178.02933
G0 F10500 X46.212 Y93.411
G1 F480 X39.860 Y87.059 E178.43733
G0 F10500 X39.634 Y87.894
G1 F480 X45.816 Y94.077 E178.83444
G0 F10500 X45.503 Y94.823
G1 F480 X39.602 Y88.923 E179.21344
G0 F10500 X39.603 Y89.984
G1 F480 X45.369 Y95.750 E179.58380
G0 F10500 X45.423 Y96.865
G1 F480 X39.604 Y91.046 E179.95757
G0 F10500 X39.605 Y92.107
G1 F480 X46.084 Y98.586 E180.37373
G0 F10500 X45.913 Y98.716
G0 X46.457 Y99.587
G0 X47.339 Y100.139
G0 X47.467 Y99.970
G1 F480 X53.940 Y106.443 E180.78950
G0 F10500 X52.880 Y106.443
G1 F480 X39.605 Y93.169 E181.64215
G0 F10500 X39.606 Y94.230
G1 F480 X51.820 Y106.444 E182.42667
G0 F10500 X50.759 Y106.444
G1 F480 X39.607 Y95.291 E183.14302
G0 F10500 X39.607 Y96.353
G1 F480 X49.699 Y106.445 E183.79125
G0 F10500 X48.639 Y106.445
G1 F480 X39.607 Y97.413 E184.37139
G0 F10500 X39.608 Y98.475
G1 F480 X47.579 Y106.445 E184.88335
G0 F10500 X46.518 Y106.445
G1 F480 X39.609 Y99.536 E185.32713
G0 F10500 X39.610 Y100.597
G1 F480 X45.458 Y106.446 E185.70279
G0 F10500 X44.397 Y106.446
G1 F480 X39.610 Y101.659 E186.01026
G0 F10500 X39.704 Y102.814
G1 F480 X43.235 Y106.344 E186.23704
G0 F10500 X43.262 Y106.136
G0 X41.488 Y105.363
G0 X41.360 Y105.530
G1 F480 X40.524 Y104.694 E186.29073
G0 F10500 X40.691 Y104.567
G0 X49.154 Y100.835
G0 X49.182 Y100.624
G1 F480 X55.000 Y106.442 E186.66443
G0 F10500 X56.060 Y106.442
G1 F480 X50.301 Y100.682 E187.03438
G0 F10500 X51.225 Y100.546
G1 F480 X57.121 Y106.442 E187.41309
G0 F10500 X58.155 Y106.416
G1 F480 X51.976 Y100.236 E187.81001
G0 F10500 X52.639 Y99.838
G1 F480 X58.988 Y106.188 E188.21785
G0 F10500 X59.619 Y105.758
G1 F480 X53.235 Y99.374 E188.62790
G0 F10500 X53.701 Y98.779
G1 F480 X60.058 Y105.136 E189.03623
G0 F10500 X60.292 Y104.309
G1 F480 X54.104 Y98.121 E189.43369
G0 F10500 X54.413 Y97.370
G1 F480 X60.327 Y103.284 E189.81356
G0 F10500 X60.327 Y102.223
G1 F480 X56.712 Y98.608 E190.04576
G0 F10500 X57.842 Y98.678
G1 F480 X60.326 Y101.162 E190.20531
G0 F10500 X60.326 Y100.100
G1 F480 X58.655 Y98.429 E190.31264
G0 F10500 X59.280 Y97.994
G1 F480 X60.325 Y98.508 E190.37971
G1 X59.754 Y97.407 E190.43604
G0 F10500 X59.949 Y97.489
G0 X58.942 Y98.646
G0 X57.465 Y99.043
G0 X55.871 Y98.559
G0 X54.657 Y96.907
G0 X54.743 Y96.917
G0 X54.940 Y96.836
G1 F480 X54.715 Y96.081 E190.46052
G1 X54.512 Y95.347 E190.49510
G0 F10500 X55.121 Y94.895
G1 F480 X53.981 Y93.756 E190.56830
G0 F10500 X54.150 Y93.629
G0 X59.136 Y91.767
G0 X59.326 Y91.677
G1 F480 X54.378 Y86.728 E190.88615
G1 F240 E188.88615
G1 Z0.500
G0 F10500 X60.040 Y95.572
G1 Z0.400
G1 F240 E190.88615
G1 F480 X60.174 Y96.236 E190.90366
G1 X60.324 Y96.917 E190.93534
G1 F240 E188.93534
G1 Z0.500
G0 F10500 X57.976 Y80.706
;TYPE:WALL-OUTER
G1 Z0.400
G1 F240 E190.93534
G1 F480 X43.991 Y80.711 E191.57052
G1 X42.769 Y80.550 E191.62650
G1 X41.668 Y80.094 E191.68062
G1 X41.654 Y80.088 E191.68132
G1 X40.697 Y79.353 E191.73612
G1 X39.962 Y78.395 E191.79096
G1 X39.505 Y77.293 E191.84515
G1 X39.500 Y77.282 E191.84570
G1 X39.348 Y76.119 E191.89897
G1 X39.340 Y62.113 E192.53510
G1 X39.433 Y61.407 E192.56745
G1 X39.695 Y60.776 E192.59848
G1 X40.111 Y60.232 E192.62958
G1 X40.654 Y59.816 E192.66065
G1 X41.286 Y59.555 E192.69171
G1 X41.954 Y59.467 E192.72231
G1 X49.589 Y59.462 E193.06908
G1 X49.997 Y59.464 E193.08761
G1 X51.010 Y59.513 E193.13367
G1 X51.992 Y59.659 E193.17877
G1 X52.995 Y59.905 E193.22567
G1 X53.984 Y60.255 E193.27332
G1 X54.973 Y60.717 E193.32290
G1 X55.840 Y61.236 E193.36879
G1 X56.659 Y61.839 E193.41499
G1 X57.478 Y62.575 E193.46500
G1 X58.146 Y63.311 E193.51014
G1 X58.769 Y64.143 E193.55735
G1 X59.317 Y65.048 E193.60540
G1 X59.336 Y65.081 E193.60713
G1 X59.760 Y65.978 E193.65219
G1 X60.115 Y66.953 E193.69932
G1 X60.373 Y67.967 E193.74684
G1 X60.537 Y69.036 E193.79596
G1 X60.587 Y70.054 E193.84226
G1 X60.590 Y77.708 E194.18989
G1 X60.586 Y78.094 E194.20742
G1 X60.497 Y78.766 E194.23821
G1 X60.235 Y79.398 E194.26929
G1 X59.821 Y79.937 E194.30015
G1 X59.273 Y80.357 E194.33151
G1 X58.643 Y80.618 E194.36249
G1 X57.976 Y80.706 E194.39304
G0 F10500 X57.946 Y80.231
G0 X57.402 Y72.936
G0 X57.465 Y72.465
G1 F480 X58.080 Y72.383 E194.42122
G1 X58.654 Y72.147 E194.44941
G1 X59.146 Y71.768 E194.47762
G1 X59.525 Y71.276 E194.50582
G1 X59.762 Y70.702 E194.53403
G1 X59.843 Y70.087 E194.56220
G1 X59.762 Y69.471 E194.59042
G1 X59.525 Y68.898 E194.61859
G1 X59.147 Y68.405 E194.64680
G1 X58.654 Y68.026 E194.67504
G1 X58.080 Y67.790 E194.70323
G1 X57.465 Y67.709 E194.73141
G1 X56.849 Y67.790 E194.75962
G1 X56.276 Y68.026 E194.78777
G1 X55.783 Y68.405 E194.81601
G1 X55.405 Y68.898 E194.84423
G1 X55.168 Y69.471 E194.87239
G1 X55.087 Y70.087 E194.90061
G1 X55.168 Y70.702 E194.92879
G1 X55.405 Y71.276 E194.95699
G1 X55.783 Y71.768 E194.98517
G1 X56.218 Y72.103 E195.01011
G1 X56.278 Y72.147 E195.01349
G1 X56.849 Y72.383 E195.04155
G1 X57.465 Y72.465 E195.06977
G0 F10500 X57.402 Y72.936
G0 X55.871 Y72.560
G0 X54.611 Y71.451
G0 X54.164 Y71.292
G1 F480 X54.197 Y71.201 E195.07417
G1 X54.332 Y70.171 E195.12135
G1 X54.343 Y70.075 E195.12574
G1 X54.206 Y69.036 E195.17334
G1 X54.190 Y68.940 E195.17776
G1 X53.791 Y67.978 E195.22506
G1 X53.752 Y67.890 E195.22943
G1 X53.116 Y67.063 E195.27682
G1 X53.057 Y66.987 E195.28119
G1 X52.226 Y66.349 E195.32877
G1 X52.149 Y66.292 E195.33312
G1 X51.186 Y65.894 E195.38045
G1 X51.096 Y65.857 E195.38487
G1 X50.062 Y65.722 E195.43223
G1 X49.968 Y65.708 E195.43655
G1 X48.852 Y65.852 E195.48765
G1 X47.808 Y66.280 E195.53890
G1 X46.915 Y66.953 E195.58969
G1 X46.839 Y67.027 E195.59451
G1 X46.187 Y67.877 E195.64316
G1 X45.741 Y68.938 E195.69544
G1 X45.605 Y69.970 E195.74271
G1 X45.585 Y70.069 E195.74730
G1 X45.733 Y71.213 E195.79969
G1 X46.167 Y72.263 E195.85130
G1 X46.866 Y73.179 E195.90363
G1 X47.774 Y73.876 E195.95562
G1 X48.829 Y74.314 E196.00750
G1 X49.965 Y74.465 E196.05955
G1 X51.112 Y74.310 E196.11212
G1 X52.090 Y73.907 E196.16016
G1 X52.177 Y73.862 E196.16461
G1 X53.002 Y73.229 E196.21184
G1 X53.075 Y73.166 E196.21622
G1 X53.710 Y72.338 E196.26361
G1 X53.765 Y72.258 E196.26802
G1 X54.164 Y71.292 E196.31549
G1 F240 E194.31549
G1 Z0.500
G0 F10500 X51.154 Y64.647
G1 Z0.400
G1 F240 E196.31549
G1 F480 X51.646 Y64.268 E196.34370
G1 X52.025 Y63.776 E196.37191
G1 X52.262 Y63.202 E196.40011
G1 X52.343 Y62.587 E196.42828
G1 X52.262 Y61.971 E196.45650
G1 X52.025 Y61.398 E196.48467
G1 X51.647 Y60.905 E196.51288
G1 X51.154 Y60.526 E196.54113
G1 X50.580 Y60.290 E196.56931
G1 X49.965 Y60.209 E196.59749
G1 X49.349 Y60.290 E196.62571
G1 X48.776 Y60.526 E196.65385
G1 X48.283 Y60.905 E196.68210
G1 X47.905 Y61.398 E196.71031
G1 X47.668 Y61.971 E196.73847
G1 X47.587 Y62.587 E196.76669
G1 X47.668 Y63.202 E196.79487
G1 X47.905 Y63.776 E196.82307
G1 X48.283 Y64.268 E196.85125
G1 X48.718 Y64.603 E196.87619
G1 X48.778 Y64.647 E196.87957
G1 X49.349 Y64.883 E196.90763
G1 X49.965 Y64.965 E196.93586
G1 X50.580 Y64.883 E196.96404
G1 X51.154 Y64.647 E196.99222
G0 F10500 X51.474 Y64.732
;TYPE:SKIN
G1 F480 X55.319 Y68.577 E197.23919
G0 F10500 X55.835 Y68.032
G1 F480 X52.017 Y64.215 E197.48440
G0 F10500 X52.404 Y63.541
G1 F480 X56.508 Y67.645 E197.74801
G0 F10500 X57.378 Y67.455
G1 F480 X52.596 Y62.672 E198.05520
G0 F10500 X52.257 Y61.272
G1 F480 X58.774 Y67.790 E198.47383
G0 F10500 X59.756 Y68.772
G1 F480 X60.191 Y69.737 E198.50786
G1 X60.114 Y70.720 E198.52243
G1 X59.920 Y71.587 E198.54934
G1 X60.325 Y72.522 E198.59561
G0 F10500 X60.325 Y73.583
G1 F480 X58.974 Y72.232 E198.68239
G0 F10500 X58.269 Y72.588
G1 F480 X60.326 Y74.645 E198.81452
G0 F10500 X60.326 Y75.705
G1 F480 X57.331 Y72.711 E199.00686
G0 F10500 X57.303 Y72.923
G0 X55.993 Y72.649
G0 X54.452 Y71.837
G0 X54.256 Y71.757
G1 F480 X60.326 Y77.827 E199.39675
G0 F10500 X60.210 Y78.771
G1 F480 X53.925 Y72.486 E199.80044
G0 F10500 X53.465 Y73.087
G1 F480 X59.848 Y79.471 E200.21047
G0 F10500 X59.310 Y79.993
G1 F480 X52.931 Y73.614 E200.62020
G0 F10500 X52.332 Y74.075
G1 F480 X58.604 Y80.347 E201.02306
G0 F10500 X57.638 Y80.442
G1 F480 X51.591 Y74.396 E201.41144
G0 F10500 X50.758 Y74.623
G1 F480 X56.577 Y80.442 E201.78521
G0 F10500 X55.517 Y80.443
G1 F480 X49.779 Y74.705 E202.15377
G0 F10500 X48.458 Y74.444
G1 F480 X54.457 Y80.443 E202.53910
G0 F10500 X53.397 Y80.444
G1 F480 X39.605 Y66.651 E203.42501
G0 F10500 X39.604 Y65.590
G1 F480 X45.606 Y71.592 E203.81053
G0 F10500 X45.346 Y70.271
G1 F480 X39.604 Y64.529 E204.17935
G0 F10500 X39.603 Y63.468
G1 F480 X45.429 Y69.294 E204.55357
G0 F10500 X45.656 Y68.460
G1 F480 X39.602 Y62.407 E204.94240
G0 F10500 X39.701 Y61.444
G1 F480 X45.976 Y67.719 E205.34545
G0 F10500 X46.436 Y67.119
G1 F480 X40.054 Y60.737 E205.75538
G0 F10500 X40.581 Y60.203
G1 F480 X46.963 Y66.585 E206.16531
G0 F10500 X47.567 Y66.129
G1 F480 X41.280 Y59.842 E206.56913
G0 F10500 X42.228 Y59.729
G1 F480 X48.293 Y65.794 E206.95870
G0 F10500 X49.111 Y65.551
G1 F480 X43.289 Y59.729 E207.33265
G0 F10500 X44.349 Y59.729
G1 F480 X47.340 Y62.719 E207.52474
G0 F10500 X47.463 Y61.782
G1 F480 X45.409 Y59.728 E207.65667
G0 F10500 X46.470 Y59.728
G1 F480 X47.819 Y61.077 E207.74332
G0 F10500 X48.334 Y60.532
G1 F480 X48.060 Y59.727 E207.79497
G1 X49.008 Y60.145 E207.84203
G1 F240 E205.84203
G1 Z0.500
G0 F10500 X50.747 Y59.763
G1 Z0.400
G1 F240 E207.84203
G1 F480 X51.275 Y60.290 E207.87591
G0 F10500 X51.356 Y60.097
G0 X53.379 Y60.544
G0 X53.450 Y60.345
G1 F480 X59.708 Y66.602 E208.27784
G0 F10500 X59.507 Y66.674
G0 X58.514 Y64.637
G0 X58.696 Y64.529
G1 F480 X55.513 Y61.347 E208.48226
G0 F10500 X55.404 Y61.527
G0 X51.445 Y65.488
G0 X51.364 Y65.683
G1 F480 X50.423 Y65.272 E208.52044
G1 X49.868 Y65.248 E208.53147
G1 X50.027 Y65.406 E208.54166
G1 F240 E206.54166
G1 Z0.500
G0 F10500 X54.371 Y68.690
G1 Z0.400
G1 F240 E208.54166
G1 F480 X54.778 Y69.628 E208.57955
G1 X54.802 Y70.181 E208.59041
G1 X54.636 Y70.016 E208.60104
G0 F10500 X54.496 Y70.936
G1 F480 X60.326 Y76.767 E208.97555
G1 F240 E206.97555
G1 Z0.500
G0 F10500 X60.123 Y68.078
G1 Z0.400
G1 F240 E208.97555
G1 F480 X51.968 Y59.923 E209.49936
G1 F240 E207.49936
G1 Z0.500
G0 F10500 X49.877 Y59.954
G1 Z0.400
G1 F240 E209.49936
G1 F480 X49.651 Y59.727 E209.51390
G1 F240 E207.51390
G1 Z0.500
G0 F10500 X39.605 Y67.713
G1 Z0.400
G1 F240 E209.51390
G1 F480 X52.336 Y80.444 E210.33164
G0 F10500 X51.276 Y80.444
G1 F480 X39.606 Y68.774 E211.08123
G0 F10500 X39.607 Y69.835
G1 F480 X50.215 Y80.444 E211.76263
G0 F10500 X49.155 Y80.445
G1 F480 X39.607 Y70.897 E212.37591
G0 F10500 X39.608 Y71.958
G1 F480 X48.095 Y80.445 E212.92105
G0 F10500 X47.035 Y80.446
G1 F480 X39.609 Y73.020 E213.39804
G0 F10500 X39.610 Y74.081
G1 F480 X45.975 Y80.446 E213.80687
G0 F10500 X44.914 Y80.446
G1 F480 X39.610 Y75.142 E214.14756
G0 F10500 X39.626 Y76.219
G1 F480 X43.830 Y80.423 E214.41759
G0 F10500 X42.499 Y80.152
G1 F480 X39.897 Y77.550 E214.58472
G0 F10500 X41.108 Y77.048
G1 F240 E212.58472
G1 Z0.500
G0 F10500 X43.991 Y54.712
;TYPE:WALL-OUTER
G1 Z0.400
G1 F240 E214.58472
G1 F480 X42.769 Y54.551 E214.64070
G1 X41.668 Y54.095 E214.69483
G1 X41.654 Y54.089 E214.69552
G1 X40.697 Y53.354 E214.75032
G1 X39.962 Y52.396 E214.80517
G1 X39.505 Y51.293 E214.85939
G1 X39.500 Y51.282 E214.85994
G1 X39.348 Y50.119 E214.91321
G1 X39.340 Y36.113 E215.54935
G1 X39.433 Y35.407 E215.58169
G1 X39.695 Y34.776 E215.61272
G1 X40.111 Y34.232 E215.64383
G1 X40.654 Y33.816 E215.67489
G1 X41.286 Y33.555 E215.70595
G1 X41.954 Y33.467 E215.73655
G1 X49.589 Y33.462 E216.08332
G1 X49.997 Y33.464 E216.10186
G1 X51.010 Y33.513 E216.14792
G1 X51.992 Y33.659 E216.19301
G1 X52.995 Y33.905 E216.23992
G1 X53.984 Y34.255 E216.28756
G1 X54.973 Y34.717 E216.33714
G1 X55.840 Y35.236 E216.38304
G1 X56.659 Y35.839 E216.42923
G1 X57.478 Y36.575 E216.47924
G1 X58.146 Y37.311 E216.52438
G1 X58.769 Y38.143 E216.57159
G1 X59.317 Y39.048 E216.61965
G1 X59.336 Y39.081 E216.62137
G1 X59.760 Y39.978 E216.66644
G1 X60.115 Y40.953 E216.71357
G1 X60.373 Y41.967 E216.76109
G1 X60.537 Y43.036 E216.81021
G1 X60.587 Y44.054 E216.85650
G1 X60.590 Y51.709 E217.20418
G1 X60.586 Y52.095 E217.22171
G1 X60.497 Y52.767 E217.25250
G1 X60.235 Y53.399 E217.28357
G1 X59.821 Y53.938 E217.31444
G1 X59.273 Y54.358 E217.34580
G1 X58.643 Y54.619 E217.37677
G1 X57.976 Y54.707 E217.40733
G1 X43.991 Y54.712 E218.04251
G0 F10500 X44.021 Y54.237
G0 X47.592 Y48.314
G0 X47.774 Y47.876
G1 F480 X48.829 Y48.314 E218.09439
G1 X49.965 Y48.465 E218.14644
G1 X51.112 Y48.310 E218.19901
G1 X52.090 Y47.907 E218.24706
G1 X52.177 Y47.862 E218.25150
G1 X53.002 Y47.229 E218.29873
G1 X53.075 Y47.166 E218.30311
G1 X53.710 Y46.338 E218.35051
G1 X53.765 Y46.258 E218.35492
G1 X54.164 Y45.292 E218.40239
G1 X54.197 Y45.201 E218.40678
G1 X54.332 Y44.171 E218.45396
G1 X54.343 Y44.075 E218.45835
G1 X54.206 Y43.036 E218.50595
G1 X54.190 Y42.940 E218.51037
G1 X53.791 Y41.978 E218.55767
G1 X53.752 Y41.890 E218.56204
G1 X53.116 Y41.063 E218.60943
G1 X53.057 Y40.987 E218.61380
G1 X52.226 Y40.349 E218.66138
G1 X52.149 Y40.292 E218.66573
G1 X51.186 Y39.894 E218.71306
G1 X51.096 Y39.857 E218.71748
G1 X50.062 Y39.722 E218.76484
G1 X49.968 Y39.708 E218.76916
G1 X48.852 Y39.852 E218.82027
G1 X47.808 Y40.280 E218.87151
G1 X46.915 Y40.953 E218.92230
G1 X46.839 Y41.027 E218.92712
G1 X46.187 Y41.877 E218.97577
G1 X45.741 Y42.938 E219.02805
G1 X45.605 Y43.970 E219.07532
G1 X45.585 Y44.069 E219.07991
G1 X45.733 Y45.213 E219.13230
G1 X46.167 Y46.263 E219.18391
G1 X46.866 Y47.179 E219.23624
G1 X47.774 Y47.876 E219.28823
G0 F10500 X47.592 Y48.314
G0 X48.680 Y48.872
G0 X51.261 Y48.868
G0 X53.494 Y47.562
G0 X54.757 Y45.337
G0 X54.696 Y44.763
G0 X55.168 Y44.702
G1 F480 X55.405 Y45.276 E219.31644
G1 X55.783 Y45.768 E219.34461
G1 X56.218 Y46.103 E219.36955
G1 X56.278 Y46.147 E219.37293
G1 X56.849 Y46.383 E219.40099
G1 X57.465 Y46.465 E219.42922
G1 X58.080 Y46.383 E219.45740
G1 X58.654 Y46.147 E219.48559
G1 X59.146 Y45.768 E219.51379
G1 X59.525 Y45.276 E219.54200
G1 X59.762 Y44.702 E219.57021
G1 X59.843 Y44.087 E219.59838
G1 X59.762 Y43.471 E219.62660
G1 X59.525 Y42.898 E219.65476
G1 X59.147 Y42.405 E219.68298
G1 X58.654 Y42.026 E219.71122
G1 X58.080 Y41.790 E219.73941
G1 X57.465 Y41.709 E219.76758
G1 X56.849 Y41.790 E219.79580
G1 X56.276 Y42.026 E219.82395
G1 X55.783 Y42.405 E219.85219
G1 X55.405 Y42.898 E219.88041
G1 X55.168 Y43.471 E219.90857
G1 X55.087 Y44.087 E219.93679
G1 X55.168 Y44.702 E219.96496
G1 F240 E217.96496
G1 Z0.500
G0 F10500 X51.154 Y38.647
G1 Z0.400
G1 F240 E219.96496
G1 F480 X51.646 Y38.268 E219.99317
G1 X52.025 Y37.776 E220.02138
G1 X52.262 Y37.202 E220.04958
G1 X52.343 Y36.587 E220.07776
G1 X52.262 Y35.971 E220.10597
G1 X52.025 Y35.398 E220.13414
G1 X51.647 Y34.905 E220.16235
G1 X51.154 Y34.526 E220.19060
G1 X50.580 Y34.290 E220.21878
G1 X49.965 Y34.209 E220.24696
G1 X49.349 Y34.290 E220.27518
G1 X48.776 Y34.526 E220.30332
G1 X48.283 Y34.905 E220.33157
G1 X47.905 Y35.398 E220.35978
G1 X47.668 Y35.971 E220.38795
G1 X47.587 Y36.587 E220.41616
G1 X47.668 Y37.202 E220.44434
G1 X47.905 Y37.776 E220.47254
G1 X48.283 Y38.268 E220.50072
G1 X48.718 Y38.603 E220.52566
G1 X48.778 Y38.647 E220.52904
G1 X49.349 Y38.883 E220.55710
G1 X49.965 Y38.965 E220.58533
G1 X50.580 Y38.883 E220.61351
G1 X51.154 Y38.647 E220.64169
G0 F10500 X51.135 Y38.938
;TYPE:SKIN
G1 F480 X52.245 Y40.047 E220.71296
G0 F10500 X52.326 Y39.852
G0 X51.894 Y38.676
G0 X51.765 Y38.507
G1 F480 X55.543 Y42.284 E220.95559
G0 F10500 X56.126 Y41.807
G1 F480 X52.242 Y37.923 E221.20507
G0 F10500 X52.531 Y37.152
G1 F480 X56.898 Y41.518 E221.48554
G0 F10500 X57.948 Y41.507
G1 F480 X52.542 Y36.102 E221.83274
G0 F10500 X52.755 Y36.076
G0 X52.603 Y34.297
G0 X52.653 Y34.092
G1 F480 X59.955 Y41.394 E222.30177
G1 F240 E220.30177
G1 Z0.500
G0 F10500 X59.742 Y45.423
G1 Z0.400
G1 F240 E222.30177
G1 F480 X59.794 Y46.006 E222.33916
G1 X60.324 Y47.066 E222.39299
G0 F10500 X60.325 Y48.127
G1 F480 X58.636 Y46.438 E222.50147
G0 F10500 X57.819 Y46.682
G1 F480 X60.325 Y49.188 E222.66244
G0 F10500 X60.326 Y50.249
G1 F480 X56.668 Y46.592 E222.89737
G0 F10500 X56.586 Y46.788
G0 X55.375 Y46.177
G0 X54.761 Y44.962
G0 X54.958 Y44.882
G1 F480 X54.711 Y44.105 E222.92319
G1 X54.515 Y43.378 E222.95739
G0 F10500 X55.113 Y42.915
G1 F480 X54.001 Y41.804 E223.02878
G1 F240 E221.02878
G1 Z0.500
G0 F10500 X54.406 Y45.391
G1 Z0.400
G1 F240 E223.02878
G1 F480 X60.326 Y51.310 E223.40900
G0 F10500 X60.288 Y52.333
G1 F480 X54.096 Y46.141 E223.80673
G0 F10500 X53.689 Y46.794
G1 F480 X60.051 Y53.156 E224.21537
G0 F10500 X59.856 Y53.075
G0 X60.112 Y44.944
G0 X60.323 Y44.944
G1 F480 X60.172 Y44.262 E224.23407
G1 X60.042 Y43.602 E224.26462
G0 F10500 X60.222 Y42.721
G1 F480 X51.326 Y33.825 E224.83603
G0 F10500 X50.447 Y34.007
G1 F480 X49.787 Y33.877 E224.85334
G1 X48.866 Y34.017 E224.87196
G1 X48.044 Y34.256 E224.90907
G1 X46.987 Y33.728 E224.96274
G0 F10500 X45.927 Y33.729
G1 F480 X47.613 Y35.415 E225.07103
G0 F10500 X47.368 Y36.231
G1 F480 X44.866 Y33.729 E225.23174
G0 F10500 X43.806 Y33.730
G1 F480 X47.458 Y37.381 E225.46628
G0 F10500 X47.261 Y37.461
G0 X47.875 Y38.677
G0 X49.088 Y39.289
G0 X49.169 Y39.093
G1 F480 X49.943 Y39.337 E225.49189
G1 X50.673 Y39.536 E225.52625
G1 F240 E223.52625
G1 Z0.500
G0 F10500 X48.660 Y39.645
G1 Z0.400
G1 F240 E225.52625
G1 F480 X42.746 Y33.730 E225.90615
G0 F10500 X41.719 Y33.764
G1 F480 X47.908 Y39.953 E226.30368
G0 F10500 X47.258 Y40.363
G1 F480 X40.895 Y34.001 E226.71236
G0 F10500 X40.278 Y34.445
G1 F480 X46.662 Y40.829 E227.12241
G0 F10500 X46.200 Y41.427
G1 F480 X39.852 Y35.079 E227.53016
G0 F10500 X39.629 Y35.917
G1 F480 X45.809 Y42.096 E227.92708
G0 F10500 X45.495 Y42.843
G1 F480 X39.602 Y36.950 E228.30560
G0 F10500 X39.602 Y38.011
G1 F480 X45.365 Y43.774 E228.67577
G0 F10500 X45.425 Y44.895
G1 F480 X39.603 Y39.073 E229.04972
G0 F10500 X39.604 Y40.134
G1 F480 X46.171 Y46.701 E229.47153
G0 F10500 X46.000 Y46.830
G0 X46.457 Y47.588
G0 X47.223 Y48.051
G0 X47.352 Y47.882
G1 F480 X53.914 Y54.445 E229.89305
G0 F10500 X52.854 Y54.445
G1 F480 X39.605 Y41.196 E230.74406
G0 F10500 X39.605 Y42.257
G1 F480 X51.794 Y54.445 E231.52695
G0 F10500 X50.733 Y54.445
G1 F480 X39.606 Y43.318 E232.24166
G0 F10500 X39.607 Y44.380
G1 F480 X49.673 Y54.446 E232.88822
G0 F10500 X48.612 Y54.446
G1 F480 X39.607 Y45.441 E233.46663
G0 F10500 X39.608 Y46.502
G1 F480 X47.552 Y54.447 E233.97692
G0 F10500 X46.492 Y54.447
G1 F480 X39.609 Y47.564 E234.41902
G0 F10500 X39.610 Y48.625
G1 F480 X45.432 Y54.447 E234.79298
G0 F10500 X44.371 Y54.447
G1 F480 X39.610 Y49.686 E235.09879
G0 F10500 X39.708 Y50.845
G1 F480 X43.204 Y54.341 E235.32334
G0 F10500 X43.231 Y54.133
G0 X41.373 Y53.276
G0 X41.245 Y53.443
G1 F480 X40.612 Y52.810 E235.36400
G0 F10500 X40.779 Y52.683
G0 X49.124 Y48.832
G0 X49.152 Y48.622
G1 F480 X54.974 Y54.444 E235.73796
G0 F10500 X56.034 Y54.443
G1 F480 X50.278 Y48.687 E236.10768
G0 F10500 X51.206 Y48.554
G1 F480 X57.095 Y54.443 E236.48594
G0 F10500 X58.132 Y54.420
G1 F480 X51.958 Y48.245 E236.88254
G0 F10500 X52.624 Y47.851
G1 F480 X58.970 Y54.197 E237.29015
G0 F10500 X59.604 Y53.770
G1 F480 X53.221 Y47.387 E237.70015
G1 F240 E235.70015
G1 Z0.500
G0 F10500 X59.348 Y39.726
G1 Z0.400
G1 F240 E237.70015
G1 F480 X54.330 Y34.708 E238.02246
G1 F240 E236.02246
G1 Z0.500
G0 F10500 X57.976 Y28.707
;TYPE:WALL-OUTER
G1 Z0.400
G1 F240 E238.02246
G1 F480 X43.991 Y28.712 E238.65764
G1 X42.769 Y28.551 E238.71362
G1 X41.668 Y28.095 E238.76775
G1 X41.654 Y28.089 E238.76844
G1 X40.697 Y27.354 E238.82325
G1 X39.962 Y26.396 E238.87809
G1 X39.505 Y25.293 E238.93232
G1 X39.500 Y25.282 E238.93286
G1 X39.348 Y24.119 E238.98614
G1 X39.340 Y10.113 E239.62227
G1 X39.433 Y9.407 E239.65461
G1 X39.695 Y8.776 E239.68565
G1 X40.111 Y8.232 E239.71675
G1 X40.654 Y7.816 E239.74782
G1 X41.286 Y7.555 E239.77887
G1 X41.954 Y7.467 E239.80948
G1 X49.589 Y7.462 E240.15625
G1 X49.997 Y7.464 E240.17478
G1 X51.010 Y7.513 E240.22084
G1 X51.992 Y7.659 E240.26593
G1 X52.995 Y7.905 E240.31284
G1 X53.984 Y8.255 E240.36049
G1 X54.973 Y8.717 E240.41007
G1 X55.840 Y9.236 E240.45596
G1 X56.659 Y9.839 E240.50215
G1 X57.478 Y10.575 E240.55217
G1 X58.146 Y11.311 E240.59731
G1 X58.769 Y12.143 E240.64452
G1 X59.317 Y13.048 E240.69257
G1 X59.336 Y13.081 E240.69430
G1 X59.760 Y13.978 E240.73936
G1 X60.115 Y14.953 E240.78649
G1 X60.373 Y15.967 E240.83401
G1 X60.537 Y17.036 E240.88313
G1 X60.587 Y18.054 E240.92942
G1 X60.590 Y25.709 E241.27710
G1 X60.586 Y26.095 E241.29464
G1 X60.497 Y26.767 E241.32542
G1 X60.235 Y27.399 E241.35650
G1 X59.821 Y27.938 E241.38737
G1 X59.273 Y28.358 E241.41873
G1 X58.643 Y28.619 E241.44970
G1 X57.976 Y28.707 E241.48025
G0 F10500 X57.946 Y28.232
G0 X57.402 Y20.936
G0 X57.465 Y20.465
G1 F480 X58.080 Y20.383 E241.50843
G1 X58.654 Y20.147 E241.53662
G1 X59.146 Y19.768 E241.56483
G1 X59.525 Y19.276 E241.59304
G1 X59.762 Y18.702 E241.62124
G1 X59.843 Y18.087 E241.64942
G1 X59.762 Y17.471 E241.67764
G1 X59.525 Y16.898 E241.70580
G1 X59.147 Y16.405 E241.73401
G1 X58.654 Y16.026 E241.76226
G1 X58.080 Y15.790 E241.79045
G1 X57.465 Y15.709 E241.81862
G1 X56.849 Y15.790 E241.84684
G1 X56.276 Y16.026 E241.87498
G1 X55.783 Y16.405 E241.90323
G1 X55.405 Y16.898 E241.93144
G1 X55.168 Y17.471 E241.95961
G1 X55.087 Y18.087 E241.98782
G1 X55.168 Y18.702 E242.01600
G1 X55.405 Y19.276 E242.04420
G1 X55.783 Y19.768 E242.07238
G1 X56.218 Y20.103 E242.09732
G1 X56.278 Y20.147 E242.10070
G1 X56.849 Y20.383 E242.12876
G1 X57.465 Y20.465 E242.15699
G0 F10500 X57.402 Y20.936
G0 X55.871 Y20.560
G0 X54.611 Y19.451
G0 X54.164 Y19.292
G1 F480 X54.197 Y19.201 E242.16138
G1 X54.332 Y18.171 E242.20856
G1 X54.343 Y18.075 E242.21295
G1 X54.206 Y17.036 E242.26055
G1 X54.190 Y16.940 E242.26497
G1 X53.791 Y15.978 E242.31227
G1 X53.752 Y15.890 E242.31665
G1 X53.116 Y15.063 E242.36403
G1 X53.057 Y14.987 E242.36840
G1 X52.226 Y14.349 E242.41598
G1 X52.149 Y14.292 E242.42034
G1 X51.186 Y13.894 E242.46766
G1 X51.096 Y13.857 E242.47208
G1 X50.062 Y13.722 E242.51944
G1 X49.968 Y13.708 E242.52376
G1 X48.852 Y13.852 E242.57487
G1 X47.808 Y14.280 E242.62611
G1 X46.915 Y14.953 E242.67690
G1 X46.839 Y15.027 E242.68172
G1 X46.187 Y15.877 E242.73037
G1 X45.741 Y16.938 E242.78265
G1 X45.605 Y17.970 E242.82993
G1 X45.585 Y18.069 E242.83451
G1 X45.733 Y19.213 E242.88691
G1 X46.167 Y20.263 E242.93851
G1 X46.866 Y21.179 E242.99084
G1 X47.774 Y21.876 E243.04283
G1 X48.829 Y22.314 E243.09471
G1 X49.965 Y22.465 E243.14676
G1 X51.112 Y22.310 E243.19933
G1 X52.090 Y21.907 E243.24737
G1 X52.177 Y21.862 E243.25182
G1 X53.002 Y21.229 E243.29905
G1 X53.075 Y21.166 E243.30343
G1 X53.710 Y20.338 E243.35082
G1 X53.765 Y20.258 E243.35523
G1 X54.164 Y19.292 E243.40270
G1 F240 E241.40270
G1 Z0.500
G0 F10500 X51.154 Y12.647
G1 Z0.400
G1 F240 E243.40270
G1 F480 X51.646 Y12.268 E243.43091
G1 X52.025 Y11.776 E243.45912
G1 X52.262 Y11.202 E243.48732
G1 X52.343 Y10.587 E243.51550
G1 X52.262 Y9.971 E243.54372
G1 X52.025 Y9.398 E243.57188
G1 X51.647 Y8.905 E243.60010
G1 X51.154 Y8.526 E243.62834
G1 X50.580 Y8.290 E243.65653
G1 X49.965 Y8.209 E243.68470
G1 X49.349 Y8.290 E243.71292
G1 X48.776 Y8.526 E243.74107
G1 X48.283 Y8.905 E243.76931
G1 X47.905 Y9.398 E243.79752
G1 X47.668 Y9.971 E243.82569
G1 X47.587 Y10.587 E243.85391
G1 X47.668 Y11.202 E243.88208
G1 X47.905 Y11.776 E243.91029
G1 X48.283 Y12.268 E243.93847
G1 X48.718 Y12.603 E243.96340
G1 X48.778 Y12.647 E243.96678
G1 X49.349 Y12.883 E243.99484
G1 X49.965 Y12.965 E244.02307
G1 X50.580 Y12.883 E244.05125
G1 X51.154 Y12.647 E244.07944
G0 F10500 X51.458 Y12.744
;TYPE:SKIN
G1 F480 X55.307 Y16.592 E244.32663
G0 F10500 X55.819 Y16.044
G1 F480 X52.004 Y12.230 E244.57164
G0 F10500 X52.396 Y11.561
G1 F480 X56.488 Y15.653 E244.83448
G0 F10500 X57.354 Y15.458
G1 F480 X52.592 Y10.696 E245.14035
G0 F10500 X52.275 Y9.318
G1 F480 X58.728 Y15.772 E245.55487
G0 F10500 X60.127 Y16.110
G1 F480 X51.934 Y7.916 E246.08116
G0 F10500 X51.228 Y8.271
G1 F480 X50.286 Y7.860 E246.11383
G1 X49.306 Y7.940 E246.12854
G1 X48.441 Y8.135 E246.15582
G1 X47.503 Y7.728 E246.20226
G0 F10500 X46.443 Y7.729
G1 F480 X47.806 Y9.092 E246.28981
G0 F10500 X47.454 Y9.801
G1 F480 X45.382 Y7.729 E246.42290
G0 F10500 X44.322 Y7.730
G1 F480 X47.342 Y10.750 E246.61688
G0 F10500 X47.133 Y10.775
G0 X47.405 Y12.065
G0 X48.196 Y13.608
G0 X48.274 Y13.803
G1 F480 X42.201 Y7.730 E247.00696
G0 F10500 X41.261 Y7.851
G1 F480 X47.552 Y14.141 E247.41101
G0 F10500 X46.947 Y14.597
G1 F480 X40.566 Y8.215 E247.82090
G0 F10500 X40.042 Y8.753
G1 F480 X46.424 Y15.134 E248.23080
G0 F10500 X45.964 Y15.735
G1 F480 X39.692 Y9.463 E248.63366
G0 F10500 X39.602 Y10.434
G1 F480 X45.647 Y16.479 E249.02194
G0 F10500 X45.425 Y17.317
G1 F480 X39.602 Y11.495 E249.39593
G0 F10500 X39.602 Y12.556
G1 F480 X45.348 Y18.302 E249.76501
G0 F10500 X45.623 Y19.637
G1 F480 X39.603 Y13.617 E250.15168
G0 F10500 X39.604 Y14.678
G1 F480 X53.371 Y28.445 E251.03596
G0 F10500 X54.430 Y28.444
G1 F480 X48.412 Y22.426 E251.42251
G0 F10500 X49.748 Y22.701
G1 F480 X55.491 Y28.444 E251.79139
G0 F10500 X56.551 Y28.444
G1 F480 X50.734 Y22.626 E252.16506
G0 F10500 X51.572 Y22.403
G1 F480 X57.612 Y28.444 E252.55305
G0 F10500 X58.585 Y28.357
G1 F480 X52.316 Y22.087 E252.95576
G0 F10500 X52.916 Y21.626
G1 F480 X59.296 Y28.007 E253.36559
G0 F10500 X59.836 Y27.486
G1 F480 X53.453 Y21.102 E253.77561
G0 F10500 X53.913 Y20.502
G1 F480 X60.201 Y26.790 E254.17950
G0 F10500 X60.324 Y25.853
G1 F480 X54.247 Y19.775 E254.56987
G0 F10500 X54.492 Y18.960
G1 F480 X60.326 Y24.793 E254.94457
G0 F10500 X60.325 Y23.732
G1 F480 X57.301 Y20.709 E255.13877
G0 F10500 X58.250 Y20.597
G1 F480 X60.325 Y22.671 E255.27202
G0 F10500 X60.324 Y21.610
G1 F480 X58.958 Y20.244 E255.35976
G0 F10500 X59.086 Y20.413
G0 X52.310 Y28.234
G0 X52.310 Y28.445
G1 F480 X39.605 Y15.740 E256.17583
G0 F10500 X39.605 Y16.801
G1 F480 X51.250 Y28.446 E256.92381
G0 F10500 X50.189 Y28.446
G1 F480 X39.606 Y17.862 E257.60360
G0 F10500 X39.606 Y18.923
G1 F480 X49.129 Y28.446 E258.21528
G0 F10500 X48.069 Y28.446
G1 F480 X39.607 Y19.984 E258.75881
G0 F10500 X39.607 Y21.046
G1 F480 X47.009 Y28.447 E259.23423
G0 F10500 X45.949 Y28.448
G1 F480 X39.608 Y22.107 E259.64152
G0 F10500 X39.609 Y23.169
G1 F480 X44.888 Y28.448 E259.98060
G0 F10500 X43.800 Y28.420
G1 F480 X39.629 Y24.249 E260.24851
G0 F10500 X39.914 Y25.595
G1 F480 X42.455 Y28.136 E260.41172
G1 F240 E258.41172
G1 Z0.500
G0 F10500 X54.597 Y18.005
G1 Z0.400
G1 F240 E260.41172
G1 F480 X54.790 Y18.197 E260.42071
G1 X54.782 Y17.660 E260.43544
G1 X54.388 Y16.735 E260.48111
G0 F10500 X54.585 Y16.654
G0 X53.570 Y14.711
G0 X52.432 Y13.789
G0 X51.399 Y13.469
G0 X51.318 Y13.665
G1 F480 X50.397 Y13.274 E260.51758
G1 X49.853 Y13.260 E260.52651
G1 X50.026 Y13.433 E260.53763
G0 F10500 X49.087 Y13.555
G1 F480 X43.262 Y7.730 E260.91178
G1 F240 E258.91178
G1 Z0.500
G0 F10500 X53.409 Y8.331
G1 Z0.400
G1 F240 E260.91178
G1 F480 X59.722 Y14.644 E261.31727
G0 F10500 X59.523 Y14.717
G0 X59.972 Y16.738
G0 X59.775 Y16.819
G1 F480 X60.189 Y17.763 E261.35017
G1 X60.109 Y18.743 E261.36494
G1 X59.914 Y19.609 E261.39235
G1 X60.324 Y20.549 E261.43893
G1 F240 E259.43893
G1 Z0.500
G0 F10500 X58.736 Y12.597
G1 Z0.400
G1 F240 E261.43893
G1 F480 X55.447 Y9.309 E261.65016
G1 F240 E259.65016
G1 Z0.500
G0 F10500 X65.340 Y10.113
;TYPE:WALL-OUTER
G1 Z0.400
G1 F240 E261.65016
G1 F480 X65.433 Y9.407 E261.68250
G1 X65.695 Y8.776 E261.71353
G1 X66.111 Y8.232 E261.74463
G1 X66.654 Y7.816 E261.77570
G1 X67.286 Y7.555 E261.80676
G1 X67.954 Y7.467 E261.83736
G1 X75.589 Y7.462 E262.18413
G1 X75.997 Y7.464 E262.20266
G1 X77.010 Y7.513 E262.24873
G1 X77.992 Y7.659 E262.29382
G1 X79.004 Y7.907 E262.34114
G1 X79.974 Y8.251 E262.38789
G1 X80.972 Y8.717 E262.43791
G1 X81.839 Y9.236 E262.48381
G1 X82.658 Y9.839 E262.53000
G1 X83.477 Y10.575 E262.58001
G1 X84.145 Y11.311 E262.62515
G1 X84.768 Y12.143 E262.67236
G1 X85.316 Y13.048 E262.72042
G1 X85.335 Y13.081 E262.72214
G1 X85.759 Y13.978 E262.76721
G1 X86.114 Y14.953 E262.81433
G1 X86.372 Y15.967 E262.86186
G1 X86.536 Y17.036 E262.91098
G1 X86.586 Y18.054 E262.95727
G1 X86.589 Y25.709 E263.30495
G1 X86.585 Y26.095 E263.32248
G1 X86.496 Y26.767 E263.35327
G1 X86.234 Y27.399 E263.38434
G1 X85.820 Y27.938 E263.41521
G1 X85.272 Y28.358 E263.44657
G1 X84.642 Y28.619 E263.47754
G1 X83.975 Y28.707 E263.50810
G1 X69.991 Y28.712 E264.14324
G1 X68.769 Y28.551 E264.19922
G1 X67.668 Y28.095 E264.25334
G1 X67.654 Y28.089 E264.25404
G1 X66.697 Y27.354 E264.30884
G1 X65.962 Y26.396 E264.36368
G1 X65.505 Y25.293 E264.41791
G1 X65.500 Y25.282 E264.41846
G1 X65.348 Y24.119 E264.47173
G1 X65.340 Y10.113 E265.10787
G0 F10500 X65.815 Y10.142
G0 X73.117 Y10.526
G0 X73.587 Y10.587
G1 F480 X73.668 Y11.202 E265.13604
G1 X73.905 Y11.776 E265.16424
G1 X74.283 Y12.268 E265.19242
G1 X74.718 Y12.603 E265.21736
G1 X74.778 Y12.647 E265.22074
G1 X75.349 Y12.883 E265.24880
G1 X75.965 Y12.965 E265.27703
G1 X76.580 Y12.883 E265.30521
G1 X77.154 Y12.647 E265.33339
G1 X77.646 Y12.268 E265.36160
G1 X78.025 Y11.776 E265.38981
G1 X78.262 Y11.202 E265.41801
G1 X78.343 Y10.587 E265.44619
G1 X78.262 Y9.971 E265.47441
G1 X78.025 Y9.398 E265.50257
G1 X77.647 Y8.905 E265.53079
G1 X77.154 Y8.526 E265.55903
G1 X76.580 Y8.290 E265.58722
G1 X75.965 Y8.209 E265.61539
G1 X75.349 Y8.290 E265.64361
G1 X74.776 Y8.526 E265.67176
G1 X74.283 Y8.905 E265.70000
G1 X73.905 Y9.398 E265.72822
G1 X73.668 Y9.971 E265.75638
G1 X73.587 Y10.587 E265.78460
G0 F10500 X73.117 Y10.526
G0 X73.405 Y12.065
G0 X74.674 Y13.413
G0 X74.852 Y13.852
G1 F480 X73.808 Y14.280 E265.83584
G1 X72.915 Y14.953 E265.88663
G1 X72.839 Y15.027 E265.89145
G1 X72.187 Y15.877 E265.94010
G1 X71.741 Y16.938 E265.99238
G1 X71.605 Y17.970 E266.03966
G1 X71.585 Y18.069 E266.04424
G1 X71.733 Y19.213 E266.09664
G1 X72.167 Y20.263 E266.14824
G1 X72.866 Y21.179 E266.20057
G1 X73.774 Y21.876 E266.25256
G1 X74.829 Y22.314 E266.30444
G1 X75.965 Y22.465 E266.35649
G1 X77.112 Y22.310 E266.40906
G1 X78.090 Y21.907 E266.45710
G1 X78.177 Y21.862 E266.46155
G1 X79.002 Y21.229 E266.50878
G1 X79.075 Y21.166 E266.51316
G1 X79.710 Y20.338 E266.56056
G1 X79.765 Y20.258 E266.56496
G1 X80.164 Y19.292 E266.61243
G1 X80.197 Y19.201 E266.61683
G1 X80.332 Y18.171 E266.66401
G1 X80.343 Y18.075 E266.66840
G1 X80.206 Y17.036 E266.71600
G1 X80.190 Y16.940 E266.72042
G1 X79.791 Y15.978 E266.76772
G1 X79.752 Y15.890 E266.77209
G1 X79.116 Y15.063 E266.81948
G1 X79.057 Y14.987 E266.82385
G1 X78.226 Y14.349 E266.87143
G1 X78.149 Y14.292 E266.87578
G1 X77.186 Y13.894 E266.92311
G1 X77.096 Y13.857 E266.92753
G1 X76.062 Y13.722 E266.97489
G1 X75.968 Y13.708 E266.97921
G1 X74.852 Y13.852 E267.03031
G1 F240 E265.03031
G1 Z0.500
G0 F10500 X81.404 Y16.898
G1 Z0.400
G1 F240 E267.03031
G1 F480 X81.167 Y17.471 E267.05848
G1 X81.086 Y18.087 E267.08670
G1 X81.167 Y18.702 E267.11487
G1 X81.404 Y19.276 E267.14308
G1 X81.782 Y19.768 E267.17126
G1 X82.217 Y20.103 E267.19619
G1 X82.277 Y20.147 E267.19957
G1 X82.848 Y20.383 E267.22763
G1 X83.464 Y20.465 E267.25586
G1 X84.079 Y20.383 E267.28404
G1 X84.653 Y20.147 E267.31223
G1 X85.145 Y19.768 E267.34043
G1 X85.524 Y19.276 E267.36864
G1 X85.761 Y18.702 E267.39685
G1 X85.842 Y18.087 E267.42502
G1 X85.761 Y17.471 E267.45324
G1 X85.524 Y16.898 E267.48140
G1 X85.146 Y16.405 E267.50962
G1 X84.653 Y16.026 E267.53786
G1 X84.079 Y15.790 E267.56605
G1 X83.464 Y15.709 E267.59422
G1 X82.848 Y15.790 E267.62244
G1 X82.275 Y16.026 E267.65059
G1 X81.782 Y16.405 E267.67883
G1 X81.404 Y16.898 E267.70705
G0 F10500 X81.104 Y16.934
;TYPE:SKIN
G1 F480 X80.022 Y15.852 E267.77655
G0 F10500 X80.217 Y15.768
G0 X81.363 Y16.172
G0 X81.530 Y16.300
G1 F480 X77.749 Y12.519 E268.01941
G0 F10500 X78.230 Y11.938
G1 F480 X82.110 Y15.819 E268.26866
G0 F10500 X82.872 Y15.520
G1 F480 X78.529 Y11.177 E268.54762
G0 F10500 X78.547 Y10.134
G1 F480 X83.915 Y15.503 E268.89244
G0 F10500 X83.943 Y15.293
G0 X85.758 Y15.480
G0 X85.962 Y15.429
G1 F480 X78.617 Y8.083 E269.36426
G0 F10500 X77.294 Y7.821
G1 F480 X86.226 Y16.752 E269.93795
G0 F10500 X86.046 Y17.633
G1 F480 X86.171 Y18.289 E269.95521
G1 X86.025 Y19.204 E269.97407
G1 X86.323 Y20.032 E270.01404
G0 F10500 X86.323 Y21.092
G1 F480 X85.249 Y20.018 E270.08302
G0 F10500 X84.615 Y20.445
G1 F480 X86.324 Y22.154 E270.19279
G0 F10500 X86.324 Y23.215
G1 F480 X83.795 Y20.686 E270.35524
G0 F10500 X82.621 Y20.573
G1 F480 X86.325 Y24.276 E270.59312
G0 F10500 X86.325 Y25.337
G1 F480 X80.398 Y19.410 E270.97382
G0 F10500 X80.976 Y18.927
G1 F480 X80.708 Y18.128 E271.00102
G1 X80.520 Y17.411 E271.03469
G0 F10500 X80.731 Y17.385
G0 X81.374 Y15.996
G0 X82.700 Y15.231
G0 X85.181 Y13.866
G0 X85.371 Y13.777
G1 F480 X80.279 Y8.684 E271.36179
G1 F240 E269.36179
G1 Z0.500
G0 F10500 X76.416 Y8.003
G1 Z0.400
G1 F240 E271.36179
G1 F480 X75.761 Y7.878 E271.37899
G1 X74.845 Y8.023 E271.39781
G1 X74.019 Y7.728 E271.43764
G0 F10500 X72.959 Y7.729
G1 F480 X74.031 Y8.800 E271.50647
G0 F10500 X73.605 Y9.435
G1 F480 X71.899 Y7.729 E271.61605
G0 F10500 X70.838 Y7.729
G1 F480 X73.365 Y10.255 E271.77833
G0 F10500 X73.476 Y11.428
G1 F480 X69.778 Y7.730 E272.01586
G0 F10500 X68.718 Y7.730
G1 F480 X74.641 Y13.653 E272.39630
G0 F10500 X75.122 Y13.073
G1 F480 X75.920 Y13.341 E272.42347
G1 X76.641 Y13.532 E272.45735
G0 F10500 X77.116 Y12.946
G1 F480 X78.198 Y14.028 E272.52685
G1 F240 E270.52685
G1 Z0.500
G0 F10500 X73.889 Y13.961
G1 Z0.400
G1 F240 E272.52685
G1 F480 X67.694 Y7.767 E272.92473
G0 F10500 X66.876 Y8.009
G1 F480 X73.242 Y14.375 E273.33363
G0 F10500 X72.648 Y14.842
G1 F480 X66.266 Y8.460 E273.74356
G0 F10500 X65.844 Y9.099
G1 F480 X72.187 Y15.442 E274.15098
G0 F10500 X71.800 Y16.115
G1 F480 X65.626 Y9.941 E274.54755
G0 F10500 X65.601 Y10.977
G1 F480 X71.486 Y16.862 E274.92556
G0 F10500 X71.362 Y17.799
G1 F480 X65.602 Y12.039 E275.29553
G0 F10500 X65.603 Y13.100
G1 F480 X71.429 Y18.927 E275.66978
G0 F10500 X71.221 Y18.952
G0 X71.747 Y20.665
G0 X72.084 Y20.941
G0 X72.254 Y20.812
G1 F480 X65.603 Y14.161 E276.09698
G0 F10500 X65.604 Y15.223
